do
  let note = 0
  d4
    $s "superbass*16"
    #n "{~ ~ ~ ~, c d f}*4"
    #sustain "0.1"
    #lpf (range 400 1000 $slow 8 $rand)
    #gain "0.8"
    |+| n note
    #cps(125/240)
  d2 
    $s "superhammond*16"
    #n "{~ ~ ~ ~, c d f g b b c}*4"
    |+|n "[0, 7, 12]"
    #lpf (range 800 2000 $slow 12 $rand)
    #gain "1.0"
    |+| n note
    #sustain "0.1"

d3
  $sometimesBy 0.6 (jux (rev))
  $stack
  [
    s "uni*4",
    "[~ uni:1](5, 8)" #gain "0.8"
  ]
  |*| gain "1.0"

d4
  $sometimesBy 0.6 (jux ((3/8) ~>))
  $sound "uni(6, 16)"
  #n "1 2"
  #gain "0.8"
  #delay "0.25" #delaytime "{0.005 0.02 0.01}%4" #delayfeedback "0.9"

d5
  $s "tet(5, 8)"
  
  #gain "1.2"



















hush

d1
  $s "superbass*16"
  #n "{~ ~ ~ ~, c5 d5 f5 g5 c5 d5}*4"
  #sustain "0.11"
  #cps (125/240)
  # lpf (range 200 1000 $slow 8 $rand)
  # resonance "0.2"

d2
  $s "superhammond*16"
  #n "{~ ~ ~ ~, c5 d5 f5 g5 c4}*4"
  #sustain "0.1"
  |+| n "[0, 7, 12]"
  # lpf (range 1000 4000 $slow 8 $rand)
  # resonance "0.2"
  #room "0.8" #size "0.9"
 
d7
  $stack
  [
    "distd*4" # gain "1.2",
    "[~ uni:1]*4"
  ]
  #gain "1.2"


d5
  $s "supermoog2*16"
  #n "{~ ~ ~ ~, c5 c6 f5 b6 c6 c4 g6}*4"
  #sustain "0.1"
  #voice "10.0"
  #lpf (range 800 2000 $slow 16 $sine)
  #resonance "0.2"

d1
  $ sound "tet(11, 16, {0, 2})"
  #gain "1.0"
  #lpf (range 200 15000 $slow 16 $sine)  #resonance "0.0"

  #up "{[0,7] [7,14]}%5"
  #n "{0 1 2 3}%9"

d2
  -- $jux ((3/16) <~)  
  $sound "jimsyn(9, 16)"
  #n "<20 1>"
  |*| up "-0.2"
  |*| gain "1.0"
  #lpf (range 2000 8000 $slow 12 $sine)
  #resonance "0.2"

do 
  let chord1 = "c'sus2"
  d3
    $stack
    [
      sound "supersaw(3,16,{0,8})" # note chord1 |+|note "12", 
      sound "supersaw(3,16,{2,5})" # note chord1 |+|note "7",
      sound "supersaw(3,16,{0,3})" # note chord1 |+|note "0"
    ]
    #sustain "0.12"
    #gain "0.9"
    #lpf (range 800 8000 $slow 16 $sine)
    #resonance "0.1"

d4
  -- $every 8 (jux (rev))
  -- $sometimesBy 0.2 ((5/8) <~)
  $fast 2
  $stack  
  [
    s "distd*2", 
    s "bd cp bd hc" #n (irand 12),
    s "uni(3, 8, {0, 3})"
    #n "0 0 0 1 0 3 1 2"
  ]
  #gain "<1 1 1 1 1 1 0 0>"
  |*|gain "1.2"

d2
  $fast 2
  $stack
  [
    s "super808(5, 8, 3)" #n "{-12 -7 -5 0 5 7}%3",
    s "ifdrums(3, 8, 0)"  #n "{1 2 3}%4",
    slow 2 $s "ifdrums(2, 8)" #gain "1.5"
  ]
  #shape "0.5"
  #gain "1.0"

do
  let chord2 = "c'sus4"
  d5
    $jux ((5/8) ~>)
    $s "superhammond(7, 16, [0])" #note chord2 |+|note "[0, 7]"
    #lpf (range 500 8000 $slow 16 $sine)
    #resonance "0.0"
    #voice 3
    #gain "1.0"
    |+|note "{0 -12 12 -7 7}%16"

d4
  $s "kon(5, 16, [0, 5])"
  #n "{0 1 3}%4"
  #gain "1.3"

d6
  $jux (rev)
  $slow 8
  $s "superzow"
  #sustain "4.0"
  #n "[0, 7, 9]"
  |+|n "c d f g"
  #lpf 4000
  #room "0.9" #size "0.9"

  

  

  

unsolo 4  

d5
  $jux (rev)
  $s "supersaw*16"
  #sustain "0.1"
  #note "{0 -5 -7 -12 -17 -19}%6"
  |+| note "{0, 7}"
  #voice (range 0.1 0.8 $slow 24 $sine)
  #cutoff (range 400 18000 $slow 32 $sine)
  #resonance "0.3"
  #gain "1.0"
  #semitone "{7 0 12 5 19 24}%12"
  
unsolo 5


do
  let base = 0;
  d1
    $ sometimesBy 0.8 (jux (rev))
    $ sometimesBy 0.4 (rev)
    $s "superbass*16"
    #n "{~ ~ ~ ~, c5 a5 f5 g5 c4 b5}*4"
    #sustain "0.12"
    #cps (125/240)
    |+| n "{~ ~ ~ ~, 0  12}"
    |+| n base
    # lpf (range 200 4000 $slow 8 $rand)
    # resonance "0.2"
  d2
    $s "supermoog2*16"
    # sustain "0.15"
    # n "{~ ~ ~ ~, c4 c4 g5 c6 b5}"
    |+| n base
    # lpf (range 1000 8000 $slow 8 $rand)
    # resonance "0.2"
    # voice "8"
    # room "0.9" #size "0.8"

d3
  $stack
  [
    s "uni(11, 16)" #n "{~ ~ ~ ~, 1 2 2 3 1 3}",
    s "uni*4" #gain "1.4"
  ]
  |*| gain "1.2"

d4
  $s "superhammond"
  #sustain "3.0"
  # n "{~ ~ ~ ~, c d f g}"
  |+| n "c5'maj9"
  |+| n "[0, 12]"
  # lpf (range 1000 2000 $slow 8 $sine)
  # resonance "0.3"

d6 silence

  $ jux (iter 4)
  $ loopAt 8
  $ chop 128 $ sound "bev"
  # speed 1.2
  # shape "0.3"
  # room "1.0"
  # gain "1.8"

--10 last beat

do
  d1 silence
  d3 silence
  d4 silence
  d5 silence  

do
  let
    pat1 = "{0 ~ ~ 0 ~ ~ 0 ~ 0 0 ~ 0 ~ ~}%8"
  d2
    $fast 2
    $sometimesBy 0.1 (rev)
    $sometimesBy 0.4 (0.25 <~)
    $stack
    [
      s "uni(5, 8)" #n "{0 1 2}%8", 
      s "distd(2, 8)" |*|gain "1.8" #voice "4" #sustain "0.2",
      s "[~ uni:1]*2"
    ]
    #shape "0.85"
    |*|gain "0.5"
  d6
    $fast 2
    $every 3 (jux (0.125 ~>))
    $stack
    [
      up pat1
      # s "bfm"
      |+| note (choose [12, 0, -12, -24, -36])
      |+| note "{0, 5, 7, 9}"
    ]
    #sustain (choose [0.05, 0.12, 0.15])
    #pitch1 (choose [0.33, 3.33, 19.33])
    #voice (choose [30, 1000, 4000, 12000])
    #delay "0.8"
    #delaytime (choose [0.01, 0.03, 0.02, 0.008])
    #delayfeedback "0.8"
    |*|gain "0.2"
    #room "0.4"
    #size "0.2"

do
  d7 silence
  d5 silence

do
  let
    pat2 = "{0 ~ 0 ~ ~ 0 ~ 0 ~ ~}%8"
  d1
    $every 4 (jux (0.125 ~>))
    $up pat2
    # s "superzow"
    |+| note (choose [19, 12, 0])
    |+| note "{0, 7, 11}"
    #sustain (choose [0.08, 0.12, 0.3])
    #shape "p0.8"
    #lpf (range 1000 20000 $rand)
    #resonance "0.4"
    #detune "10"
    #accelerate (choose [0, 0, 1, 4]) #slide "1"
    #gain "0.0"

do
  let
    pat3 = "{0 ~ 0 ~ ~ 0 0 ~ 0}%8"
  d3
    $sometimesBy 0.4 (jux (0.125 ~>))
    $up pat3
    # s "supersiren"
    # sustain "0.15"
    # note "{0,5,7,9,11}"
    |+| note (choose [0, 5, 7, 9, 11])
    |+| note (choose [-12, -24, 0, 12, 24])
    #pan (rand)
    #gain "0.2"
    #cps(60/240)

d7
  $s "spiano"
  #n "{0}%5"
  #gain "1.0"

hush

d1
  $s "bd"
  #cps(120/140)
    
d6 silence

unsolo "3"    

d4
  $s "{superzow*8, uni:1*8}"
  #n "{0,5,7,9,11}"
  |+|n "{-12,0,12,24,48}"
  #sustain "0.01"
  #gain (scale 0.0 2.5 $slow 24 $saw1)
  -- #vowel "{a i u e o}%12"
  #room "0.2"
  #size "0.2"
    
  

solo 6  
