d12 $ s "none" #td_s 0

hush

-- Intro -------------

do
  setcps(120/240)    
  once
    $ s "none"
    # td_s "1"
  once
    $ s "matsu"
 
do
  d12
    $ s "none/2"
    # td_s (choose[1..3])
  d1
    $ s "sfh"
    # lpf 1000
    # pan (rand)
    # n (choose[0..32])
    # gain "0.9"

d2
  $ s "superdown/8"
  # note "c5"
  # voice "200"
  # speed "[1.5, 1.0]"
  # legato "4.0"
  # gain "0.9"

do
  d12
    $ s "none(3, 4)"
    # td_s (choose([23..28]))
  d4
    $ s "ae(3, 8)"
    # n (choose[0..4])
    # gain "0.8"
    # pan (rand)
    # speed "[1.0, 1.001]"
    # lpf (range 80 1000 $ slow 8 $ sine) # resonance "0.2"
    # delay "0.9"
    # delaytime (range 0.001 0.05 $ rand)
    # delayfeedback "0.95"
    

--- First note ----------

do
  d12
    $ s "none*4"
    # td_s (choose([34..40]))
  d5
    $ echo 10 0.2 0.8
    $ s "superwho"
    # midichan 1
    # note "c4'min13"
    |+| note "[0, 12]"
    # pan "<0.1 0.9>"
    # legato "0.05"
    # lpf (range 1200 8000 $ slow 2 $ sine)
    # resonance "0.2"
    # room "0.8" # size "0.9"
    
    


d1 silence >> d2 silence >> d3 silence >> d4 silence

do
  setcps(130/240)
  let base = 0
  d5 silence
  d12
    $ s "none(3, 4)"
    # td_s (choose([58..66]))    
  d1
    $ echo 12 0.75 0.9
    $ s "superwho(7, 16)"
    -- # note "c5'min11"
    # note "<c5'min11 <c5'min13 c5'min7 c5'min9>/4>/2"
    |+| note base
    -- |+| note "<0 12>/2"
    |+| note "[0, 12]"
    -- |+| note "<0 0 -5 0>/4"
    # room "0.8" # size "0.9"
    # lpf (range 8000 12000 $ slow 8 $ sine)
    # resonance "0.3"
    # legato "0.75"
    # gain "0.8"
  d2
    $ echo 4 0.5 0.9
    $ s "superbass(7, 16)"
    # legato "1.2"
    # note (scale "minPent" "{0..9}%3")
    # lpf (range 200 2000 $ slow 8 $ sine)
    # resonance "0.2"
    |+| note "-12"
    |+| note base    
    # gain "1.2"

--- Beat -----------------------

do
  d12
    $ s "none(5, 8)"
    # td_s (choose([73..79]))
  d3
    $ stack
    [
      s "ifdrums(9, 16, <0..15>/10)" # n (choose[1..2]) # gain "1.3",
      s "uni(5, 16)" # gain "1.5",
      s "[~ cp](5, 8, <0..7>/12)" # n "<1 2>" # gain "1.1",
      s "hc(11, 16)" # gain "1.0"
    ]
    |*| gain "1.2"

do
  d12
    $ s "none(7, 16)"
    # td_s (choose([99,100]))
  d4
    $ s "superbass(16, 16)"
    # note (scale "yu" "{0..15}%1")
    |+| note "-12"
    # legato "0.8"
    # lpf(range 400 2000 $ slow 8 $ sine)
    # resonance "0.2"
    # gain "1.0"

d4
  $ s "supersaw(7, 16, [0, 5])"
  # note "c5'min9"
  # legato "0.75"
  # lpf (range 800 8000 $ slow 8 $ sine)
  # resonance "0.2"
  # pan(rand)
  # gain "0.9"

do
  d12
    $ s "none(7, 16)"
    # td_s (choose([43..51]))
  d4
    $ s "kon(7, 16)"
    # n "{0..9}%3"  
    # gain "1.3"

--- New Beat ----
do
  hush  
  d12
    $ s "none(5, 8)"
    # td_s (choose([17,18]))
  d1
    $ s "sup(11, 16, <0..15>/8)"
    -- # n (choose[0..6])
    # n "{0..6}%3"
    # shape "0.6"
    # gain "1.5"

d2
  $ s "hc(11, 16, <0..15>/8)"  
  
do
  d12
    $ s "none(5, 8)"
    # td_s (choose([67..72]))
  d3
    $ s "tet(9, 16)" 
    # lpf (range 400 8000 $ slow 8 $ sine) 
    # resonance "0.1"
    # gain "1.0"     
    
    
    # room "0.6" # size "0.9" 
    # up "[0, 7, 12]"
    -- # n "<0 1 2 3>/8"
    

--- Distort Bass ----------    

do
  d12
    $ s "none(5, 8)"
    # td_s (choose([1..100]))
  d4
    $ s "superzow(9, 16)"
    # midichan "4"
    # legato "1.2"
    # note (scale "minPent" "{0..5}%3")
    |-| note "22"
    # lpf (range 400 8000 $ slow 8 $ sine) 
    # resonance "0.3"
    # shape "0.9"
    # gain 1.0
    

d5
  $ jux (iter 16)
  $ s "superbass(16, 16)"
  # note (scale "minPent" (choose[0..9]))    
  |+| note "-10"
  # lpf (range 400 5000 $ slow 16 $ rand)
  # pan (rand)
  # resonance "0.3"
  # legato "1.0"
  # gain "0.9"
    

--- Hard Beat ----------------------

do
  d12
    $ s "none(11, 16)"
    # td_s (choose([1..100]))
  d2
    -- $ sometimesBy 0.1 (rev)
    -- $ sometimesBy 0.4 ((1/8) <~)
    $ stack
    [
      s "uni(10, 16)" # n "{0 1 2}%8", 
      s "distd(2, 16)" # gain "1.1",
      s "uni:1(9, 16, 5)"
    ]
    -- # room "0.8" # size "0.9"
    # shape "0.8"
    # gain "1.8"

d4
  -- $ sometimesBy 0.2 (rev)
  -- $ sometimesBy 0.4 ((1/8) <~)
  $ stack
  [
    s "ifdrums(7, 16, 10)" # n (choose[1..2]),
    s "uni(7, 16)" # n (choose[1..3]) # gain "1.0",
    s "gabba(3, 16)" # gain "1.7"
  ]
  # delay "1.0"
  # delaytime (choose([0.01, 0.02, 0.03, 0.005]))
  -- # delaytime (range 0.002 0.03 $ rand)
  # delayfeedback "0.8"
  |+| gain "1.8"
  # shape "0.8"
  -- # room "0.9"

d5
  -- $ sometimesBy 0.2 (rev)
  $ stack
  [
    s "ifdrums(7, 16, 5)" # n (choose[1..3]),
    s "uni(7, 16)" # n (choose[1..2]),
    s "uni(3, 8)" # gain "1.5"
  ]
  -- # delay "1.0"
  -- # delaytime (choose([0.01, 0.02, 0.03, 0.005, 0.02]))
  -- # delaytime (range 0.005 0.03 $ rand)
  -- # delayfeedback "0.7"
  # shape "0.8"  
  # gain "1.8"

d3
  -- $ jux (rev)
  $ s "superzow(16, 16)"
  # note (scale "yu" "{0..15}%1")
  |+| note "-24"
  |+| note "[0, -12]"
  # legato "0.9"
  # lpf (range 200 12000 $ slow 8 $ sine)
  # resonance "0.3"
  # gain "0.0"

d5
  $ s "superzow(9, 16)"
  # note "c5'min13"
  # lpf (range 100 8000 $ slow 1 $ rand)
  # resonance "0.2"
  # legato "0.9"
  # gain "1.5"

unsolo 5

--- End drone --------------

do
  hush
  setcps(130/240)
  once
    $ s "none"
    # td_s 1
  once
    $ s "matsu"
    # up "-2"
    # gain "1.5"

do
  d12
    $ s "none(3, 8)"
    # td_s (choose[29, 31, 32, 90, 91, 92, 93])
  d1
    $ slow 4
    $ stack
    [
      s "superhammond" # note "c5'min9 c5'min13",
      s "superhammond" # note "c2" # gain "1.2"
    ]
    -- |+| note "<0 7 0 12>/4"
    # voice 3
    -- |+| note "[0, 12]"
    # legato "1.0"
    |*| gain "0.9"

do
  d12
    $ s "none*16"
    # td_s (choose([1..100]))
  d2
    $ echo 12 0.251 0.92
    $ s "superwho(5, 8)"
    # note (scale "yu" "{0..12}%5")
    -- |+| note "<0 7 0 -5>/4"
    |+| note "-12"
    |+| note "[0, 7]"    
    # pan (rand)
    # midichan "1"
    # ccn "30"  # ccv (range 10 127 $ slow 15 $ rand)
    # legato "1.0"
    # gain "0.9"
    # lpf (range 400 4000 $ slow 1 $ rand)
    # resonance "0.2"
    # room "0.8" # size "0.92"

d3
  $ s "supersawfbk"
  # note "c2"
  # distort "3.0"
  # rq "0.2"
  # legato "2.0"
  # wet "0.8"
  # room "0.8" # size "0.8"
  # gain "1.0"

d4
  $ slow 16
  $ s "matsu/2"
  # up "-2"
  # gain "1.3"


d2
  $ s "superdown/8"
  # note "c6"
  # voice "400"
  # speed "[1.5, 1.0]"
  # legato "4.0"
  # gain "0.8"


d6
  -- $ jux (0.5 ~>)
  -- $ fast 8 $ randslice 30
  -- $ fast 16 $ randslice 80
  $ s "adhan/4"
  -- # n (choose[0..3])
  -- # up "<0 0 7 0>"
  # room "0.6" # size "0.95"
  # gain "0.8"

do
  hush
  once
    $ s "none"
    # td_s 1
