hush

setcps(130/240)


d1
  $ jux (("[5, 2]"/14)<~)  
  $ s "uni(3, 14)"
  # n "<0..3>*9"
  -- # gain "<1.3 0.9>*14"
  # delay 1.0 # delaytime "<0.04 0.03 0.02 0.01>*4" # delayfeedback 0.9

d2
  $ jux (("[7, 3]"/14)<~)  
  $ s "fb(3, 14, 5)"
  # n "<0..3>*9"
  -- # gain "<1.3 0.9>*14"
  # delay 1.0 # delaytime "<0.04 0.03 0.02 0.01>*4" # delayfeedback 0.7
  
d3
  $ slow 4
  $ s "empty"
  |+| note "[-0.05, 0.05]"
  # n 2
  # delay 3.0 # delaytime 0.04 # delayfeedback 0.9

d4
  $ jux (("[11, 5]"/14)<~)
  $ jux (("[3, 5]"/7)<~)
  $ s "rs(1, 7)"  
  |+ note "[-0.05, 0.05]"
  -- |+ note "[-12, 0]"
  # legato 1.0
  -- # delay 0.8 # delaytime ("[2, 5]"/14) # delayfeedback 0.8 # lock 1
  # lpf (choose [4000, 6000, 8000, 10000]) # resonance "0.8"
  # room 0.9 # size 0.5

d3
  $ s "uni(3, 7)"
  # legato 0.2
  # gain 1.5

d4
  $ jux ((3/14)<~)
  $ s "uni(9, 14)" # n (irand 4)
  # delay 0.5 #delaytime (range 0.002 0.03 $ rand) # delayfeedback 0.8
  # gain 1.1

d5
  $ s "supermoog(5, 14)" 
  # lpf (range 800 8000 $ slow 2 $ sine) # resonance "0.1"
  # note "f2"
  |+ note "<0 5 -5>/4"
  -- # note "<c3 a2 g2>/4"
  # legato 1.2
  # gain 1.4

d5
  -- $ jux ((1/14)~>)
  -- $ jux ((2/14)<~)
  $ s "superbass(9, 14)"
  # legato 0.8
  # note "<f2 g2 c3>/4"  
  -- |+ note "<0 12>*7"
  |+ note "[0.05, -0.05]"
  # lpf (range 100 8000 $ rand) # resonance "0.3"
  # gain 1.7

d6
  $ s "matsu/7"
  # gain 1.2

d7
  $ sometimesBy 0.2 (jux (rev))
  $ s "ifdrums(13, 14)"
  # n (irand 10)  
  # gain (range 1.0 1.5 $ rand)

