setcps(135/240)

do
  -- resetCycles
  d1    
    $ stack[
      jux (("[12, 5, 3]"/14)<~) $ 
        -- sometimesBy 0.2 (rev) $
        s "superbass(5, 14, {0..13}/5)"
        # legato 0.8
        # lpf (range 4000 10000 $ rand) # resonance "0.1"
        # note "c5'maj9"
        # gain 1.0,
      s "supermoog(5, 14)" 
        # lpf (range 4000 10000 $ slow 8 $ sine) # resonance "0.1"
        # note "<c3 a2>/4"
        # legato 1.0
        # gain 1.5
    ]
    |+| note "[0.0, 0.11]"
    |-| note "<5 4 0>/32"
    # room 0.3 # size 0.3
    |*| gain 1
  d2
    $ s "uni(5, 14, {0..13}/5)"
    # gain 1.3
  d3
    $ s "uni(9, 14)" # n (irand 4)
    # delay 1.0 #delaytime (range 0.002 0.03 $ rand) # delayfeedback 0.8
    # gain 1.0


--- New Beat ----
do
  hush  
  d1
    $ s "sup(11, 14, <0..13>/8)"
    -- # n (choose[0..6])
    # n "{0..6}%3"
    -- # n (shuffle 14 "<0..6>")
    # shape 0.6
    # gain 1.3

d2  
  $ s "supermoog(8, 14)"
  # note "a1"
  |+ note (scale "ritusen" "{0..12}%3")
  # legato 0.9
  # lpf (range 800 3000 $ rand) # resonance "0.3"
  # room 0.3 # size 0.3
  # gain 1.5

d3
  $ jux (rev)
  $ s "superwho(4, 14)"
  # note "a5'min11"  
  |+ note "<0 0 2 -5>/4"
  -- |+ note "[7, 0]"
  |+ note "[0.0, 0.12]"
  |+ note 0
  # lpf (range 12000 18000 $ rand) # resonance "0.3"
  # room 0.8 # size 0.3
  # gain 1.0

d4
  $ s "gabba(4, 14)"
  # n 1
  # distort 0.5
  # gain 1.5

d5
  $ sometimesBy 0.2 (rev)
  -- $ sometimesBy 0.4 ((1/8) <~)
  $ stack
  [
    s "ifdrums(9, 14)" # n (choose[1..2]),
    s "uni(11, 14)" # n (choose[1..3])
  ]
  # delay 0.9
  # delaytime (range 0.003 0.03 $ rand)
  # delayfeedback 0.9
  # shape 0.7


d1
  $ stack[
  s "uni(5, 14)"
    # gain 1.3,
  jux (("[5, 11]"/14)<~) $
    sometimesBy 0.2 (rev) $
    s "hc(4, 14)"
    # shape 0.7
    # gain 1.3,
  jux (("[3, 9, 12]"/14)<~) $
    s "uni(9, 14)"
    # n (range 1 3 $ rand)
    # shape 0.5
    # gain 1.3
  ]
  






hush