hush

setcps(120/240)

once
  $ s "matsu/8" 
  # note "[0, -12]"
  |+ note "[-0.1, 0.1]"
  # legato 2
  # room 0.5 # size 0.9

d2
  $ s "sfh"
  # pan (rand)
  # n (choose[0..32])
  # gain 1.0  

d3
  $ s "empty/4"
  # n "[0, 1, 2]"
  # legato 1
  |+ note "[-0.1, 0.1]"
  -- # lpf 8000
  # gain 1.0

d4
  $ s "superdown/8"
  # note "c5"
  # voice "1000"
  # speed "[1.5, 1.0]"
  # legato "4.0"
  # gain 0.8

d1
  $ jux (("[9, 5]"/14)<~)
  $ jux ((3/7)<~)
  $ s "rs(1, 7)"  
  |+ note "[-0.05, 0.05]"
  |+ note "[-12, <0 -5>/4]"
  # legato 0.5
  # delay 0.8 # delaytime (1/2) # delayfeedback 0.5 # lock 1
  # lpf (choose [4000, 6000, 8000, 10000]) # resonance "0.8"
  # room 0.9 # size 0.5  

d2
  $ jux (("[7, 3]"/14)<~)  
  $ s "fb(3, 14, 5)"
  -- # n "<0..3>*9"
  # gain "<1.3 0.9>*16"
  -- # delay 1 # delaytime "<0.04 0.03 0.02 0.01>*8" # delayfeedback 0.7

d3
  $ jux ((5/14)<~)  
  $ s "uni(3, 14)"
  # legato 0.7
  -- # n "<0..3>*9"
  # gain "<1.5 0.9>*14"
  -- # delay 1 # delaytime "<0.04 0.03 0.02 0.01>*7" # delayfeedback 0.7

d4
  $ stack
  [
    s "uni(3, 7)" # legato 0.5
    , s "fb(5, 14)"
  ]  
  # gain 1.5

 
d4
  $ s "superbass(5, 14)"
  # lpf (range 1000 2000 $ rand) # resonance "0.2"
  # note "c3"
  -- |+ note "<7 7 7 0 0>/4"
  -- |+ note "<0 0 0 9 5 4>/4"
  |+ note "<7 0>/16"
  # legato 0.7
  # gain 1.2
  -- # room 0.3 # size 0.5

d5
  $ sometimesBy 0.4 (jux (rev))
  $ s "ifdrums(9, 14)"
  # n (irand 3)  
  # gain (range 1.0 1.5 $ rand)

d5
  $ s "kon(9, 14)"
  # n "{0..9}%9"
  # gain 1.1


hush

once
  $ s "matsu" 
  |+ note "[-0.1, 0.1]"
  # note "[0, -12]"
  # gain 1.0
  # room 0.5 # size 0.8

do
  -- hush
  resetCycles
  setcps(135/240)
  d1
    $ stack[
      jux (("[7, 3]"/14)<~) $ 
        -- sometimesBy 0.2 (rev) $
        s "superbass(5, 14, {0..13}/7)"
        # legato 0.9
        # lpf (range 4000 10000 $ rand) # resonance "0.0"
        # note "c5'maj9"
        # room 0.3 # size 0.3
        # gain 1.0,
      s "supermoog(5, 14)" 
        # lpf (range 4000 10000 $ slow 8 $ sine) # resonance "0.0"
        # note "<c3 a2>/4"
        # legato 1.0
        # gain 1.5
    ]
    |+| note "[-0.02, 0.02]"
    |-| note "<5 4 0>/16"
    |*| gain 1.1
  d2
    $ s "uni(5, 14, {0..13}/7)"
    # gain 1.8  
  d3
    $ s "uni(9, 14)" # n (irand 4)
    # delay 1.0 #delaytime (range 0.002 0.03 $ rand) # delayfeedback 0.9  
    # gain 1.0

d4
  $ sometimesBy 0.4 (jux (rev))
  $ s "ifdrums(9, 14)"
  # n (irand 3)  
  # gain (range 1.0 1.8 $ rand)

d5
  $ s "superbass(14, 14)"
  # legato 0.7
  # note "c2"
  |- note "<5 4 0>/16"
  |+ note (scale "hexMajor7" "{0..19}%1")
  # lpf (range 800 8000 $ rand) # resonance "0.0"
  # gain 1.8

d6
  $ s "supermoog"  
  # note "c3"
  # legato 1.5
  |+ note "[-0.04, 0.04]"
  |- note "<5 4 0>/16"  
  # lpf 800 # resonance 0.3
  # gain 1.5

d1
  $ stack
  [
    s "uni(3, 7)" # legato 0.5
    , s "fb(5, 14)"
  ]  
  # gain 1.5


unsolo 1

hush


do
  hush
  d1
    $ s "sup(11, 14, <0..13>/8)"
    -- # n (choose[0..6])
    # n "{0..6}%3"
    # shape "0.6"
    # gain "1.5"

d2
  $ jux ((7/14)~>)
  $ s "tet(5, 14)"
  # legato 2.0
  -- # n "<0 0 0 1 2 3>/4"
  # lpf (range 800 3000 $ slow 8 $ sine) # resonance "0.2"
  # note "<7 0>/16"
  |+ note "[-0.02, 0.02]"
  # room 0.3 # size 0.9

d3
  $ s "kon(9, 14)"
  # n "{0..[0, 5]}%9"
  # gain 1.1

d4
  $ stack
  [
    s "superwho(5, 14, 0)" # note "c5'sus2"
    , s "superwho(5, 14, 5)" # note "c5'sus2" |+ note 12
    , s "superwho(5, 14, 9)" # note "c5'sus2" |+ note 7
  ]
  |+ note "<7 0>/16"
  # legato 0.7
  # lpf (range 800 8000 $ rand) # resonance "0.2"

d5
  $ every 4 (gap 16)
  $ sometimesBy 0.1 (rev)
  $ stack
  [
    s "gabba(3, 7)" # gain 1.5
    , s "cp(9, 14, {0..13}/8)"
    , s "ifdrums(5, 14, {0..13}/8)" # n (irand 3)
  ]
  # delay 1.0 # delaytime (range 0.002 0.03 $ rand) # delayfeedback 0.6
  # shape 0.9
  # room 0.5 # size 0.5
  |* gain 1.8




d2
  $ jux ((1/14)~>)
  -- $ jux ((7/14)<~)
  $ s "superhammond(5, 14)"
  # voice 4
  # legato 1
  # note "c4'min9"
  |+ note "<0 7>"
  |+ note "[0.05, -0.05]"
  # lpf (range 800 8000 $ rand) # resonance "0.3"
  # room 0.5 # size 0.3
  # gain 1.0

d3
  $ stack
  [
    s "uni(3, 7)"
    , s "fb(4, 7, 5)"
  ]
  # legato 0.2
  # gain 1.5


d5
  $ jux ((7/14)<~)
  $ s "superhammond(9, 14, [0, 5, 9])"
  # voice 4
  # note "c4 c5"
  |+ note (scale "ritusen" "{0..9}%[3, 5]")
  |+ note "[0.05, -0.05]"
  # legato 1.5
  -- # room 0.5 # size 0.8
  # gain 0.9




d3
  $ slow 4
  $ s "empty"
  |+| note "[-0.05, 0.05]"
  # n 2
  # delay 3.0 # delaytime 0.04 # delayfeedback 0.9

d4
  $ jux ((3/14)<~)
  $ s "uni(9, 14)" # n (irand 4)
  # delay 0.5 #delaytime (range 0.002 0.03 $ rand) # delayfeedback 0.8
  # gain 1.1



d1
  $ sometimesBy 0.2 (jux (rev))
  $ stack[
    s "empty(3, 7)" # legato 1 # gain 1.5 # n 1
    , jux ((5/7)<~) $ s "hc:1(9,14)"
    , s "aphex(9, 14, 5)" # legato 1 # n 0
  ]
  -- # delay 1.0 # delaytime 0.005 # delayfeedback 0.2
  -- # lpf (range 2000 8000 $ rand) # resonance "0.1"
  # distort 0.5
  # shape 0.8
  |* gain 1.4

d2
  $ s "hc:1*14"
  # distort 0.9

