hush

setcps(120/240)

do
  let shift = 0
  d1
    $ jux (("[7, 11]"/16)<~)
    $ jux (("[3, 5]"/8)<~)
    $ s "rs"  
    |+ note "[-0.02, 0.02]"
    |+ note (choose [0, -12])
    |+ note shift
    # legato 2
    -- # delay 1.0 # delaytime ("[5, 3]"/8) # delayfeedback 0.5 # lock 1
    # delay 1.0 # delaytime ("[11, 7]"/16) # delayfeedback 0.8 # lock 1
    # lpf (choose [4000, 6000, 8000]) # resonance "0.8"
    # room 0.9 # size 0.3
  
  d2
    $ s "supermoog(5, 16)"
    # note "g3 f3 c3"
    |+ note shift
    # legato 1
    -- |+ note "<0 0 -7 -2>"
    # lpf (range 400 4000 $ rand) # resonance "0.2"
    # delay 0.7 # delaytime ("[9, 5]"/16) # delayfeedback 0.5 # lock 1
    # gain 1.0

d3
  $ jux (("[11, 3]"/16)<~)
  $ sometimesBy 0.2 (jux (rev))
  $ s "uni:1([7, 5], 16, {0..15}/6)"
  # n (choose [1..3])
  # delay 0.8 #delaytime (range 0.002 0.03 $ rand) # delayfeedback 0.7
  # shape 0.3
  # gain 1.0

d4
  $ s "uni(3, 8)"
  # shape 0.8  
  # gain 1.3

d5
  $ s "superdown/8"
  # note "c6"
  # legato 4.0
  # gain 0.9

d6
  $ s "supersawfbk"
  # note "c2"
  |+ note "[-0.1, 0.1]"
  # legato 2.0
  # rq 0.9
  # wet 1.0
  # room 0.5 # size 0.9
  # enhance 0.5
  # gain 1.1


unsolo 1


hush

do
  let shift = 0
  d1
    $ jux (("[1, 5, 7]"/8)<~)
    $ s "tptd"  
    # legato (1/8)
    |+ note "[-0.02, 0.02]"
    |+ note "<0 0 -7 -2>"
    |+ note shift
    # lpf (choose [2000, 4000, 6000, 8000]) # resonance "0.7"
    # pan rand
    # delay 1.0 # delaytime ("[7, 9]"/16) # delayfeedback 0.75 # lock 1
    # room 1.0 # size 0.9
    # gain 1.1
  d2
    $ s "supermoog(9, 16)"
    # note "gs2"
    # legato 0.7  
    |+ note (scale "yu" "{0..7}%3")
    |+ note "<0 0 -7 -2>"
    |+ note shift
    # lpf (range 300 3000 $ rand) # resonance "0.2"
    # delay 0.7 # delaytime ("[5, 8]"/16) # delayfeedback 0.5 # lock 1
    # gain 1  
