hush

setcps(100/240)

once
  $ s "matsu" 
  # note "[0, -12]"
  -- |+ note "[-0.1, 0.1]"
  # room 0.5 # size 0.9

d1
  $ s "sfh*2"
  # pan (rand)
  # n (choose[0..32])
  -- # lpf 6400
  # gain 0.8

d2
  $ s "superdown/8"
  # note "c5"
  # voice 600
  -- # speed "[1.5, 1.0]"
  # legato 4.0
  # gain 0.8

d3
  $ s "empty/4"
  # n "[0, 1, 2]"
  -- # lpf 8000
  # gain 1.0

d1 silence >> d2 silence >> d3 silence  

once
  $ s "matsu" 
  # note "[0, -12]"
  -- |+ note "[-0.1, 0.1]"
  # room 0.5 # size 0.9

d1
  $ jux (("[3, 10, 5]"/14)<~)
  $ s "rs(1, 7)"  
  |+ note "[-0.05, 0.05]"
  |+ note "[-12, <0 -5>/4]"
  # legato 2
  # delay 0.5 # delaytime ("[5, 3]"/14) # delayfeedback 0.5 # lock 1
  # lpf (choose [6000, 8000]) # resonance "0.8"
  # room 0.5 # size 0.9

d2
  $ jux (("[7, 3]"/14)<~) 
  $ s "fb(3, 14, 5)"
  -- # n "<0..3>*9"
  # gain "<1.3 0.9>*16"
  -- # delay 1 # delaytime "<0.04 0.03 0.02 0.01>*8" # delayfeedback 0.7

d3
  $ jux (("[5, 9]"/14)<~)  
  $ s "uni(3, 14)"
  # legato 0.5
  -- # n "<0..3>*9"
  # gain 1.3
  -- # delay 1 # delaytime "<0.04 0.03 0.02 0.01>*7" # delayfeedback 0.7

d4
  $ stack
  [
    s "uni(3, 7)" # legato 0.4
    , s "fb(5, 14)"
  ]  
  # gain 1.4

d5
  $ jux ((5/14)<~)  
  $ stack
  [
    s "superwho(9, 14)" # note "c6'sus2"
    , s "superwho(9, 14, 5)" # note "c6'sus2" |+ note 7
    , s "superwho(9, 14, 10)" # note "c6'sus2" |+ note 12
  ]
  # lfo (range 800 8000 $ rand) # resonance "0.2"
  # legato "0.7 1.2"
  # gain 0.8
  
d3
  $ sometimesBy 0.4 (jux (rev))
  $ s "ifdrums(9, 14)"
  # n (irand 3)  
  # gain (range 1.0 1.7 $ rand)

d6
  $ sometimesBy 0.4 (jux (rev))
  $ s "hasu(9, 14, [0, 3, 5])"
  # n (choose [0..13])
  # room 0.5 # size 0.9
  # gain 1.0

d1 silence
  >> d2 silence
  >> d3 silence
  >> d4 silence
  >> d5 silence


hush

once
  $ s "matsu" 
  -- |+ note "[-0.1, 0.1]"
  # note "[0, -12]"
  # gain 1.0
  # room 0.5 # size 0.8

do
  -- hush
  -- resetCycles
  -- setcps(134/240)
  d1
    -- $ sometimesBy 0.2 (jux (rev))
    $ stack[
      jux (("[3, 5]"/14)<~) $ 
        -- sometimesBy 0.2 (rev) $
        s "superbass(5, 14, {0..13}/7)"
        # legato 0.9
        # lpf (range 4000 10000 $ rand) # resonance "0.2"
        # note "c5'maj9"
        # room 0.2 # size 0.9
        # gain 1.0,
      s "supermoog(5, 14)" 
        # lpf (range 4000 10000 $ slow 8 $ sine) # resonance "0.1"
        # note "c3"
        |+ note "<0 -3 0 -3 5 7>/4"
        # legato 1.2
        # gain 1.5
    ]
    |+ note "[-0.02, 0.02]"
    |- note 5
    -- |-| note "<5 4 0>/16"
    |*| gain 1.1    
  d2
    $ s "uni(5, 14, {0..13}/7)"
    # legato 0.8
    # gain 1.5
  
  d3
    $ s "uni(9, 14)" # n (irand 4)
    # delay 1.0 #delaytime (range 0.003 0.05 $ rand) # delayfeedback 0.7  
    # gain 1.3

d4
  $ sometimesBy 0.4 (jux (rev))
  $ s "ifdrums(9, 14)"
  # n (irand 3)  
  # gain (range 1.0 1.8 $ rand)

d5
  $ s "superbass(11, 14)"
  # legato 0.9
  # note "c2"
  |- note 5
  -- |+ note "<0 -3 0 -3 2 7>/4"
  -- |- note "<5 4 0>/16"
  |+ note (scale "hexMajor7" "{0..24}%9")
  # lpf (range 800 8000 $ rand) # resonance "0.0"
  # room 0.3 # size 0.5
  # gain 1.1

d6
  $ s "superbass*2"  
  # note "c3"
  |- note 5
  -- # legato 1.0
  |+ note "[-0.04, 0.04]"
  -- |- note "<5 4 0>/16"  
  # lpf 1000 # resonance 0.0
  # room 0.5 # size 0.5
  # gain 1.0

d1
  $ stack
  [
    s "uni(3, 7)" # legato 0.5
    , s "fb(5, 14)"
  ]  
  # gain 1.5

d3 silence

unsolo 1

hush


do
  hush
  d1
    $ s "sup(11, 14, <0..13>/8)"
    # n "{0..6}%3"
    # shape "0.6"
    # gain "1.5"

d2
  $ jux ((7/14)~>)
  $ s "tet(5, 14)"
  # legato 2.0
  -- # n "<0 0 0 1 2 3>/4"
  # lpf (range 800 3000 $ slow 8 $ sine) # resonance "0.2"
  # note "<-5 0>/16"
  |+ note "[-0.02, 0.02]"
  # room 0.3 # size 0.9

d3
  $ s "kon(9, 14)"
  # n "{0..3}%9"
  # gain 1.1

d4
  $ stack
  [
    s "superwho(5, 14, 0)" # note "c5'sus2"
    , s "superwho(5, 14, 5)" # note "c5'sus2" |+ note 12
    , s "superwho(5, 14, 9)" # note "c5'sus2" |+ note 7
  ]
  |+ note "<7 0>/16"
  # legato 0.7
  # lpf (range 800 8000 $ rand) # resonance "0.2"

d5
  -- $ every 4 (gap 16)
  -- $ sometimesBy 0.1 (rev)
  $ stack
  [
    s "gabba(4, 7)" # gain 1.2
    , s "cp(5, 14)"
    , s "ifdrums(9, 14, 5)" # n (irand 3)
  ]
  # delay 1.0 # delaytime (range 0.002 0.03 $ rand) # delayfeedback 0.5
  # shape 0.8
  # room 0.5 # size 0.5
  |* gain 1.8

d6
  $ sometimesBy 0.1 (rev)
  -- $ sometimesBy 0.4 ((1/8) <~)
  $ stack
    [
      -- s "uni(11, 14)" # n "{1 2 3}%8", 
      s "uni:1(5, 14, 5)"
  ]
  -- # room "0.8" # size "0.9"
  # shape "0.8"
  # gain "1.8"          

d7
  $ sometimesBy 0.2 (rev)
  -- $ sometimesBy 0.4 ((1/8) <~)
  $ stack
  [
    s "ifdrums(7, 14, 10)" # n (choose[1..2]),
    s "uni(7, 14)" # n (choose[1..3]) # gain "1.0",
    s "gabba(3, 14)" # gain "1.7"
  ]
  # delay "1.0" # delaytime (range 0.003 0.03 $ rand) # delayfeedback "0.9"
  |+| gain "1.8"
  # shape "0.8"

d3
  $ jux ((1/14)~>)
  -- $ jux ((7/14)<~)
  $ s "superhammond(5, 14)"
  # voice 4
  # legato 1
  # note "c4'min9"
  |+ note "<0 7>"
  |+ note "[0.05, -0.05]"
  # lpf (range 800 8000 $ rand) # resonance "0.3"
  -- # room 0.5 # size 0.3
  # gain 1.0

d2
  $ jux ((7/14)<~)
  $ s "superhammond(9, 14, [0, 5, 9])"
  # voice 4
  # note "c4 c5"
  |+ note (scale "ritusen" "{0..9}%[3, 5]")
  |+ note "[0.05, -0.05]"
  # legato 1.0
  -- # room 0.5 # size 0.8
  # gain 0.9  

d1
  $ stack
  [
    s "uni(3, 7)"
    , s "fb(4, 7, 5)"
  ]
  # legato 0.2
  # gain 1.5



setcps(4/240)

do
  hush
  setcps(90/240)
  once
    $ s "matsu" 
    -- |+ note "[-0.1, 0.1]"
    # note "[0, -12]"
    # gain 1.1
    # room 0.5 # size 0.8

d5
  $ jux ((7/14)<~)
  $ s "superhammond(9, 14, [0, 5, 9])"
  # voice 4
  # note "c4 c5"
  |+ note (scale "ritusen" "{0..9}%[3, 5]")
  |+ note "[-0.05, 0.05]"
  |+ note "[0, -12, -24]"
  # legato 1.0
  # room 0.8 # size 0.9
  # gain 0.8

d2
  $ jux ((3/14)~>)
  -- $ jux ((7/14)<~)
  $ s "superhammond(5, 14)"
  # voice 4
  # legato 1
  # note "c4'min11"
  |+ note "<0 7>"
  |+ note "[0.05, -0.05]"
  # lpf (range 800 8000 $ rand) # resonance "0.3"
  # room 0.5 # size 0.3
  # gain 0.9  

d3
  $ s "supersawfbk"
  # note "c2"
  # rq 0.4
  # legato 2.0
  # wet 2.0
  # room 0.1 # size 0.9
  -- # tremolodepth 0.9 # tremolorate 4
  # shape 0.95
  -- # enhance 0.3
  # gain 2.0

d4
  $ stack
  [
    s "distd(2, 7)"
    , s "fb(11, 14)"
  ]  
  # shape 0.9
  # gain 1.8

d6
  $ jux (rev)
  $ every 4 (fast 2)
  $ s "uni(11, 14)" # n (irand 4)
  # delay 1.0 #delaytime (range 0.003 0.05 $ rand) # delayfeedback 0.9
  # gain 1.9

d7
  $ s "matsu/8" 
  -- |+ note "[-0.1, 0.1]"
  # note "[0, -12]"
  # gain 1.2
  # room 0.5 # size 0.8

d8
  $ s "superdown/8"
  # note "c5"
  # voice 1000
  -- # speed "[1.5, 1.0]"
  # legato 4.0
  # gain 1.0

d1 silence 
  >> d2 silence 
  >> d3 silence 
  >> d4 silence 
  >> d5 silence
  >> d6 silence
  >> d7 silence
  

hush


