hush

setcps(120/240*(8/7))


d1
  $ jux (("[5, 2]"/14)<~)  
  $ s "uni(3, 14)"
  -- # n "<0..3>*9"
  -- # gain "<1.3 0.9>*14"
  # delay 0.3 # delaytime "<0.04 0.03 0.02 0.01>*7" # delayfeedback 0.9

d2
  $ jux (("[7, 3]"/14)<~)  
  $ s "fb(3, 14, 5)"
  # n "<0..3>*9"
  -- # gain "<1.3 0.9>*14"
  # delay 0.3 # delaytime "<0.04 0.03 0.02 0.01>*14" # delayfeedback 0.9
  
d3
  $ jux (("[11, 9]"/14)<~)
  $ jux (("[5, 3]"/7)<~)
  $ s "rs(1, 7)"  
  |+ note "[-0.05, 0.05]"
  |+ note "[-12, 0]"
  # legato 1.0
  -- # delay 0.8 # delaytime ("[2, 5]"/14) # delayfeedback 0.8 # lock 1
  # lpf (choose [4000, 6000, 8000, 10000]) # resonance "0.8"
  # room 0.9 # size 0.5

d4
  $ stack
  [
    s "uni(3, 7)"
    , s "fb(4, 7, 5)"
  ]
  # legato 0.5
  # gain 1.5

d3
  $ jux ((7/14)~>)
  $ s "tet(5, 14)"
  # legato 2.0
  # n "<0 0 0 1 2 3>/4"
  -- # lpf (range 800 3000 $ slow 8 $ sine) # resonance "0.2"
  -- # note "[0, 7, 12, 19]"
  |+ note "[-0.02, 0.02]"
  # room 0.5 # size 0.9

d5
  $ s "superbass(5, 14)" 
  # lpf (range 1000 2000 $ rand) # resonance "0.2"
  # note "f2"
  |+ note "<0 0 0 9 5 4>/4"
  # legato 2.0
  # gain 1.2
  # room 0.3 # size 0.5

d6
  $ sometimesBy 0.2 (jux (rev))
  $ s "ifdrums(11, 14)"
  # n (irand 3)  
  # gain (range 1.0 1.5 $ rand)

do
  hush  
  d1
    $ s "sup(11, 14, <0..13>/8)"
    -- # n (choose[0..6])
    # n "{0..6}%3"
    # shape "0.6"
    # gain "1.5"  

d2
  -- $ jux ((1/14)~>)
  $ jux ((7/14)<~)
  $ s "superhammond(9, 14)"
  # voice 4
  # legato 0.5
  # note "c4'min9"
  |+ note "<0 7>"
  |+ note "[0.05, -0.05]"
  # lpf (range 100 3000 $ rand) # resonance "0.2"
  # room 0.5 # size 0.3
  # gain 1.0

d3
  $ stack
  [
    s "uni(3, 7)"
    -- , s "fb(4, 7, 5)"
  ]
  # legato 0.2
  # gain 1.5

d4
  $ s "kon(9, 14, [0, 7])"
  # n "{0..11}%3"
  # gain 1.1

d5
  $ jux ((7/14)<~)
  $ s "superhammond(9, 14, [0, 5, 9])"
  # voice 4
  # note "c4 c5"
  |+ note (scale "ritusen" "{0..9}%[3, 5]")
  |+ note "[0.05, -0.05]"
  # legato 0.9
  -- # room 0.5 # size 0.8
  # gain 0.9

d6
  $ sometimesBy 0.1 (rev)
  $ stack
  [
    -- s "distd(2, 14)" # gain "1.1",
    s "uni(10, 14)" # n "{0 1 2}%8", 
    s "uni:1(9, 14, 5)"
  ]
  -- # room "0.8" # size "0.9"
  # shape "0.8"
  # gain 1.5

d4
  -- $ sometimesBy 0.2 (rev)
  -- $ sometimesBy 0.4 ((1/7) <~)
  $ stack
  [
    s "ifdrums(7, 14, 10)" # n (choose[1..2]),
    s "uni(7, 14)" # n (choose[1..3]) # gain "1.0",
    s "gabba(3, 14)" # gain "1.7"
  ]
  -- # delay "1.0"
  -- # delaytime (range 0.002 0.03 $ rand)
  -- # delayfeedback "0.8"
  |+| gain "1.8"
  # shape "0.8"


d3
  $ slow 4
  $ s "empty"
  |+| note "[-0.05, 0.05]"
  # n 2
  # delay 3.0 # delaytime 0.04 # delayfeedback 0.9

d4
  $ jux ((3/14)<~)
  $ s "uni(9, 14)" # n (irand 4)
  # delay 0.5 #delaytime (range 0.002 0.03 $ rand) # delayfeedback 0.8
  # gain 1.1




