hush

setcps(120/240)

do
  let shift = 0
  d1
    -- $ jux (("[7, 11]"/16)<~)
    -- $ jux (("[3, 5]"/8)<~)
    $ s "rs"  
    |+ note "[-0.02, 0.02]"
    |+ note (choose [0, -12])
    |+ note shift
    # legato 0.5
    -- # delay 1.0 # delaytime ("[5, 3]"/8) # delayfeedback 0.5 # lock 1
    # delay 1.0 # delaytime ("[11, 7]"/16) # delayfeedback 0.8 # lock 1
    # lpf (choose [4000, 6000, 8000]) # resonance "0.8"
    # room 0.9 # size 0.3  
  
  d2
    $ s "supermoog(5, 16)"
    # note "g3"
    |+ note (scale "major" "{0..7}%3")
    |+ note shift
    # legato 1
    -- |+ note "<0 0 -7 -2>"
    # lpf (range 400 4000 $ rand) # resonance "0.2"
    -- # delay 0.7 # delaytime ("[9, 5]"/16) # delayfeedback 0.5 # lock 1
    # gain 1.0

d3
  $ s "uni(3, 8)"
  # shape 0.8  
  # gain 1.3    

d4
  $ jux (("[11, 3]"/16)<~)
  $ sometimesBy 0.2 (jux (rev))
  $ s "uni:1([7, 5], 16, {0..15}/6)"
  # n (choose [1..3])
  --- # delay 0.8 #delaytime (range 0.002 0.03 $ rand) # delayfeedback 0.7
  # shape 0.3
  # gain 1.0

d5
  $ s "superdown/8"
  # note "c6"
  # legato 4.0
  # gain 0.9

d6
  $ s "supersawfbk"
  # note "c4"
  |+ note "[-0.1, 0.1]"
  # legato 2.0
  # rq 0.9
  # wet 0.0
  # room 0.5 # size 0.9
  # enhance 0.3
  # gain 1.1

do  
  
  d5
    -- $ sometimesBy 0.1 (rev)
    -- $ sometimesBy 0.4 ((1/8) <~)
    $ stack
    [
      -- s "distd(2, 16)" # gain "1.1",
      s "uni(10, 16)" # n "{0 1 2}%8", 
      s "uni:1(9, 16, 5)"
    ]
    -- # room "0.8" # size "0.9"
    # shape 0.8
    # gain 1.3        

d4
  -- $ sometimesBy 0.2 (rev)
  -- $ sometimesBy 0.4 ((1/8) <~)
  $ stack
  [
    s "ifdrums(7, 16, 10)" # n (choose[1..2]),
    s "uni(7, 16)" # n (choose[1..3]) # gain "1.0",
    s "gabba(3, 16)" # gain "1.7"
  ]
  # delay "1.0"
  # delaytime (range 0.002 0.03 $ rand)
  # delayfeedback "0.8"
  |+| gain "1.5"
  # shape "0.9"
  # room "0.9"

d3
  $ sometimesBy 0.2 (rev)
  $ stack
  [
    s "ifdrums(7, 16, 5)" # n (choose[1..3]),
    s "uni(7, 16)" # n (choose[1..2]),
    s "uni(3, 8)" # gain "1.5"
  ]
  # delay "1.0"
  # delaytime (range 0.001 0.03 $ rand)
  # delayfeedback "0.7"
  # shape "0.8"  
  # gain "1.8"

d1
  $ s "matsu/4"

d1
  $ slow 2
  $ stack [
    s "supersaw",
    s "empty" # gain
  ]
  # note "c2"
  |*| speed "[1.0, 1.005]"
  # legato 0.9
  # lpf 1000 # resonance "0.2"  
  # enhance 0.3
  -- # octersub 0.8
  -- # triode 0.9  
  -- # tremolodepth 1.5 # tremolorate 8
  # room 0.2 # size 0.95
  # distort 0.8
  |*| gain "1.0"


  -- # enhance 0.3
  -- # shape 0.3
  -- # distort 0.9
  -- # room 0.9 # size 0.5



unsolo 1


hush

do
  let shift = 0
  d1
    $ jux (("[1, 5, 7]"/8)<~)
    $ s "tptd"  
    # legato (1/8)
    |+ note "[-0.02, 0.02]"
    |+ note "<0 0 -7 -2>"
    |+ note shift
    # lpf (choose [2000, 4000, 6000, 8000]) # resonance "0.7"
    # pan rand
    # delay 1.0 # delaytime ("[7, 9]"/16) # delayfeedback 0.75 # lock 1
    # room 1.0 # size 0.9
    # gain 1.1
  d2
    $ s "supermoog(9, 16)"
    # note "gs2"
    # legato 0.7  
    |+ note (scale "yu" "{0..7}%3")
    |+ note "<0 0 -7 -2>"
    |+ note shift
    # lpf (range 300 3000 $ rand) # resonance "0.2"
    # delay 0.7 # delaytime ("[5, 8]"/16) # delayfeedback 0.5 # lock 1
    # gain 1  
