hush

setcps(130/240)

unsolo 1

d1
  $ jux (("[2, 3]"/16)<~)
  -- $ jux (("[3, 5]"/8)<~)
  $ s "rs(3, 8)"  
  |+ note "[-0.05, 0.05]"
  |+ note (-5)
  # legato 0.5
  -- # delay 1.0 # delaytime ("[5, 7]"/16) # delayfeedback 0.8 # lock 1
  # lpf (choose [4000, 6000, 8000]) # resonance "0.8"
  # room 0.9 # size 0.3

d2
  $ jux (("[5, 2]"/16)<~)  
  $ s "fb(5, 16)"
  # gain "<1.2 0.8>*4"
  # room 0.3 # size 0.5

d3
  $ s "uni(3, 8)"
  # legato 0.2
  # shape 0.8
  # gain 1.3  

d4
  $ jux ((3/16)~>)
  $ jux ((2/16)<~)
  $ s "supermoog(3, 8)"
  # legato 0.5
  # note "f3"
  |+ note "<0 12>*8"
  # lpf (range 100 8000 $ rand) # resonance "0.2"
  # gain 1.2

d5
  $ sometimesBy 0.1 (rev)
  $ sometimesBy 0.4 ((1/8) <~)
  $ stack
  [
    s "uni(10, 16)" # n "{0 1 2}%8", 
    s "uni:1(9, 16)"
  ]
  # shape 0.8
  # gain 1.2

d6
  $ jux (("[2, 5]"/16)<~)
  $ sometimesBy 0.2 (rev)
  -- $ sometimesBy 0.4 ((1/8) <~)
  $ stack
  [
    s "ifdrums(7, 16)" # n (choose[1..2]),
    s "uni(9, 16)" # n (choose[2..4]),
    s "gabba(3, 16)"
  ]
  # delay 0.7  # delaytime (range 0.003 0.03 $ rand) # delayfeedback 0.7
  # gain 1.8
  