bps(150/120)

hush

d1
-- $jux (iter 14)
-- $jux (iter 7)
$stack[
 -- s "glitch(4, 14, {1, 3})",
 -- s "fell(3, 14, {8, 10})",
 s "fell2(1, 14, {6, 4})"
]
#n "0 1 2 3 4 5 6"
#delay "0.4" #delaytime "0.01 0.02 0.03 0.005" #delayfeedback "0.8"

d2
$stack[
 -- s "ifdrums(5, 14, {4, 8})" #n (irand 10),
 -- s "glitch2(7, 14, {1, 3})" #n (irand 10),
 -- s "sn(5, 14, {5, 7})" #n (irand 10), 
 s "ifdrums(1, 7, {1, 3})"
]
#gain "1.1"
