bps(110/120)

hush

let bbb = 10

d1
-- $jux (iter 10)
-- $sometimes (brak)
$stack[
 s "ikeda2(4, bbb, {9, 10})",
 s "glitch2(4, bbb, {1, 3})",
 s "glitch(5, bbb, {10, 12})"
]
#shape "0.5"
#n "0 3 4 2 9 1 4"
-- #delay "0.2" #delaytime "0.01 0.02 0.03" #delayfeedback "0.8"

d2
$stack[
 s "ifdrums(5, 20, {3, 5})" #n (irand 10),
 s "909(3, 10, {5, 7})" #n "0 1 2 3 4 5 6",
 s "ifdrums(3, 5)" |+| gain "1.9"
]
#shape "0.3"
#gain "1.4"

