cps(120/120)

d1
$jux (rev) $jux (iter 4) $brak $sound "808bd:7 808sd:15 808ch 808oh:5"
#shape "0.7 0.0 0.4 0.0"

d2
$jux (iter 8) $jux (iter 2) $sound "808bd:5 808sd:15 808ch 808ma:5"
#shape "0.7 0.0 0.4 0.0"

d2 $jux (iter 4) $brak $sound (samples "tr-505*4" $ irand 30)
#pan (rand)

d3 $every 4 (chop 8) $jux (iter 8) $brak $sound (samples "tr-808*4" $ irand 30)
#pan (rand)

d4 $jux (iter 2) $brak $sound (samples "mrk-2*4" $ irand 30)
#pan (rand)

hush
