bps (144/120)

d8 $sound "sync"

d1 $sound "bd cp*2 glitch*2 hh"

d1
$jux (iter 4)
$jux (iter 8)
-- $sometimes (jux (iter 16))
$sound "bd hh*4 [~ bass] cp"

d1
$jux (iter 8)
$sound "bd hc:1*2 bass:2 [~ hh ~ hh]"

hush
