cps(120/120)

hush

--

d1 $sound "bd cp"


d1 $sound "[[bd cp hc ifdrums gabba], [bd cp] * 3]"

d1 $sound "bd hc bd cp"

d1 $ sound "[bd*32 hh*24] bd"

d1 $ sound "cp*16"

d1 $ sound "hc(7,32,10)"

d1 $ sound "hc(3,8,5)"

d1 $ sound "ifdrums(3,8,2)" #n "1 2 0 4 7"

d1 $ sound "[bd cp, bd cp hc]"

d1 $ sound "{bd cp hc}%8"

d2 $ sound "{bd cp hc bass}%8"

d1
$ jux (iter 2)
$ sound "[{bass glitch 808bd hc hh}%8, cp hc]"
-- # n (irand 30)
-- # delay "0.5" #delaytime "{0.1 0.01 0.03 0.5}%8" #delayfeedback "0.5"
-- # speed "{1.0 1.0 2.0 0.5 1.5}%8"
# shape "0.7"
# pan rand

hush

d2 $ sound "[~ ~ ~ cp]*2"

d2 $ sound "~ cp ~ ~ ~ cp ~ cp"

d1 $ sound "[~ bass]*2 [sn cp]"

d1 $ sound "bd*3"

d2 $ sound "hc cp cp cp cp"

d4 silence

d1
$jux (iter 8)
$sometimesBy 0.4 (rev)
$stack[
 sound "hc(5, 8)",
 sound "ifdrums(5, 8, 3)",
 sound "~ hh bass bass"
]
#n "0 1 2 3 4 5"
#pan (rand)

d1 $ brak $ sound "bd sn"

d2
$ jux (iter 8)
$ stack[
   sound "cp(3,8,3)",
   sound "909*4 [~ 909:1]*2",
   sound "[~ hh] hc(2,8)",
   sound "bass(3, 8)"|+| vowel "u i e o w"
]

d1
$jux(iter 2)
$jux(iter 8)
$stack[
  -- sound "bass(5, 16)" #n "0 2 1 3 5 3 2 1",
  sound "glitch(7, 16, 9)" #n "0 2 1 3 5 3 2 1",
  sound "cp [cp cp*2] ~" #n "0 1 2 3 4 5",
  s "super808*2"
]

d2 silence

d1 silence

d1 $ slow 2 $ shuffle 12 $ chop 16 $ sound "supersaw"

hush
