cps(120/120)

hush 

d8 $sound "sync"

d1 $ sound "bd*2"

d1 $ sound "cp*8"

d2 $ sound "hc(3,8,9)"

d2 $ sound "cp(5,8,2)"

d2 $ sound "[~ ~ ~ cp]*2"

d2 $ sound "~ cp ~ ~ ~ cp ~ cp"

d2 $ sound "[~ bass]*2 [sn cp]"

d2 silence

d2
$jux (iter 8)
$sometimesBy 0.4 (rev)
$stack[
 sound "hc(5, 8)",
 sound "ifdrums(5, 8, 3)",
 sound "~ hh bass bass"
]
#n "0 1 2 3 4 5"
#pan (rand)

d2 $ brak $ sound "bd sn"

d2
$ jux (iter 8)
$ stack[
   sound "cp(3,8,3)",
   sound "909*4 [~ 909:1]*2",
   sound "[~ hh] hc(2,8)",
   sound "bass(3, 8)"|+| vowel "u i e o w"
]

d2
$jux(iter 2)
$jux(iter 8)
$stack[
  -- sound "bass(5, 16)" #n "0 2 1 3 5 3 2 1",
  sound "glitch(7, 16, 9)" #n "0 2 1 3 5 3 2 1",
  sound "cp [cp cp*2] ~" #n "0 1 2 3 4 5",
  s "super808*2"
]

d2 silence

d1 silence

hush
