cps(130/120)

hush


d1
  $slow 2
  $s "myfm"
  #n "{0, 7}"
  -- |+|n "{0 7 5 -5}%3"
  #sustain "3"
  #pitch1 (scale 0.1 0.5 $rand)
  #voice (scale 1 4 $slow 24 $rand)
--  #lpf (scale 100 12000 $slow 32 $sine1)
--  #resonance "0.2"
  #shape "0.5"

d1
  $s "myfm(5, 8, {0, 5, 3})"
  #sustain "0.15"
  #n "{0, -7, 9, -12}"
  |+|n "{0 5 7 12}%6"
  #pan (rand)
  #pitch1 "{0.3333 0.75 0.6666 0.5 0.25}%9"
  #voice (scale 1 8 $slow 24 $sine1)
  #lpf (scale 200 8000 $slow 32 $rand)
  #resonance "0.2"
  -- #room "0.8"


d2 $s "hc*2"

d1 $s "revbd/4"
#gain "1.5"

d2 $s "gabba(5, 8, {2, 4})"
#n (irand 12)

d3 $s "glitch(3, 8, {0, 3})"
#n (irand 12)

d4
$every 2 (jux (rev))
$every 3 (0.25 ~>)
-- $every 2 (0.125 <~)
-- $iter 4
$s "myblip(3, 8, {2, 4})" #n "{0}"
|+| n "{0 -7 0 0 -5 0}%4"
#sustain "0.1 0.3 0.04"
#cutoff (scale 100 8000 $slow 8 $rand)
#resonance "0.3"
-- #delay "0.9" #delaytime "0.1255" #delayfeedback "0.5"
#delay "0.5" #delaytime "0.01 0.02 0.03" #delayfeedback "0.9"
-- #room "0.4"
-- #shape "0.4"



hush

--

d1 $density 4 $ superimpose (fast 1.0001) $up "<0 5 12> <2 9>" # sound "arpy"

-- solo $
d1
$sometimes (rev)
$sometimesBy 0.3 (jux (rev))
$stac[
  --s "numbers(3, 7, 3)" #n (irand 30),
  --s "sitar*2" #gain "1.2" #n (irand 30),
  s "tabla2(3, 7, {5,2})" #gain "1.0" #n (irand 30),
  --s "tabla(3, 7, 2)" #gain "1.3" #n (irand 30),
 --  s "alphabet(3, 7)" #n (irand 30) #speed (scale 1.0 1.5 $rand),
  s "kon(5, 7, {0,4})" #n (irand 20) #gain "1.1",
  s "cp(2,7,5)" #gain "1.0",
  s "bd" #gain "1.7"
]
-- #delay "0.6" #delaytime "{0.015 0.03 0.02}%4" #delayfeedback "0.8"

d2
$stack[
  s "ifdrums(4, 7, {0})"  #n "{0 1 2 3}%5"
]
#gain "1.5" #shape "0.6"

d3
$sometimesBy 0.5 (jux (rev))
$sometimesBy 0.5 (jux (iter 7))
$stack[
  s "supersaw(3, 7, 6)" #n "[0, 4, 7, 9, 11]" |+| n "5",
  s "supersaw(3, 7, 4)" #n "[0, 4, 7, 9, 11]" |+| n "-12",
  s "supersaw(3, 7, 2)" #n "[0, 4, 7, 9, 11]" |+| n "7",
  s "supersaw(3, 7, 0)" #n "[0, 4, 7, 9, 11]" |+| n "0"
]
|+|n "<-7 0 7 0 5 0 -5>/8"
#cutoff (scale 800 10000 $slow 8 $sine1) #resonance "0.2"
#sustain "{0.12 0.01 0.1}%3"
-- #sustain "0.12"

d4
$sometimes (rev) $sound "{bd, ifdrums(3, 7, 3), hc(3, 7, 2), glitch(3, 7)}" #shape "0.6" #n (irand 8) #gain "1.5" #shape "0.4"


d1 $ 
sometimes (rev) $every 2 (iter 4) $sound "{bd*4, ifdrums(3, 8, 3), hc(3, 8, 2), glitch(3, 8)}" #shape "0.6" #n (irand 8) #gain "1.5"
#delay "0.9" #delaytime "{0.01 0.03 0.02}%4" #delayfeedback "0.8"

d2 $
s "supersquare(5, 7, {0, 5})" #n "[0, 4, 7, 9, 11, 16]" |+| n "{0, -5, 12}"
|+|n "<-7 7 0 5 -5 12 -12>/8"
#cutoff (scale 800 20000 $slow 4 $sine1) #resonance "0.3"
#sustain "{0.01 0.2 0.1}%8"
#pan (rand)
-- #room "0.8"


  #gain "0.6"


d1
$sometimes (jux rev)
$stack [
  s "ifdrums(3, 8, 0)" #n (irand 3),
  s "bass(2, 8, 2)",
  s "bd:0*2" #shape "0.2"
]
#gain "1.75"


d1 $sound "testsynth" #n ((irand 48) - 24)

d1 $sound "super808(3, 8)"

d1 $ s "super808*7"
# sustain "0.5" # pan "1 0.5 0" # gain "1 0.5 0.75 0 1"

d1 $ s "super808(5, 7, {0, 3, 6})"
# sustain "0.5" # pan "1 0.5 0" # gain "{1 0.5 0.75}%8"

d1
$every 2 (jux (iter 4))
$sometimes (rev)
$ stack[
  s "super808(3, 8, {2, 5, 7})" # sustain "0.5" # pan "1 0.5 0" # gain "1 0.5 0.75 0 1",
  s "testsynth(5, 8, {0,3})" # sustain "0.25" # pan "0 0.7 0.3 0.5 1" # note "12 20 37" # gain "1 0.5 0.8 1"
]
#delay "0.8" #delaytime "0.01 0.02 0.03" #delayfeedback "0.8"

d1
$ stack[
  s "super808*8" # sustain "0.5" # pan "1 0.5 0" # gain "1 0.5 0.75 0 1",
  s "testsynth*8" # sustain "0.05" # pan "0 0.7 0.3 0.5 1" # note "52 40 47" # gain "1 0.5 0.8 1"
]

d1 $sound "[[bd cp hc ifdrums gabba], [bd cp] * 3]"

d1 $sound "bd hc bd cp"

d1 $ sound "[bd*32 hh*24] bd"

d1 $ sound "cp*16"

d1 $ sound "hc(7,32,10)"

d1 $ sound "hc(3,8,5)"

d1 $ sound "ifdrums(3,8,2)" #n "1 2 0 4 7"

d1 $ sound "[bd cp, bd cp hc]"

d1 $ sound "{bd cp hc}%8"

d2 $ sound "{bd cp hc bass}%8"

d1
$ jux (iter 2)
$ sound "[{bass glitch 808bd hc hh}%8, cp hc]"
-- # n (irand 30)
-- # delay "0.5" #delaytime "{0.1 0.01 0.03 0.5}%8" #delayfeedback "0.5"
-- # speed "{1.0 1.0 2.0 0.5 1.5}%8"
# shape "0.7"
# pan rand

hush

d2 $ sound "[~ ~ ~ cp]*2"

d2 $ sound "~ cp ~ ~ ~ cp ~ cp"

d1 $ sound "[~ bass]*2 [sn cp]"

d1 $ sound "bd*3"

d2 $ sound "hc cp cp cp cp"

d4 silence

d1
$jux (iter 8)
$sometimesBy 0.4 (rev)
$stack[
 sound "hc(5, 8)",
 sound "ifdrums(5, 8, 3)",
 sound "~ hh bass bass"
]
#n "0 1 2 3 4 5"
#pan (rand)

d1 $ brak $ sound "bd sn"

d2
$ jux (iter 8)
$ stack[
   sound "cp(3,8,3)",
   sound "909*4 [~ 909:1]*2",
   sound "[~ hh] hc(2,8)",
   sound "bass(3, 8)"|+| vowel "u i e o w"
]

d1
$jux(iter 2)
$jux(iter 8)
$stack[
  -- sound "bass(5, 16)" #n "0 2 1 3 5 3 2 1",
  sound "glitch(7, 16, 9)" #n "0 2 1 3 5 3 2 1",
  sound "cp [cp cp*2] ~" #n "0 1 2 3 4 5",
  s "super808*2"
]

d2 silence

d1 silence

d1 $ slow 2 $ shuffle 12 $ chop 16 $ sound "supersaw"

hush
