-- 01 first noise

d1
  $slow 8
  $sound "empty"
  #speed "[1.0, 1.01]"
  #gain "0.9"
  #lpf "200"


d2
  $slow 2
  $jux ((3/8) ~>)
  $sound "autech2(3, 8, [0])"
  #gain "0.6"
  

  #speed "[1.005, 1.0]"
  #n "{0}%7"
  #lpf (scale 400 18000 $slow 4 $sine1) #resonance "0.1"
  |*|speed "[-1.0, 1.5]"
