--04 second beat

d1
  $slow 2
  -- $sometimesBy 0.5 ((5/8) <~)
  $stack
  [
    -- s "tabla2(5, 16, {0})" #gain "1.3" #n (irand 30),
    -- s "kon(3, 16, {0})" #n "{0}%6" #gain "1.2",
    s "uni(6, 16)" #gain "1.3" #shape "0.5",
    s "uni uni ~ uni ~ uni ~ uni" #n 1 #gain "1.3"
  ]
  |*|gain "1.2"
  -- #hpf 4000
