-- solo $
d5
  $jux (rev)
  $s "supersaw*8"
  #sustain "0.05"
  #n "{0 -5 -7 -12 -17 -19}%12"
  -- |+| n "{0, 7, 12}"
  #voice (scale 0.1 0.4 $slow 24 $sine1)
  #cutoff (scale 400 18000 $slow 32 $sine1)
  #resonance "0.3"
  #gain "1.2"
  |+|semitone "{7 0 12 5 19 24}%6"
  
