d1
  $slow 8
  $sound "empty"
  #speed "[1.0, 1.01]"
  |*|speed "[1.0, 1.01]"
  #gain "0.9"
  #lpf "12800"


  |*|speed "[1.0, 1.01]"
  |*|speed "1.05"

d2
  $slow 2
  $jux ((3/8) ~>)
  $sound "autech2(3, 8, [0, 5, 10])"
  #gain "0.9"
  #speed "[1.005, 1.0]"
  #n "{0 1 2 3}%7"
  #lpf (scale 400 18000 $slow 4 $sine1) #resonance "0.3"
  |*|speed "[-1.0, 3, 1.5]"
  

  #speed "[1.005, 1.0]"
  #n "{0}%7"
  #lpf (scale 400 18000 $slow 4 $sine1) #resonance "0.1"
  |*|speed "[-1.0, 1.5]"

d3
  $sometimesBy 0.6 (jux ((3/8) ~>))
  $sound "uni(3, 8)"
  #n "1 2"
  #gain "1.2"
  #delay "0.5" #delaytime "{0.005 0.02 0.01}%4" #delayfeedback "0.9"


d1
  $slow 2
  $jux (rev)
  $sometimesBy 0.2 (jux ((3/8)~>))
  -- $sometimesBy 0.1 ((3/8) <~)
  $stack
  [
    s "uni*4" #gain "1.3" #shape "0.5",
    sometimes (jux ((5/8) ~>))
    $s "uni(5, 16, [0, 6, 9, 12])"
    #n "{1 2 3}%6"
    #gain "1.2"
    #up "{0 -7 7 12}%7"
  ]
  |*| gain "1.0"
  -- #hpf 3000
  |*| gain "<1 1 1 1 1 1 1 0>"

d2
  $jux ((3/8) <~)  
  $sound "jimsyn(5, 8)"
  #n "<20 1>"
  |*| up "-0.2"
  |*| up "[0, 7]"
  |*| gain "1.1"
  #lpf (scale 2000 8000 $slow 12 $sine1)
  #resonance "0.2"

d4
  $ sound "tet(5, 8, {0, 2})"
  #gain "1.2"
  #lpf (scale 1200 15000 $slow 16 $sine1)  #resonance "0.3"
  #up "{[0,7] [7,14]}%5"
  #n "{0 1 2 3}%9"

d1
  $slow 2
  $stack
  [
    -- s "tabla2(5, 16, {0})" #gain "1.3" #n (irand 30),
    s "kon(3, 16, {0, 5, 2})" #n "{0 1 3}%6" #gain "1.3",
    s "uni*4" #gain "1.3" #shape "0.5",
    s "uni uni ~ uni ~ uni ~ uni" #n 1 #gain "1.3"
  ]
  |*|gain "1.0"
  -- #hpf 4000
  
d4
  -- $every 8 (jux (rev))
  -- $sometimesBy 0.2 ((5/8) <~)
  $stack
  [
    s "distd*2", 
    s "bd cp bd hc" #n (irand 12),
    s "uni(3, 8, {0, 3})"
    #n "0 0 0 1 0 3 1 2"
  ]
  #gain "<1 1 1 1 1 1 0 0>"
  |*|gain "1.2"

d2
  $stack
  [
    s "super808(5, 8, 3)" #n "{-12 -7 -5 0 5 7}%3",
    s "ifdrums(3, 8, 0)"  #n "{1 2 3}%4",
    slow 2 $s "ifdrums(2, 8)" #gain "1.5"
  ]
  #shape "0.5"
  #gain "1.0"

do
  let chord2 = "{c3, a4, c5}"
  d5
    $slow 2
    $jux ((5/8) ~>)
    $s "superhammond(5, 16, [0, 7])" #n chord2 |+|n "[0, 7]"
    #lpf (scale 500 18000 $slow 16 $sine1)
    #resonance "0.3"
    #voice 3
    #gain "1.1"
    |+|n "{0 -12 12 -7 7}%16"

d4
  $chop 12
  $jux (rev)
  $s "eh(5, 8, {4, 8})"
  #n "{3 2 4 1}%9"
  #gain "1.1"

-- solo $
d5
  $jux (rev)
  $s "supersaw*8"
  #sustain "0.12" 
  #n "{0 -5 -7 -12 -17 -19}%17 q"
  |+| n "{0, 7, 12}"
  #voice (scale 0.1 0.8 $slow 24 $sine1)
  #cutoff (scale 400 18000 $slow 32 $sine1)
  #resonance "0.3"
  #gain "1.2"
  |+|semitone "{7 0 12 5 19 24}%12"
  
d2
  $slow 2
  $sound "ifdrums:0 ifdrums:2 ~ ~ ~ ~ ~ ~"
  #n "0 2 0 0 0 0 0 0 0"
  #gain "1.5"
  #shape "0.7"

d2
  -- $sometimesBy 0.2 (0.125 ~>)
  -- $sometimesBy 0.1 (0.125 <~)
  $stack
  [
    s "gabba" #gain "1.2",
    s "glitch(3,8,3)" #n (irand 64),
    s "gabba(3,8,0)" #n (irand 64),
    s "ifdrums(5,8)" #n (irand 64)
  ]
  -- #hpf 1000
  |*|gain "1.5"
  #shape "0.5"

d3
  $slow 2
  $jux ((5/8) ~>)
  $s "uni(5, 16, [0, 6, 9, 12])"
  #n "{0 1 2 3 4}%12"
  #delay "0.5"
  #delaytime "{0.005 0.02 0.01}%4"
  #delayfeedback "0.9"
  #gain "1.3"
  #shape "0.8"

d2
  $every 8 (jux (rev))
  $sometimesBy 0.2 (0.25 <~)
  $stack
  [
    s "distd*2", 
    s "bd cp bd hc" #n (irand 12),
    s "uni(3, 8, {0, 3})"
    #n "0 0 0 1 0 3 1 2"
  ]
  #gain "<1 1 1 0>"
  |*|gain "1.6"
  #shape "0.9"  

d2
  $whenmod 8 4 (jux (iter 8))
  $whenmod 4 3 (jux (iter 2))
  $sometimes (rev)
  $sound "{ifdrums(3, 8, 3), bd(3, 8, 0), gabba(3, 8, 4)}"
  #gain "1.7"
  #shape "0.95"
  #n (irand 64)
  #pan (rand)

do
  let chord2 = "{c5, g5, a5, f6, g6}"
  d7
    $slow 2
    $jux (0.25 ~>)
    $stack
    [
      s "supersaw(7,16,6)" #n chord2 |+|n "12" #pan (rand),
      s "supersaw(7,16,3)" #n chord2 |+|n "7" #pan (rand),
      s "supersaw(7,16,0)" #n chord2 |+|n "0" #pan (rand)
    ] 
    #cutoff (scale 2000 18000 $slow 16 $sine1)
    #resonance "0.2"
    #sustain "0.1"
    #gain "1.0"
    |+|n "<0 7 -7 -5 5 -12>"

do
  let chord3 = "{c5, g5, a5, f6, g6}"
  d6
    $slow 2
    $jux (0.125 <~)
    $s "supersaw(7, 16, {3, 4})"
    # n chord3
    |+|n "19"
    #sustain "0.05"
    #lpf (scale 2000 15000 $slow 5 $sine1)
    #resonance "0.3"
    #gain "1.0"
    -- #room "0.3" #size "0.8"

hush
