cps(130/120)

d1
  $slow 8
  $sound "empty"
  #speed "[1.0, 1.5]"
  |*|speed "[1.0, 1.002]"
  #lpf "6000"
  #resonance "0.2"
  #gain "1.0"

d2
  $slow 2
  $sometimesBy 0.5 (jux ((3/8) ~>))
  $sound "autech2(3, 8, [0, 3])"
  #gain "1.0"
  #lpf (scale 400 15000 $slow 4 $sine1)
  #resonance "0.2"
  #n "{0 1 2 3 4}"
  |*|speed "[1.0, -1.5]"  
  |*|speed "[1.005, 1.0]"
  
d2
  $slow 1
  $sometimesBy 0.2 (jux (0.25 ~>))
  $sound "orch(3, 8, [0, 2])"
  #n "2"
  #up "{c f g e g}/4"
  #lpf (scale 1000 9000 $slow 8 $sine1)
  #resonance "0.2"
  |*|speed "{0.5 -0.5, 1.0 1.5 0.5}"
  -- |*|speed "0.5 1.0"
  #delay 0.8
  #delaytime 0.02
  #delayfeedback 0.8
  #room "0.5"

d3
  $sometimesBy 0.6 (jux ((3/8) ~>))
  $sound "uni(3, 8)"
  #n "0 1 2"
  #gain "1.5"
  #delay "{0.8 0.0 0.3}"
  #delaytime "{0.015 0.02 0.01}"
  #delayfeedback "0.8"

d4
  $sometimesBy 0.2 (jux ((3/8) <~))
  $sound "kicklinn(2, 8)"
  #n "0"
  #gain "1.7"
  #shape "0.8"
