--04
d3
  $jux ((5/8) ~>)
  $slow 2
  $s "deepsyn(5, 16, [0, 5])"
  #gain "0.8"
  #n "<6 7 8 9>*4"
  #up "[19, 24]"
  #speed "[1.01, 1.0]"
  #lpf (range 300 8000 $slow 8 $rand) #resonance "0.3"

d2
  $slow 2
  -- $sometimesBy 0.5 ((5/8) <~)
  $stack
  [
    -- s "tabla2(5, 16, {0})" #gain "1.3" #n (irand 30),
    -- s "kon(3, 16, {0})" #n "{0}%6" #gain "1.2",
    s "uni(6, 16)" #gain "1.5",
    s "uni uni ~ uni ~ uni ~ uni" #n 1 #gain "1.3"
  ]
  |*|gain "1.0"
  -- #hpf 4000

