hush

do
  once $ s "midi" # midichan "8" # ccn 41 # ccv 127  
  resetCycles
  setcps(68/240)
  let base = ("<e3 d3 g3 f3>/8" + 5)
  let mode = "<hexMajor7 hexSus>/4"
  d1   
    $ sometimesBy 0.3 (brak)
    $ s "midi(14, 16)"
    -- # note (scale mode "{0..19}%<7 3 5 7 11>")
    # note base
    -- |+ note (scale mode "{0..19}%7")
    |+ note (scale mode "{0..12}%<7 3 5 11>")
    -- |+ note "[0, <0 5 7 12>*16]"
    -- |+ note "[0, <7 12>*4]"
    |+ note "[0, 7]"
    -- |+ note 12
    -- |+ note "[0, 12]"
    -- |+ note base
    -- |+ note (choose[0, 12])
    # midichan "0"
    -- # legato (range 5.0 8.0 $ rand)    
    # legato ("<1.5 0.5 1.0 2.0>*8" * 0.5)
    # gain (range 1.3 1.6 $ rand)
    |* gain 1.0
  d2
    -- $ sometimesBy 0.4 (brak)
    $ s "midi(14, 32)"
    # note base
    |+ note (scale mode "{0..9}%<7 5 3 11>")    
    |+ note (24)
    # midichan "1"
    # legato 0.5
    # gain (range 1.2 1.6 $ rand)
    |* gain 1.0
  d3
    $ s "midi(5, 8)"
    # note base
    |+ note (scale mode "{0..7}%3")    
    |+ note (-24)
    # midichan "2"
    # legato 1.0
    # gain (range 1.7 1.9 $ rand)
    |* gain 1.0

hush

do
  -- once $ s "midi" # midichan "8" # ccn 41 # ccv 127  
  resetCycles
  setcps(68/240)
  let base = ("<e3 d3 g3 f3>/8" + 5)
  let mode = "<hexMajor7 hexSus>/4"  
  d4
    $ every 2 (brak)
    -- $ sometimesBy 0.4 (brak)
    -- $ sometimesBy 0.1 (fast 2)
    -- $ jux (rev)
    $ s "midi/2"
    |+ note "<c6'maj7 c6'sus4>/4"
    -- # note (scale mode "{0..19}%7")
    -- |+ note "[24, 19]"
    -- |- note 12
    |+ note base
    # midichan "1"
    # legato 0.5
    # gain 1.7
    |* gain 1.0
  d5
    -- $ sometimesBy 0.2 (brak)
    -- $ jux (rev)
    -- $ jux (iter 8)
    $ s "midi(12, 16)"
    -- # note (scale mode "{0..19}%<3 5 7 9 11 13>")
    # note (scale mode "{0..19}%7")
    |+ note "[0, 7, 12]"
    |+ note "<-12 12>*8"
    |+ note base
    # midichan "2"
    # legato 8
    # gain 1.2


hush

do
  once $ s "midi" # midichan "8" # ccn 41 # ccv 127  
  resetCycles
  setcps(64/240)
  let base = ("<e3 c3>/4" + 5)
  let mode = "<hexSus>/4"  
  d1   
    -- $ sometimesBy 0.3 (brak)
    $ s "midi(14, 16)"
    -- # note (scale mode "{0..19}%<7 3 5 7 11>")
    # note base
    -- |+ note (scale mode "{0..19}%7")
    -- |+ note (scale mode "{0..12}%<7 3 5 11>")
    -- |+ note "[0, <0 5 7 12>*16]"
    -- |+ note "[0, <7 12>*4]"
    -- |+ note "<c5'sus4 c5'sus2>*4"
    -- |+ note "[0, 7]"
    |+ note "<0 7 12>*12"
    -- |+ note "[0, 12]"
    -- |+ note base
    -- |+ note (choose[0, 12])
    # midichan "0"
    -- # legato (range 5.0 8.0 $ rand)    
    # legato ("<1.5 0.5 1.0 2.0>*8" * 0.25)
    # gain (range 1.3 1.6 $ rand)
    |* gain 1.0
  d2
    -- $ sometimesBy 0.4 (brak)
    $ s "midi(32, 32)"
    # note base
    -- |+ note (scale mode "{0..9}%<7 5 3 11>")    
    |+ note "<24 12>*16"
    |+ note "<c6'sus4 c6'maj9 c6'sus2 c6'maj7>*16"
    -- |+ note "[0, -5]"
    # midichan "1"
    # legato 0.3
    # gain (range 1.1 1.2 $ rand)
    |* gain 1.0
  d3
    $ s "midi(5, 8)"
    # note base
    |+ note (scale mode "{0..9}%7")    
    -- |+ note "<-24 -12>*12"
    |+ note "-12"
    # midichan "2"
    # legato 1.0
    # gain (range 1.7 1.9 $ rand)
    |* gain 1.0
  d5
    -- $ sometimesBy 0.2 (brak)
    -- $ jux (rev)
    -- $ jux (iter 8)
    $ s "midi(32, 32)"
    -- # note (scale mode "{0..19}%<3 5 7 9 11 13>")
    -- # note (scale mode "{0..5}%9")
    -- |+ note "[0, 12, 24]"
    -- |+ note "<0 7 12>*16"
    |+ note base
    |+ note "[0, 7]"
    |+ note "<12 19 24>*32"
    # midichan "3"
    # legato 0.1
    # gain 1.4

hush

do
  once $ s "midi" # midichan "8" # ccn 41 # ccv 127  
  resetCycles
  setcps(65/240)
  let base = ("<e3 d3 g3 f3>/8" + 5)
  let mode = "<hexMajor7 hexSus>/4"
  d5
    -- $ sometimesBy 0.2 (brak)
    -- $ jux (rev)
    -- $ jux (iter 8)
    $ s "midi(12, 16)"
    -- # note (scale mode "{0..19}%<3 5 7 9 11 13>")
    # note (scale mode "{0..19}%7")
    |+ note "[0, 7]"
    |+ note "<-12 12>*8"
    |+ note "12"
    |+ note base
    # midichan "3"
    # legato 8
    # gain 1.2
