hush

do
  once $ s "midi" # midichan "8" # ccn 41 # ccv 127  
  resetCycles
  setcps(80/240)
  let base = "<c3 d3 g3>/8"
  let mode = "<yu minPent yu minPent [ritusen iwato]>/4"
  d1
    $ jux (rev)
    -- $ jux (iter 8)
    $ s "midi(7, 8)"
    # note (scale mode "{0..19}%<3 5 7 9 11 13>")
    |+ note "[0, 5, 12]"
    -- |- note 12
    |+ note base
    # midichan "0"
    # legato 0.2
    # gain 1.1
  d2
    -- $ jux (rev)
    $ s "midi(15, 16, [0, 5])"
    # note (scale mode "{0..21}%7")
    |+ note "[0, 12]"
    |- note 12
    |+ note base
    # midichan "1"
    # legato 0.5
    # gain 1.1
  d3
    -- $ sometimesBy 0.2 (jux (rev))
    $ s "midi(3, 8)"
    # note base
    |+ note "<0 12>*8"
    # midichan "2"
    # legato 1.5
    # delay 0.75 # delaytime (3/8) # lock 1 # delayfeedback 0.5
    # gain 1.3
  d4
    $ sometimesBy 0.2 (slow 2)
    $ sometimesBy 0.2 (brak)
    $ s "midi(11, 16)"
    # note (scale mode "{0..12}%<3 5 7>/2")
    |+ note "[0, <0 5 7 12>*16]"
    |+ note base
    |+ note (choose[0, 12])
    # midichan "3"
    # legato (range 0.7 4.0 $ rand)
    # gain (range 1.0 1.3 $ rand)

  
hush

do
  resetCycles
  -- setcps(80/240)
  -- let base = "<c3 g3 c3 g3 c3 f3>/2"
  -- let mode = "<yu ritusen minPent>/6"
  once $ s "midi" # midichan "8" # ccn 41 # ccv 127
  d3
    -- $ jux (iter 16)
    $ stack[
      -- s "ifdrums(7, 16)" # n (range 1 4 $ rand),
      s "uni ~ [~ [~ uni]] ~" # gain 1.3,
      s "uni:1(2, 4, 1)"
    ]
    |* gain 1.0
    -- # room 0.5 # size 0.5
    -- # delay 0.5 #delaytime (3/8) # lock 1 # delayfeedback 0.75
    



once
  $ s "midi"
  # midichan "8"
  # ccn 40 # ccv 127

hush

do
  resetCycles
  setcps(120/240)    
  once
    $ s "midi"
    # midichan "8"
    # ccn 41 # ccv 127  

hush  


  d2
    $ s "midi(<2 3>, 8)"
    # note "c3"
    # midichan "1"

