do
  let chord = "d'sus2 d'sus4"
  d2
	  $jux ((3/7)~>)
    $stack
    [
			s "supersaw(5,14,5)" #note chord |+|note "7" #gain "0.8",
      s "supersaw(5,14,0)" #note chord |+|note "0" #gain "1.0"
    ]
    #sustain "0.1"
    |*| gain "0.7"
    #room "0.3" #size "0.9"
    |-| note "[<0 0 0 2> / 4, 12]"
    #cutoff (range 800 18000 $slow 16 $sine)
    #resonance "0.3"
		#pan (choose [-0.5, 0.0, 0.5])
    #shape "0.5"
    
    
    |-| note "[0, 12]"
    #cutoff (range 800 18000 $slow 16 $sine)
    #resonance "0.3"
		#pan (choose [-0.5, 0.0, 0.5])
    #shape "0.5"

d3
  $ s "superbass(14, 14)"
  # sustain "0.1"
  # n ((scale "yu" "{0 .. 12}%5") - 10)
  # gain "0.8"
  # lpf (range 100 4000 $rand)
  # resonance "0.3"
  

-- minPent majPent ritusen egyptian kumai hirajoshi iwato chinese indian pelog prometheus scriabin gong shang jiao zhi yu whole augmented augmented2 hexMajor7 hexDorian hexPhrygian hexSus hexMajor6 hexAeolian major ionian dorian phrygian lydian mixolydian aeolian minor locrian harmonicMinor harmonicMajor melodicMinor melodicMinorDesc melodicMajor bartok hindu todi purvi marva bhairav ahirbhairav superLocrian romanianMinor hungarianMinor neapolitanMinor enigmatic spanish leadingWhole lydianMinor neapolitanMajor locrianMajor diminished diminished2 chromatic      