--00 init

hush

d1
  $ s "uni:1"
  # gain "0.6"



d1
  $sometimes rev
  $jux (iter 8)
  $stack
  [
    s "bd [~ cp] bd hc*4",
    s "ifdrums(3, 8)" #n (irand 100)
  ]    
  #room "0.6"

--03 fist riff

d2
  $ sound "tet(5, 8, {0, 2})"
  #gain "1.0"
  #lpf (range 1200 15000 $slow 16 $sine)  #resonance "0.3"
  #up "{[0, 7] [7, 14]}%5"
  #n "{0 1 2 3}%5"
  # cps(132/120)



  #up "{[0,7] [7,14]}%5"
  #n "{0 1 2 3}%9"

d3
  $jux ((3/8) <~)  
  $sound "jimsyn(5, 8)"
  #n "<20 1>"
  |*| up "-0.2"
  |*| gain "1.0"
  #lpf (range 2000 8000 $slow 12 $sine)
  #resonance "0.2"

do 
  let chord1 = "{c5, g5, f5}" 
  d4
    $slow 2
    $stack
    [
      -- sound "supersaw(3,16,{0,8})" # note chord1 |+|note "12", 
      -- sound "supersaw(3,16,{2,5})" # note chord1 |+|note "7",
      sound "supersaw(3,16,{0,3})" # note chord1 |+|note "0"
    ]
    #sustain "0.08"
    #gain "0.9"
    #lpf (range 800 8000 $slow 16 $sine)
    #resonance "0.2"

--04 second beat

d2
  $slow 2
  $sometimesBy 0.5 ((5/8) <~)
  $stack
  [
    -- s "tabla2(5, 16, {0})" #gain "1.3" #n (irand 30),
    s "kon(3, 16, {0, 5})" #n "{0 1 2 3}%6" #gain "1.3",
    s "uni(6, 16)" #gain "1.5",
    s "uni uni ~ uni ~ uni ~ uni" #n 1 #gain "1.3"
  ]
  |*|gain "1.0"
  -- #hpf 4000

d3
  $jux ((5/8) ~>)
  $slow 2
  $s "deepsyn(5, 16, [0, 5])"
  #gain "0.8"
  #n "<6 7 8 9>*4"
  #up "[19, 24]"
  #speed "[1.01, 1.0]"
  #lpf (range 300 8000 $slow 8 $rand) #resonance "0.3"
  
-- 06 first chord

do
  let chord2 = "{c3, a4, b6}"
  d3
    $slow 2
    $jux ((5/8) ~>)
    $s "superhammond(5, 16, [0, 5])" #note chord2 |+|note "[0, 7]"
    #lpf (range 500 18000 $slow 16 $sine)
    #resonance "0.3"
    #voice 3
    #gain "0.8"
    |+|note "{0 -12 12 -7 7}%16"

d4
  $chop 12
  $jux (rev)
  $s "eh(5, 8, {4, 8})"
  #n "{4}%9"
  #gain "0.9"

-- 07 second chord

d5
  $jux (rev)
  $s "supersaw*8"
  #sustain "0.1"
  #note "{0 -5 -7 -12 -17 -19}%17"
  |+| note "{0, 7}"
  #voice (range 0.1 0.8 $slow 24 $sine)
  #cutoff (range 400 18000 $slow 32 $sine)
  #resonance "0.3"
  #gain "1.2"
  #semitone "{7 0 12 5 19 24}%18"

solo 5
  


hush
