d1
$jux (iter 4)
$s "ikeda3(5, 8)"
-- #delay "0.1" #delaytime "0.01 0.02 0.03 0.005" #delayfeedback "0.8"

d2
$stack[
  s "myDrone/8" #n "{a0, c0}" #voice "{3, 4, 12, 13, 14}"
]
#sustain "8.0"
|+| n "<0 4 5 7 9 12>/16"
#cutoff "20000" #resonance"0.1"
#shape "0.3"


--------



d3
$jux (iter 8)
$stack[
  s "superhammond(5, 8, 0)" # n "{c, f, g, a}" |+|n "24",  
  s "superhammond(5, 8, 2)" # n "{c, f, g, a}" |+|n "12",  
  s "superhammond(5, 8, 4)" # n "{c, f, g, a}" |+|n "0",
  s "superhammond(5, 8, 6)" # n "{c, f, g, a}" |+|n "-12"
]
|+| n "<0 7 9 12 19>/4"
-- |+| n "0"
#voice (choose [0.2, 1.0, 5.0, 7.0])
-- #cutoff (scale 800 20000 $slow 2 $sine1) #resonance "0.2"
#delay "0.5" #delaytime (choose [0.01, 0.02, 0.03, 0.005]) #delayfeedback "0.6"
#sustain (choose[0.1, 0.02, 0.15])
-- |*|sustain "1.0 1.5 0.2"
-- #room "0.1"
#gain "1.0"

d2
-- $jux (iter 8)
$s "supersaw(3, 8)" #sustain (choose[0.1, 0.05])
#cutoff (scale 100 20000 $slow 3 $sine1) #resonance "0.2"
#voice (choose [0.2, 1.0])
#n "g"
|+|n "<0 7 9 12 19>/4"
|+|n (choose[-36, -24])
#gain "1.5"

d3
-- $sometimes (jux (iter 4))
$s "ikeda2(5, 8)"
#speed (choose[0.5, 1.0, 1.5])

d4
$s "cr(3,8,1)"
#n (irand 32)
#up (choose[0, 5, 7, 12])
#gain "0.8"

d5
$sound "ifdrums(5,8,1)"
#n (irand 64)
#gain "1.5"

d5
$ stack [
  sound "ifdrums(5,8,1)" #n (irand 64) #gain "0.8",
  sound "gabba(3, 8, 7)" #n "5",
  sound "ifdrums(3, 8, 10)" #n "0"
]
|*|gain "1.3"
#shape "0.5"

d5
$jux (iter 8)
$stack[
  s "supersin(5, 8, 0)" # n "{c, f, g, a}",
  s "supersin(5, 8, 1)" # n "{c, f, g, a}" |+| n (choose[-7,0,7,12,24]),
  s "supersin(5, 8, 3)" # n "{c, f, g, a}" |+| n (choose[-5,0,5,10])    
]
|+| n "0 -12 -7 -19"
#sustain (choose[0.1, 0.02, 0.15, 0.05])
#gain "1.0"

d6
$whenmod 8 4 (jux (iter 8))
$whenmod 4 3 (jux (iter 2))
$sometimes (rev)
$sound "{ifdrums(3, 8, 3), bd(3, 8, 2), glitch(3, 8)}"
#gain "1.5"
#n (irand 64)
#pan (rand)


d4
$jux (iter 8)
$s "ikeda1(5,8,1)"

d1
$sometimes (jux (rev))
$sometimes (jux (iter 8))
$stack[
  s "supersin(5, 8, 3)" #sustain "0.02" #n "c9",  
  s "supersin(5, 8)" #sustain "0.02" #n "a8",
  s "supersin(5, 8, 5)" #sustain "0.02" #n "e8"
]
|*| sustain "0.5 1.5 0.1 1.0"
-- |*| sustain (choose[0.1, 1.0, 1.5, 3.0])
#delay "1.0" #delaytime (choose [0.01, 0.02, 0.03, 0.005]) #delayfeedback "0.5"
-- #room "0.2"

d3
$sometimes (jux (iter 8))
$sometimes (jux (rev))
$stack[
  s "supersaw(3, 4, 0)" # n "c" |+|n "-36" #sustain "12.0" |+|n "7 0 12 5" #gain "2.0",
  s "superhammond(5, 8, 0)" # n "{c, f, g, a}" |+|n "24",
  s "superhammond(5, 8, 4)" # n "{c, f, g, a}" |+|n "-12",
  s "superhammond(5, 8, 2)" # n "{c, f, g, a}" |+|n "12",  
  s "superhammond(5, 8, 6)" # n "{c, f, g, a}" |+|n "0"
]
|+| n "<0 7 9 12 19>/4"
-- |+| n "-12"
#voice (choose [0.2, 1.0, 5.0, 7.0])
#cutoff (scale 800 20000 $slow 2 $rand) #resonance "0.4"
-- #delay "0.5" #delaytime (choose [0.01, 0.02, 0.03, 0.005]) #delayfeedback "0.6"
-- #delay "0.5" #delaytime "1.375" #delayfeedback "0.2"
#sustain (choose[0.1, 0.05, 0.15])
|*| sustain "0.8 1.2"
#room "0.2"
#gain "0.8"

d4
$sound "ifdrums(5,8,1)"
#n (irand 64)
#gain "1.7"

d5
$ stack [
  sound "gabba(2, 8)" #n "5",
  sound "ifdrums(2, 8)" #n "0"
]
|*|gain "1.5"
#shape "0.8"

d6
$s "cr(3,8,1)"
#n (irand 32)
#up (choose[0, 5, 7, 12])
#pan (rand)




d2
$sometimes (jux (rev))
$sometimes (jux (iter 8))
$stack[
  s "supersin(5, 8, 3)" #sustain "0.02" #n "c9",  
  s "supersin(5, 8)" #sustain "0.02" #n "a8",
  s "supersin(5, 8, 5)" #sustain "0.02" #n "e8"
]
-- |*| sustain "0.5 1.5 0.1 1.0"
|*| sustain (choose[0.1, 1.0, 1.5, 3.0])
#gain "0.5"
-- #delay "1.0" #delaytime (choose [0.01, 0.02, 0.03, 0.005]) #delayfeedback "0.8"
-- #room "0.2"


hush

