hush

setcps(130/240)

d7 silence

d1
  $ jux (("[5, 2]"/14)<~)  
  $ s "fb(9, 14)"
  # n "<0..3>*9"
  # gain "<1.3 0.9>*14"
  -- # room 0.2 # size 0.5

d2
  $ jux (("[11, 5]"/14)<~)
  $ jux (("[3, 5]"/7)<~)
  $ s "rs(1, 7)"  
  |+ note "[-0.05, 0.05]"
  |+ note "[-12, <0 -5>/8]"
  # legato 1.5
  -- # delay 0.8 # delaytime ("[2, 5]"/14) # delayfeedback 0.8 # lock 1
  # lpf (choose [4000, 6000, 8000, 10000]) # resonance "0.8"
  # room 0.9 # size 0.5

d3
  $ s "uni(4, 7)"
  # legato 0.2
  # shape 0.7
  # gain 1.5

d4
  $ jux ((3/14)<~)
  $ s "uni(9, 14)" # n (irand 4)
  # delay 0.5 #delaytime (range 0.002 0.03 $ rand) # delayfeedback 0.8
  # gain 1.1

d5
  $ s "supermoog(5, 14)" 
  # lpf (range 800 8000 $ slow 2 $ sine) # resonance "0.1"
  # note "f2"
  |+ note "<0 5 -5>/4"
  -- # note "<c3 a2 g2>/4"
  # legato 1.2
  # gain 1.4

d5
  -- $ jux ((1/14)~>)
  -- $ jux ((2/14)<~)
  $ s "superbass(9, 14)"
  # legato 0.8
  # note "<f2 g2 c3>/4"  
  -- |+ note "<0 12>*7"
  |+ note "[0.05, -0.05]"
  # lpf (range 100 8000 $ rand) # resonance "0.3"
  # gain 1.7

d6
  $ s "matsu/7"
  # gain 1.2

d7
  $ sometimesBy 0.2 (jux (rev))
  $ s "ifdrums(13, 14)"
  # n (irand 10)  
  # gain (range 1.0 1.5 $ rand)

d6
  $ jux (("[2, 5]"/14)<~)
  $ stack[
    s "superwho(5, 14)" # note 0
    , s "superwho(5, 14, 5)" # note 7
    -- , s "superwho(5, 14, 10)" # note 12
  ]
  # legato "0.5 1.5"
  |+| note "c5'maj9"
  # lpf (range 100 3000 $ slow 4 $ sine) # resonance "0.4"

d6
  $ sometimesBy 0.1 (rev)
  $ sometimesBy 0.4 ((1/8) <~)
  $ stack
  [
    s "uni(10, 16)" # n "{0 1 2}%8", 
    s "uni:1(9, 16)"
  ]
  # shape 0.8
  # gain 1.2

d6
  $ jux (("[2, 5]"/16)<~)
  $ sometimesBy 0.2 (rev)
  -- $ sometimesBy 0.4 ((1/8) <~)
  $ stack
  [
    s "ifdrums(7, 16)" # n (choose[1..2]),
    s "uni(7, 16)" # n (choose[1..3]) # gain "1.0",
    s "gabba(3, 16)" # gain "1.7"
  ]
  # delay 0.7  # delaytime (range 0.003 0.03 $ rand) # delayfeedback 0.7
  |*| gain 2.0
  
  
d6 silence >> d5 silence >> d4 silence >> d3 silence

d1
  $ jux (("[1, 5, 7]"/8)~>)
  $ s "tptd"
  # n 1
  # legato (1/8)
  |+ note "[-0.02, 0.02]"
  |+ note "<0 0 -7 -2>"
  # lpf (choose [2000, 4000, 6000, 8000, 12000]) # resonance "0.8"
  # pan rand
  # delay 1.0 # delaytime ("[7, 9]"/16) # delayfeedback 0.8 # lock 1
  # room 0.9 # size 0.9
  # gain 0.9

d2
  $ sometimesBy 0.2 (jux (rev))
  $ s "uni:1([7, 5], 16, {0..7}/6)"
  # n (irand 4)
  # shape 0.5

d3
  $ s "superbass(9, 16)"
  # note "gs3"
  |+ note (scale "yu" "{0..7}%3")
  # lpf (range 800 8000 $ rand)
  # delay 0.3 # delaytime ("[7, 9]"/16) # delayfeedback 0.5 # lock 1

d2 silence

hush

do
  -- setcps(140/240)
  -- resetCycles
  d1    
    $ stack[
      jux (("[12, 9, 5, 3]"/14)<~) $ 
        sometimesBy 0.2 (rev) $
        s "superbass(5, 14, {0..13}/5)"
        # lpf (range 800 8000 $ slow 8 $ rand) # resonance "0.2"
        # note "c5'maj9"
        # gain 0.8
        # legato 0.9,
      s "supermoog(5, 14)" 
        # lpf (range 800 8000 $ slow 2 $ sine) # resonance "0.1"
        # note "<c4 a3>/4"
        |-| note 12        
        # legato 1.0
        # gain 1.4
    ]
    |+| note "[0.0, 0.1]"
    |-| note "<5 4 0>/32"
    # room 0.3 # size 0.3
    |*| gain 1
  d2
    $ s "uni(5, 14, {0..13}/5)"
    # gain 1.5
  d3
    $ s "uni(9, 14)" # n (irand 4)
    # delay 1.0 #delaytime (range 0.002 0.03 $ rand) # delayfeedback 0.8
    # gain 1.1

unsolo 1

hush
