-- 03

d4
  $slow 2
  $stack
  [
    s "supersaw(6, 14, 0)" #n "[0, 4, 7, 9, 11]" |+| n "0"
  ]
  #cutoff (scale 800 10000 $slow 8 $sine1) #resonance "0.3"
  #sustain "0.1"
  #gain "0.8"
  -- |+|n "<-7 0 7 0 5 0 -5 0>/2"

d3
  -- $jux ((3/7) <~)  
  $sound "jimsyn(5, 7)"
  #n "<20 1>"
  |*| up "-0.2"
  |*| up "[0, 7]"
  |*| gain "0.9"
  #lpf (scale 2000 8000 $slow 12 $sine1)
  #resonance "0.2"

