-- Algorave 15 Stream Testing!!

hush

--02 first beat

d3
  $sometimesBy 0.6 (jux ((3/8) ~>))
  $sound "uni(3, 8)"
  #n "1 2"
  #gain "1.2"


  #delay "0.25" #delaytime "{0.005 0.02 0.01}%4" #delayfeedback "0.9"

d1
  -- $sometimesBy 0.2 (jux ((3/8)~>))
  $slow 2
  $stack
  [
    s "uni(4, 16)" #gain "1.3" #shape "0.5",
    sometimes (jux ((5/8) ~>))
    $jux (rev)
    $s "uni(5, 16, [0, 6, 9, 12])"
    #n "{1 2 3}%6"
    #gain "1.2"
    -- #up "{0 -7 7 12}%7"
  ]
  |*| gain "1.0"
  -- #hpf 1000
  -- |*| gain "<1 1 1 1 1 1 1 0>"

--03 fist riff

d2
  $ sound "tet(5, 8, {0, 2})"
  #gain "1.2"
  #lpf (range 1200 15000 $slow 16 $sine)  #resonance "0.3"
  #up "{[0]}%5"


  #up "{[0,7] [7,14]}%5"
  #n "{0 1 2 3}%9"

d4
  $jux ((3/8) <~)  
  $sound "jimsyn(5, 8)"
  #n "<20 1>"
  |*| up "-0.2"
  |*| gain "1.1"
  #lpf (range 2000 8000 $slow 12 $sine)
  #resonance "0.2"

do 
  let chord1 = "{c5, g5, f5}" 
  d5
    $slow 2
    $stack
    [
      -- sound "supersaw(3,16,{0,8})" # note chord1 |+|note "12", 
      -- sound "supersaw(3,16,{2,5})" # note chord1 |+|note "7",
      sound "supersaw(3,16,{0,3})" # note chord1 |+|note "0"
    ]
    #sustain "0.08"
    #gain "0.9"
    #lpf (range 800 8000 $slow 16 $sine)
    #resonance "0.2"

--- Perfect!! Thanks!




