-- sync test
do
  setcps(130/240)
  d1 
    $ s "cp(3, 8, <0..7>/8)"
    -- # nudge "0.22"
  d2
    $ s "midi(3, 8, <0..7>/8)"
    # midichan 2
    # ccn 7 # ccv 80
    # note "c4"

hush

-- Intro -------------

do
  setcps(120/240)    
  d12
    $ s "none"
    # td_s "0"
  once
    $ s "matsu"
 
do
  d12
    $ s "none/2"
    # td_s "<0 1>/2"
  d1
    $ s "sfh"
    # lpf 100
    # pan (rand)
    # n (choose[0..32])
    # gain "0.8"
    -- # nudge "0.22"

d2
  $ s "superdown/8"
  # note "c5"
  # voice "200"
  # speed "[1.5, 1.0]"
  # legato "4.0"
  # gain "0.9"


do
  d12 
    $ s "none"
    # td_s (choose([0..3]))
  d3
    $ s "midi"
    # note "-12"
    # midichan "0"
    # legato "4.0"
    # gain "1.0"
    # ccn 7 # ccv 40

do
  d12
    $ s "none*2"
    # td_s (choose([0..4]))
  d4
    $ s "ae(3, 8)"
    -- # nudge "0.22"
    # n (choose[0..4])
    # gain "0.8"
    
     
    # pan (rand)
    # speed "[1.0, 1.001]"
    # lpf (range 80 1000 $ slow 8 $ sine) # resonance "0.2"
    # delay "0.9"
    # delaytime (range 0.001 0.05 $ rand)
    # delayfeedback "0.95"
    

--- First note ----------

d5
  $ slow 2
  $ s "midi"
  # midichan 1
  # note "c5'min13"
  # legato "0.5"
  # ccn 7 # ccv 100


d1 silence >> d2 silence >> d3 silence >> d4 silence

do
  setcps(130/240)
  let base = 0
  d5 silence
  d12
    $ s "none(5, 8)"
    # td_s (choose([5..9]))    
  d1
    $ s "midi(7, 16)"
    # note "c4'min11"
    -- # note "<c4'min11 <c4'min13 c4'min7 c4'min9>/4>/2"
    |+| note base
    -- |+| note "<0 12>/2"
    -- |+| note "[0, 12]"
    -- |+| note "<0 0 -5 0>/4"
    # legato "1.0"
    # gain "1.0"
    # midichan "1"
    # ccn 7 # ccv 100
  d21
    $ fast 8
    $ stack
    [      
      ccn 30 -- pos1
        # ccv 10,
      ccn 31 -- pos2
        # ccv 120,
      ccn 32 -- freq
        -- # ccv 120,
        # ccv (range 64 127 $ slow (16 * 4) $ sine),        
      ccn 33 -- res
        # ccv 30,
      ccn 34 -- envLevel
        # ccv 80,
      ccn 35 -- rev
        # ccv 0,
      ccn 36 -- atack
        # ccv 0, 
      ccn 37 -- release
        # ccv 20
    ]
    # midichan 1
    # s "midi"
  d2
    $ s "midi(5, 16)"
    # legato "2.5"
    # note (scale "minPent" "{0..9}%3")
    |+| note "-24"
    |+| note base
    # midichan "2"
    # gain (range 1.0 1.1 $ slow 4 $ sine)
    # ccn 31 # ccv 40
    # ccn 7 # ccv 80

--- Beat -----------------------

do
  d12
    $ s "none(5, 8)"
    # td_s (choose([0..12]))
  d3
    $ stack
    [
      s "ifdrums(9, 16, <0..15>/10)" # n (choose[1..2]) # gain "1.3",
      s "uni(5, 16)" # gain "1.5",
      s "[~ cp](5, 8, <0..7>/12)" # n "<1 2>" # gain "1.1",
      s "hc(11, 16)" # gain "1.0"
    ]
    -- # shape "0.5"
    -- # nudge "0.22"
    |*| gain "1.2"

do
  d12
    $ s "none(7, 16)"
    # td_s (choose([0..16]))
  d4
    $ s "superbass(16, 16)"
    # note (scale "yu" "{0..15}%1")
    |+| note "-12"
    # legato "0.8"
    # lpf(range 400 2000 $ slow 8 $ sine)
    # resonance "0.2"
    -- # nudge "0.22"
    # gain "0.9"

d4
  $ s "superzow(7, 16, [0, 5])"
  # note "c5'min9"
  # legato "0.75"
  -- # nudge "0.22"
  # lpf (range 200 4000 $ slow 8 $ sine)
  # resonance "0.2"
  # pan(rand)
  # gain "0.9"

do
  d12
    $ s "none(7, 16)"
    # td_s (choose([17..20]))
  d4
    $ s "kon(7, 16)"
    # n "{0..0}%3"
    -- # nudge "0.22"
    # gain "1.3"

--- New Beat ----
do
  hush  
  d12
    $ s "none(7, 16)"
    # td_s (choose([0..26]))
  d1
    $ s "sup(11, 16, <0..15>/8)"
    -- # n (choose[0..6])
    # n "{0..6}%3"
    # shape "0.6"
    -- # nudge "0.22"
    # gain "1.5"

d2
  $ s "hc(11, 16, <0..15>/8)"  
  -- # nudge "0.22"

d3
  $ s "tet(9, 16)" 
  # up "[0, 7, 12]"
  # lpf (range 400 8000 $ slow 8 $ sine) 
  # resonance "0.2"
  # room "0.6" # size "0.9" 
  # n "<0 1 2 3>/8"
  # gain "1.0" 

--- Distort Bass ----------    

do
  d12
    $ s "none(9, 16)"
    # td_s (choose([0..23]))
  d4
    $ s "midi(9, 16)"
    # midichan "4"
    # legato "1.0"
    # note (scale "minPent" "{0..5}%3")
    |-| note "22"
    # ccn 30 # ccv 50
    # gain 1.1

do
  d5
    $ jux (iter 16)
    $ s "superbass(16, 16)"
    # note (scale "minPent" (choose[0..12]))    
    |+| note "-10"
    # lpf (range 1000 8000 $ slow 16 $ rand)
    # pan (rand)
    # resonance "0.3"
    # legato "0.8"
    -- # nudge "0.22"

--- Hard Beat ----------------------

do
  d12
    $ s "none(11, 16)"
    # td_s (choose([0..32]))
  d2
    $ sometimesBy 0.1 (rev)
    $ sometimesBy 0.4 ((1/8) <~)
    $ stack
    [
      s "uni(10, 16)" # n "{0 1 2}%8", 
      s "distd(2, 16)" # gain "1.1",
      s "uni:1(9, 16, 5)"
    ]
    -- # room "0.8" # size "0.9"
    # shape "0.8"
    # gain "1.0"
    -- # nudge "0.22"
    

d4
  -- $ sometimesBy 0.2 (rev)
  -- $ sometimesBy 0.4 ((1/8) <~)
  $ stack
  [
    s "ifdrums(7, 16, 10)" # n (choose[1..2]),
    s "uni(7, 16)" # n (choose[1..3]) # gain "1.0",
    s "gabba(3, 16)" # gain "1.7"
  ]
  # delay "1.0"
  # delaytime (choose([0.01, 0.02, 0.03, 0.005]))
  -- # delaytime (range 0.002 0.03 $ rand)
  # delayfeedback "0.8"
  |+| gain "1.8"
  -- # nudge "0.22"
  # shape "0.9"
  -- # room "0.8"

d5
  -- $ sometimesBy 0.2 (rev)
  $ stack
  [
    s "ifdrums(7, 16, 5)" # n (choose[1..3]),
    s "uni(7, 16)" # n (choose[1..2]),
    s "uni(3, 8)" # gain "1.5"
  ]
  -- # delay "1.0"
  -- # delaytime (choose([0.01, 0.02, 0.03, 0.005, 0.02]))
  -- # delaytime (range 0.005 0.03 $ rand)
  -- # delayfeedback "0.7"
  -- # shape "0.5"
  -- # nudge "0.22"
  # gain "1.9"

d3
  -- $ jux (rev)
  $ s "superzow(16, 16)"
  # note (scale "yu" "{0..15}%1")
  |+| note "-24"
  |+| note "[0, 7]"
  # legato "0.9"
  # lpf (range 200 12000 $ slow 8 $ sine)
  # resonance "0.3"
  -- # nudge "0.22"
  # gain "1.1"

d5
  $ s "superzow(9, 16)"
  # note "c5'min13"
  -- # nudge "0.22"
  # lpf (range 100 8000 $ slow 1 $ rand)
  # resonance "0.2"
  # legato "0.9"
  # gain "1.5"

unsolo 5

--- End drone --------------

do
  hush
  setcps(130/240)
  d12
    $ s "none"
    # td_s 31
  once
    $ s "matsu"
    # up "-2"
    # gain "1.5"

do
  d12
    $ s "none"
  d1
    $ slow 4
    $ stack
    [
      s "midi" # note "c5'min9 c5'min13",
      s "midi" # note "c3" # gain "1.7"
    ]
    # midichan "5"
    -- |+| note "<0 7 0 12>/4"
    -- |+| note "[0, 12]"
    # legato "12.0"
    # ccn 7 # ccv 100
    |*| gain "1.2"

do
  d12
    $ s "none*8"
    # td_s (choose([0..27]))
  d2
    $ s "midi(3, 8)"
    # note (scale "yu" "{0..5}%5")
    -- |+| note "<0 7 0 -5>/4"
    -- |+| note "-12"
    |+| note "[0, 12]"    
    # ccn "30"  # ccv (range 10 127 $ slow 15 $ rand)
    # ccn 7  # ccv 0
    # legato "1.0"
    # gain "1.0"
    # midichan "1"
  d21
    $ fast 16
    $ stack
    [      
      ccn 30 -- pos1
        # ccv 80,
      ccn 31 -- pos2
        # ccv 10,
      ccn 32 -- freq
        -- # ccv 120,
        # ccv (range 64 127 $ slow (16 * 4) $ sine),        
      ccn 33 -- res
        # ccv 40,
      ccn 34 -- envLevel
        # ccv 20,
      ccn 35 -- rev
        # ccv 40,
      ccn 36 -- atack
        # ccv 10, 
      ccn 37 -- release
        # ccv 110
    ]
    # midichan 1
    # s "midi"


do
  d3
    $ slow 4
    $ s "midi"
    # note "c3"  
    # midichan 6
    # legato "2.0"
    # gain "1.5"
    # ccn 7 # ccv 80
  d22
    $ fast 32
    $ stack
    [      
      ccn 30 # ccv (range 10 20 $ slow (16 * 32) $ sine),
      ccn 31 # ccv (range 10 20 $ slow (16 * 5) $ sine),
      ccn 32 # ccv 127
    ]
    # midichan 6
    # s "midi"   


d4
  $ slow 16
  $ s "matsu/2"
  # up "-2"
  # gain "1.3"

do
  d12
    $ s "none/2"
    # td_s "0"
  d2
    $ s "superdown/8"
    # note "c6"
    # voice "400"
    # speed "[1.5, 1.0]"
    # legato "4.0"
    # gain "1.0"


d6
  -- $ jux (0.5 ~>)
  -- $ fast 8 $ randslice 30
  -- $ fast 16 $ randslice 80
  $ s "adhan/4"
  -- # n (choose[0..3])
  -- # up "<0 0 7 0>"
  # room "0.6" # size "0.95"
  # gain "0.8"

do
  hush
  d12
    $ s "none"
    # td_s 0
