-- 07

d5
$ stack [
  sound "cp(7, 16, {1, 3, 5, 7})" |+|up "{7 14 21 0 12 24}%8" #pan (rand),
  sound "dr55(3,16,10)",
  sound "gabba:4*4",
  sound "bd(5, 16)"
]
#gain "1.2"
#shape "0.5"

d6
$jux (iter 4)
$ sound "hc:2*16" |+| speed "1.0 2.0 1.5"
#gain "1.2"

d6
$ slowcat [
  sound "gabbaloud*4",
  sound (samples "flick*16?" (irand 6)) |+| speed "2.0 1.0 1.5 3.0",
  sound "bd:4*4",
  sound "[bd bd ~ bd ~ ~ ~ bd]*2" |+| speed "0.75 1.0 0.5"
]
#gain "1.2"
#shape "0.5"
