hush

d1
  $slow 8
  $sound "empty"
  #speed "[1.0, 1.003]"
  #gain "0.9"
  #cps (130/120)

d2
  $jux ((5/8) ~>)
  $slow 4
  $s "sfh(3, 8)"
  #gain "0.7"
  #n (irand 200)
  #pan (range 0.4 0.6 $rand)
  #up "[7, 0, 12]"
  #speed "[1.01, 1.0]"

d3
  $slow 2
  $jux ((3/8) <~)
  $sound "autech2(3, 8, [0, 3, 5])"
  #gain "0.7"
  #speed "[1.005, 1.0]"
  |*|speed "[-1.0, 1.5]"
  #n "{0 1 2 3 4}%5"
  #lpf (range 400 18000 $slow 4 $sine) #resonance "0.2"
  
  

  #speed "[1.005, 1.0]"
  #n "{0}%7"
  #lpf (range 400 18000 $slow 4 $sine) #resonance "0.1"
  |*|speed "[-1.0, 1.5]"

d1
  $sometimesBy 0.6 (jux ((3/8) ~>))
  $sound "uni(3, 8)"
  #n "1 2"
  #gain "0.9"
  #delay "0.5" #delaytime "{0.005 0.02 0.01}%4" #delayfeedback "0.9"

d2
  -- $sometimesBy 0.2 (jux ((3/8)~>))
  $slow 2
  $stack
  [
    s "distd(4, 16)" #gain "1.3" #shape "0.5",
    sometimes (jux ((5/8) ~>))
    $jux (rev)
    $s "uni(5, 16, [0, 6, 9, 12])"
    #n "{1 2 3}%6"
    #gain "1.2"
    #up "{0 -7 7 12}%7"
  ]
  |*| gain "1.0"
  -- #hpf 1000
  -- |*| gain "<1 1 1 1 1 1 1 0>"
  
d3
  $jux ((5/8) ~>)
  $slow 2
  $s "deepsyn(7, 16, [0, 5])"
  #gain "0.8"
  #n "<6 7 8 9>*4"
  #up "[12, 0, 19]"
  #speed "[1.01, 1.0]"
  #lpf (range 1000 10000 $slow 8 $rand) #resonance "0.3"
  
d4
  $ sound "tet(5, 8, {0, 2})"
  #gain "1.2"
  #n (irand 100)
  #lpf (range 1200 15000 $slow 16 $sine)  #resonance "0.1"
  #up "{[0, 7] [7, 14]}%5"
  #gain "0.9"


  #up "{[0,7] [7,14]}%5"
  #n "{0 1 2 3}%9"

d3
  $jux ((3/8) <~)  
  $sound "jimsyn(5, 8)"
  #n "<20 1>"
  |*| up "-0.2"
  |*| gain "1.0"
  #lpf (range 2000 8000 $slow 12 $sine)
  #resonance "0.2"
  #gain "0.9"


--04 second beat

d2
  $slow 2
  -- $sometimesBy 0.5 ((5/8) <~)
  $stack
  [
    s "tabla2(5, 16, {0})" #gain "1.0" #n (irand 30),
    s "kon(5, 16, {0, 5})" #n (irand 100) #gain "1.0",
    s "uni(6, 16)" #gain "1.2",
    s "uni uni ~ uni ~ uni ~ uni" #n 1 #gain "1.0"
  ]
  |*|gain "1.0"
  -- #hpf 4000

--05 change beat

d4
  -- $every 8 (jux (rev))
  -- $sometimesBy 0.2 ((5/8) <~)
  $stack
  [
    s "uni*2", 
    s "bd cp bd hc" #n (irand 12),
    s "uni(3, 8, {0, 3})"
    #n "0 0 0 1 0 3 1 2"
  ]
  #gain "<1 1 1 1 1 1 0 0>"
  |*|gain "1.1"

d2
  $stack
  [
    s "super808(5, 8, 3)" #n "{-12 -7 -5 0 5 7}%3",
    s "ifdrums(3, 8, 0)"  #n "{1 2 3}%4",
    slow 2 $s "ifdrums(2, 8)" #gain "1.5"
  ]
  #shape "0.5"
  #gain "1.0"



d3
  $jux ((5/8) ~>)
  $s "deephc(5, 8)"
  #n (irand 100)

d3
  $jux ((5/8) ~>)
  $s "uni(5, 8)"
  #n (irand 100)
  #delay "0.7" #delaytime "{0.015 0.02 0.01}%4" #delayfeedback "0.5"
  #gain "1.5"

d2
  $s "deepkick(2, 8)"
  #n 7
  #gain "1.0"

do 
  let chord1 = "{c5, g5, b6}" 
  d5
    $sometimesBy 0.2 (jux ((3/8)~>))
    $slow 2
    $stack
    [
      sound "supersaw(3,16,{0,8})" # note chord1 |+|note "12", 
      sound "supersaw(3,16,{2,5})" # note chord1 |+|note "7",
      sound "supersaw(3,16,{0,3})" # note chord1 |+|note "0"
    ]
    #sustain "0.08"
    #gain "0.4"
    #lpf (range 800 8000 $slow 16 $sine)
    #resonance "0.2"


d1
  $sometimes (jux (rev))
  $jux ((3/8) ~>)
  $slow 2
  $stack
  [
    s "ike1(11, 16)",
    s "ike2(7, 16)",
    s "ike3(5, 16)",
    s "distd(4, 16)"
  ]
  #delay "0.7" #delaytime "{0.015 0.02 0.01}%4" #delayfeedback "0.5"
  #shape "0.5"
  -- #hpf 1000
  #cps(135/120)

d2
  $sound "jimsyn(3, 8)"
  #n (irand 100)
  #speed "{1.0, -1.5}"
  #lpf (range 400 18000 $rand) #resonance "0.3"
  #room "0.9" #size "0.9"
  #pan rand
  #gain "0.8" 


d2
  $s "distd(2, 8)"
  #shape "0.5"

d2
  $s "numbers"
  #n "{1 2 3 4 5 6 7 8}%5"
  #gain "0.8"

d1 silence  

d3
  $slow 2
  $s "spiano(3, 8)"
  #up "[0, -5, 12]"
  #n "<0 1 2 3>"
  |*| speed "{0.5, 1.5}"
  #gain "0.8"

d2
  $slow 8
  $sound "empty"
  #speed "[1.0, 1.003]"
  #gain "0.9"
  #lpf "8000"




  
