-- 01

d1
$slow 2
$stack[
  --s "tabla2(8, 14, {0, 3})" #gain "1.0" #n (irand 30),
  --s "kon(3, 7, {0})" #gain "1.2",
  s "bd" #gain "1.2" #shape "0.4",
  s "cp cp ~ cp ~ cp ~" #gain "1.0"
]

-- #n (irand 50) 
