-- 03

d3
$slow 2
$stack[
  s "supersaw(6, 14, 0)" #n "[0, 4, 7, 9, 11]" |+| n "0"
]
#cutoff (scale 800 10000 $slow 8 $sine1) #resonance "0.3"
#sustain "0.1"
#gain "0.8"
-- |+|n "<-7 0 7 0 5 0 -5 0>/2"
