cps(140/120)

d1
$slow 2
$sometimesBy 0.3 (jux (rev))
$stack[
  s "tabla2(8, 14, {0, 3})" #gain "1.0" #n (irand 30),
  s "kon(8, 14, {0, 6})" #n (irand 50) #gain "1.2",
  s "bd" #gain "1.2" #shape "0.4",
  s "cp cp ~ cp ~ cp ~" #gain "1.0"
]

d2
$sometimesBy 0.3 (rev)
$sometimesBy 0.2 (jux (rev))
$stack[
  s "super808(4, 7, 3)" #n "{-12 -7 -5 0 5 7}%3",
  s "ifdrums(4, 7, 0)"  #n "{1 2 3}%4",
  slow 2 $s "ifdrums(2, 7)" #gain "1.5"
]
#delay "0.7" #delaytime "{0.04 0.08 0.015 0.02}%14" #delayfeedback "0.8"
#shape "0.5"

d3
$sometimesBy 0.2 (jux (rev))
$slow 2
$stack[
  s "supersaw(6, 14, 9)" #n "[0, 4, 7, 9, 11]" |+| n "12",
  s "supersaw(6, 14, 3)" #n "[0, 4, 7, 9, 11]" |+| n "7",
  s "supersaw(6, 14, 6)" #n "[0, 4, 7, 9, 11]" |+| n "-7",
  s "supersaw(6, 14, 0)" #n "[0, 4, 7, 9, 11]" |+| n "0"
]
#pan (rand)
#cutoff (scale 800 10000 $slow 8 $sine1) #resonance "0.2"
#sustain "{0.15 0.03 0.12}%7"
#gain "0.9"
|+|n "<-7 0 7 0 5 0 -5 0>/2"

d4
$sometimes (jux (rev))
$slow 2
$stack[
  sound "808ch(7,14,{7,10})" #n (irand 12),
  sound "bd(5,14,{0 2 4})" #n "0" |*|gain "1.5"
]
#shape "0.8"
#gain "1.0"

d3
$sometimes (rev)
$sometimes (jux (rev))
$slow 2
$stack[
  s "808ch(7,14,{7,10})" #n (irand 12),
  s "bass*2" #n (irand 64),
  s "glitch(5,14,5)" #n (irand 64),
  s "gabba*2",
  s "ifdrums(4, 14)" #n (irand 64),
  s "gabba(5, 14, 3)" #n (irand 64)
]
#shape "0.5"
#gain "1.5"

d5
$slow 2
$sometimesBy 0.8 (jux (rev))
$stack[
  s "alva(5, 14, 2)" #n (irand 100),
  s "numbers(3, 7, 2)" #n (irand 100),
  s "alphabet(3, 7, 6)" #n (irand 100) 
]
-- #speed (scale 0.5 1.4 $rand)
#cutoff "8000" #resonance "0.4"
#gain "1.4"

d4
$slow 2
$stack[
  s "bd(3, 7, 0)",
  s "ifdrums(3, 7, 5)",
  s "glitch(3, 7, 5)",
  s "bass(3, 7, 2)",
  s "cp(3, 7, 3)",
  s "dr55(3, 7, 4)"
]
#gain "1.4"
#shape "0.5"
# n (irand 64)
# pan (rand)

d2
$stack [
  s "supersaw*7" #n "{0 5 7 12}%9" |+| n "7",
  s "supersaw*7" #n "{0 5 7 12}%7"
]
#pan (rand)
#sustain "{0.12 0.08 0.15}%7"
|+|n "{-24, -12}"
#gain "1.5"
#pitch1 (scale 1.0 8.0 $slow 64 $sine1)
#semitone "{12 19 17 24 7}%14"
#cutoff (scale 1000 12000 $slow 32 $sine1) #resonance "0.2"
-- #room "0.8"

d5
$s "super808*7" #n "-64"
#delay "0.9" #delaytime "{0.04 0.08 0.015 0.02}%14" #delayfeedback "0.8"
#cutoff (scale 1000 12000 $slow 24 $sine1) #resonance "0.3"
#sustain "0.2"
#shape "0.5"
#gain "1.5"

d6
$slow 2
$sometimesBy 0.8 (jux (rev))
$sometimesBy 0.2 (rev)
$s "kon(8,14,{0, 4, 8, 12, 3})"
#cutoff "8000" #resonance "0.5"
#n "{0 1 4}%7"
#gain "1.5"

d5
$stack [
  s "ifdrums:2/2",
  s "super808*7" #n "-48"
]
#shape "0.9"
#gain "1.7"




