
hush    

do
  hush
  d12
    $ s "none*4"
    # td_s 0

-- Intro -------------

do
  setcps(120/240)    
  d12
    $ s "none"
    # td_s "1"
  once
    $ s "matsu"

do
  d12
    $ s "none/2"
    # td_s (choose[1..3])
  d1
    $ s "sfh"
    # lpf 12000
    # pan (rand)
    # n (choose[0..32])
    # gain "0.8"

d2
  $ s "empty/6"
  # shape "0.8"
  # gain "0.8"

d3
  $ s "superdown/8"
  # note "c5"
  # voice "600"
  # speed "[1.5, 1.0]"
  # legato "4.0"
  # gain "0.8"
     
--- First movement ----------

do
  hush
  setcps(100/240)
  d12
    $ s "none*4"
    # td_s (choose([34..40]))
  d1
    $ jux (("[3, 10, 5]"/14)<~)
    $ s "rs(1, 7)"  
    |+ note "[-0.05, 0.05]"
    -- |+ note "[-12, <0 -5>/4]"
    # legato 0.5
    # delay 0.5 # delaytime ("[5, 3]"/14) # delayfeedback 0.5 # lock 1
    # lpf (choose [6000, 8000]) # resonance 0.8
    # room 0.5 # size 0.9

d2
  $ jux (("[7, 3]"/14)<~) 
  $ s "fb(3, 14, 5)"
  -- # n "<0..3>*9"
  # gain "<1.5 0.9>*16"
  -- # delay 0.1 # delaytime "<0.02 0.01 0.005>*8" # delayfeedback 0.7

d3
  $ jux (("[5, 9]"/14)<~)  
  $ s "uni(3, 14)"
  # legato 0.5
  -- # n "<0..3>*9"
  # gain 1.5
  -- # delay 0.1 # delaytime "<0.02 0.01 0.03>*8" # delayfeedback 0.7

d4
  $ stack
  [
    s "uni(3, 7)" # legato 0.4
    , s "fb(5, 14)"
  ]  
  # gain 1.3

d5
  $ jux ((5/14)<~)  
  $ stack
  [
    s "superwho(9, 14)" # note "g6'sus2"
    , s "superwho(9, 14, 5)" # note "g6'sus2" |+ note 7
    , s "superwho(9, 14, 10)" # note "g6'sus2" |+ note 12
  ]
  # lfo (range 800 8000 $ rand) # resonance "0.2"
  # legato "0.5 1.0"
  # gain 0.8
  
d3
  $ sometimesBy 0.4 (jux (rev))
  $ s "ifdrums(11, 14)"
  # n (irand 3)  
  # gain (range 1.0 1.7 $ rand)

d6
  -- $ sometimesBy 0.4 (jux (rev))
  $ s "hasu(11, 14)"
  # n (choose [0..13])
  # room 0.5 # size 0.9
  # gain 1.4
  
  
d7
  $ jux ((5/14)<~)  
  $ s "superwho(9, 14)"
  # note "g7'maj11"
  |+ note "[0, 12]"
  # legato 0.6
  # lfo (range 800 8000 $ rand) # resonance "0.3"
  -- # delay 0.8 # delaytime ("[7, 3]"/14) # delayfeedback 0.5 # lock 1
  # gain 0.8

d2 silence
  >> d3 silence
  >> d4 silence
  >> d5 silence
  >> d6 silence
  >> d7 silence

do
  d12
    $ s "none*4"
    # td_s 1
  once
    $ s "matsu" 
    -- |+ note "[-0.1, 0.1]"
    # note "[0, -12]"
    # gain 1.0
    # room 0.5 # size 0.8

d1 silence

--- Second note ----------

do
  -- hush
  -- resetCycles
  setcps(125/240)
  d12
    $ s "none(7, 16)"
    # td_s (choose([58..66]))    
  d2
    -- $ sometimesBy 0.2 (jux (rev))
    $ stack[
       jux ((5/16)<~) $ 
        -- sometimesBy 0.2 (rev) $
        s "superwho(9, 16)"
        -- # legato 0.9
        # lpf (range 4000 10000 $ rand) # resonance "0.3"
        # note "g5'maj9"
        |+ note "[0, 12]"      
        # gain 1.0,
      s "supermoog(7, 16)" 
        # lpf (range 1000 10000 $ slow 8 $ sine) # resonance "0.1"
        # note "g2"
        -- |+ note "<0 -3 0 -3>/4"
        -- |+ note "<0 -3 0 -3 2 7>/4"
        -- # legato 1.0
        # gain 2.0
    ]
    |+ note "[-0.05, 0.05]"
    -- |- note 5
    -- |-| note "<5 4 0>/16"    
    |*| gain 1.0

do
  d12
    $ s "none(5, 16)"
    # td_s (choose([73..79]))
  d1
    $ stack
    [
      s "uni(4, 8)"
      , s "ifdrums:1(4, 8, 5)"
    ]
    # legato 0.5
    # shape 0.5
    # gain 1.8
  
d3
  $ jux (rev)
  $ s "uni(9, 16)" # n (range 1 4 $ rand)
  -- # delay 1.0 #delaytime (range 0.003 0.05 $ rand) # delayfeedback 0.7  
  # gain 1.5

d4
  $ s "superbass(15, 16)"
  # note "g2"
  |+ note "[-12, 0, 7]"
  -- |+ note "<0 -3 0 -3 2 7>/4"
  -- |- note "<5 4 0>/16"
  |+ note (scale "hexMajor7" "{0..19}%7")
  # lpf (range 800 8000 $ rand) # resonance "0.3"
  # room 0.3 # size 0.5
  # gain 1.0

d5
  $ s "supermoog(15, 16)"
  # note "g1"
  -- |+ note "<0 -3 0 -3 2 7>/4"
  -- |- note "<5 4 0>/16"
  |+ note (scale "hexMajor7" "{0..24}%7")
  |+ note "[-0.05, 0.05]"
  # lpf (range 800 12000 $ slow 8 $ sine) # resonance "0.2"
  # gain 1.3

d2
  $ stack
  [
    s "uni(4, 8)" # legato 0.5
    , s "fb(5, 16)"
  ]  
  # gain 1.5

d3
  $ s "kon(9, 16)"
  # n "{0..20}%9"
  # gain 1.3


--- Hard Beat ----------------------

do
  d12
    $ s "none(11, 16)"
    # td_s (choose([1..100]))
  d1
    -- $ sometimesBy 0.1 (rev)
    -- $ sometimesBy 0.4 ((1/8) <~)
    $ stack
    [
      -- s "distd(2, 16)" # gain "1.1",
      s "uni(10, 16)" # n "{0 1 2}%8", 
      s "uni:1(9, 16, 5)"
    ]
    -- # room "0.8" # size "0.9"
    # shape "0.8"
    # gain "1.8"        

d2
  -- $ sometimesBy 0.2 (rev)
  -- $ sometimesBy 0.4 ((1/8) <~)
  $ stack
  [
    s "ifdrums(7, 16, 10)" # n (choose[1..2]),
    s "uni(7, 16)" # n (choose[1..3]) # gain "1.0",
    s "gabba(3, 16)" # gain "1.7"
  ]
  # delay "1.0" # delaytime (range 0.002 0.03 $ rand) # delayfeedback "0.8"
  |+| gain "1.8"
  # shape "0.8"
  -- # room "0.9"

d3
  $ sometimesBy 0.2 (rev)
  $ stack
  [
    s "ifdrums(7, 16, 5)" # n (choose[1..3]),
    s "uni(7, 16)" # n (choose[1..2]),
    s "uni(3, 8)" # gain "1.5"
  ]
  -- # delay "1.0" # delaytime (range 0.001 0.03 $ rand) # delayfeedback "0.7"
  # shape "0.8"  
  # gain "1.8"

d4
  -- $ jux (rev)
  $ s "superzow(16, 16)"
  # note (scale "yu" "{0..15}%1")
  |+| note "-24"
  |+| note "[0, -12]"
  # lpf (range 200 12000 $ slow 8 $ sine) # resonance "0.2"
  # gain 1.5

d5
  $ s "superzow(9, 16)"
  # note "c5'min13"
  # lpf (range 100 8000 $ slow 1 $ rand)
  # resonance "0.2"
  # legato "0.9"
  # gain 1.0

setcps(40/240)  

--- last drone

do
  hush
  setcps(85/240)
  once
    $ s "none"
    # td_s 1
  once
    $ s "matsu" 
    -- |+ note "[-0.1, 0.1]"
    # note "[0, -12]"
    # gain 1.1
    # room 0.5 # size 0.8  

d7
  $ s "superdown/8"
  # note "c5"
  # voice 1000
  -- # speed "[1.5, 1.0]"
  # legato 4.0
  # gain 1.7

do
  d12
    $ s "none"
    # td_s 1
  d1 silence 
    >> d2 silence 
    >> d3 silence
    >> d4 silence 
    >> d5 silence
    >> d6 silence
    >> d7 silence

do
  hush
  once
    $ s "none"
    # td_s 0


