-- 07
d5
  $jux (rev)
  $s "supersaw(14, 14)"
  #sustain "0.12"
  # n (scale "yu" "{0 .. 12}%23") |-| n "12"
  |*| n "[1.0, 1.008]"
  |+| n "[-12, 0, 12]"
  #voice (range 0.1 0.2 $slow 24 $sine)
  #cutoff (range 100 18000 $slow 14 $sine)
  #resonance "0.2"
  #gain "1.0"
  #semitone "{7 0 12 5 19 24}%13"

unsolo 5
