--05
d5
  $sometimesBy 0.2 ((3/14) <~)
  $stack
  [
    s "distd(3, 7)", 
    s "{bd cp bd hc}%7" #n (irand 12),
    s "uni(2, 7)" #n "{0 0 0 1 0 3 1 2}%11"
  ]
  |*|gain "1.3"

d6
  $stack
  [
    s "super808(5, 14, 3)" #n "{-12 -7 -5 0 5 7}%7",
    s "ifdrums(3, 14, 0)"  #n "{1 2 3}%4",
    slow 2 $s "ifdrums(2, 14)" #gain "1.5"
  ]
  #shape "0.5"
  #gain "1.0"

