-- ============================================================
-- 31EDO ライブラリ: 音程 (e31)・和音 (ch31)・スケール (scale31)
-- ============================================================
-- この let ブロックを1回評価すれば、以下がすべて使えるようになる。
--   e31     : 31EDOステップ数のパターン → note(音程の中核)
--   n31     : 音名のパターン → 単音("c" "ds" "ahf" "g6" など)
--   ch31    : 和音名のパターン → 和音("c:harm7" など)
--   arpSteady : 和音を一定グリッドのアルペジオに展開(ch31 と組み合わせる)
--   scale31 : スケール名と度数のパターン → ステップ数(e31 と組み合わせる)
--   scale31on : ルート音名付きの scale31(スケールを任意のルート上に移調)

let -- ── 音程の中核 ──────────────────────────────────────────
    -- Tidal の note は「半音」単位(12EDO)の数値で、SuperDirt が
    -- freq = 基準周波数 × 2^(note/12) に変換する。31EDO の1ステップは
    -- 1オクターブ(=12半音)の 1/31 なので、ステップ数に 12/31 を
    -- 掛けるだけでよい。
    --   1 ステップ  = 12/31 半音 ≈ 38.71 セント(ディエシス)
    --   31 ステップ = ちょうど 1 オクターブ
    -- 音程の生成はこの2行がすべてで、以下の定義(音名・和音・スケール)は
    -- ステップ数を計算するための語彙にすぎない。
    edo = 31
    e31 p = p |* note (12/edo)
    -- ── 和音 ────────────────────────────────────────────────
    -- 1. roots31 / accs31 … 音名 → ステップ数の辞書
    --    ルート:   c=0 d=5 e=10 f=13 g=18 a=23 b=28(全音=5、半音=3)
    --    変化記号: s/f = シャープ/フラット(±2)、hs/hf = 半シャープ/半フラット(±1)
    roots31 = [("c",0),("d",5),("e",10),("f",13),("g",18),("a",23),("b",28)]
    accs31 = [("",0),("s",2),("f",-2),("hs",1),("hf",-1)]
    -- 2. quals31 … 和音の種類(根音からの31EDOステップ数のリスト)
    --    協和 → 不協和 の順に並べてある。31EDOは協和の階調が12EDOより
    --    細かく、7-limit系(7/6, 7/5, 7/4)の和音が協和側に加わる一方、
    --    5度を1歩外しただけで鋭く濁るのが特徴。
    quals31 =
      -- ── 非常に協和(倍音列の整数比にほぼ一致)──
      [ ("maj",     [0,10,18])       -- 長三和音 ≈ 4:5:6(12EDOより純度が高い)
      , ("harm7",   [0,10,18,25])    -- ハーモニックセブンス 4:5:6:7(31EDOの看板。ほぼ唸らない)
      , ("min",     [0,8,18])        -- 短三和音 ≈ 10:12:15
      , ("submin",  [0,7,18])        -- サブマイナー ≈ 6:7:9(7/6の暗く滑らかな響き)
      , ("harmdim", [0,8,15])        -- 倍音減三和音 ≈ 5:6:7(12EDOの減三和音と違い協和的)
      , ("submin7", [0,7,18,25])     -- サブマイナー7
      -- ── 中程度の協和 ──
      , ("supmaj",  [0,11,18])       -- スーパーメジャー、3度 ≈ 9:7。硬く明るい緊張感
      , ("neut",    [0,9,18])        -- 中立3度 ≈ 11:9。長短どちらでもない浮遊感
      , ("aug",     [0,10,20])       -- 増三和音、20歩 ≈ 25:16。12EDOよりまろやか
      , ("maj7",    [0,10,18,28])    -- 長7、15/8 がやや純正に近く 12EDO より穏やか
      , ("harm9",   [0,10,18,25,36]) -- 4:5:6:7:9 の9th。高次倍音まで積んでも澄んでいる
      -- ── ふつうの機能和声用(ミーントーン)──
      , ("dim",     [0,8,16])        -- 減三和音
      , ("sus2",    [0,5,18])
      , ("sus4",    [0,13,18])
      , ("min7",    [0,8,18,26])
      , ("dom7",    [0,10,18,26])
      -- ── 不協和 ──
      , ("neut2",   [0,4,18])        -- 中立2度(4歩 ≈ 155¢ ≈ 11:10)を含む。強いうなり
      , ("wolf5f",  [0,10,17])       -- 狭5度。5度が1歩ずれると急激に濁る(ウルフ的)
      , ("wolf5s",  [0,10,19])       -- 広5度(同上)
      , ("clu3",    [0,3,6])         -- 全音階的半音(3歩)のクラスター
      , ("clu2",    [0,2,4])         -- クロマチック半音(2歩 ≈ 77¢)の密集
      -- ── 極端に不協和(31EDO特有)──
      , ("clu1",    [0,1,2])         -- ディエシス・クラスター(約39¢間隔)。
                                     -- ほぼ同音のうなりの塊で、12EDOには存在しない粗さ
      ]
    -- 3. chordTable31 … ルート×変化記号×種類 の全組み合わせから
    --    「名前 → 和音(ステップ数の stack)」の対応表を作る。
    --    ch31 は inhabit でパターン中の名前を表から引き、e31 で音程に変換する。
    chordTable31 =
      [ (r ++ a ++ sep ++ q, stack (map (pure . (+ (rv + av))) steps))
      | (r,rv) <- roots31, (a,av) <- accs31, sep <- [":", "'"], (q,steps) <- quals31 ]
    ch31 p = e31 (note (inhabit chordTable31 p))
    -- ── アルペジオ(和音を分散して鳴らす)────────────────────
    -- 和音イベントを n 等分の一定グリッドにし、構成音を下から順に循環させる。
    -- (標準の arp は構成音の数だけ音を置くため、3和音と4和音が混ざると
    --  リズムが不均等になる。arpSteady は和音の音数によらず一定になる)
    -- 例: arpSteady 8 (ch31 "<c:maj f:harm7>") — 各和音を8音の分散和音に
    arpSteady :: Int -> Pattern a -> Pattern a
    arpSteady n = arpWith (\es -> map (\i -> es !! (i `mod` length es)) [0 .. n-1])
    -- ── 単音(音名で呼び出す)────────────────────────────────
    -- roots31 × accs31 × オクターブ番号 の対応表。和音と同じ inhabit 方式。
    --   "c" "ds" "ehf" のような素の名前はオクターブ5(note 0 の高さ)、
    --   "c4" "ahf6" のように数字を付けるとオクターブ指定(c5 = 0 が基準)。
    -- 例: n31 "<c ds g>" |+ note "c2"(レジスタは note の加算でも動かせる)
    noteTable31 =
      [ (r ++ a ++ oname, pure (rv + av + fromIntegral (31 * (o - 5))))
      | (r,rv) <- roots31, (a,av) <- accs31
      , (oname,o) <- ("",5) : [(show n, n) | n <- [0..8 :: Int]] ]
    n31 p = e31 (note (inhabit noteTable31 p))
    -- ── スケール(音律)──────────────────────────────────────
    -- スケールは「オクターブ(31ステップ)内のステップ数のリスト」で定義。
    -- 31EDOのスケール資源は大きく5層:
    --  (1) ミーントーンの完全な体系(5・7・12・19音)— 伝統的西洋音階の上位互換
    --  (2) 31EDO固有のテンペラメントMOS群(Mohajira・Orwell・Miracle など)
    --      — 「12EDOに無い響き」への近道は mohajira と miracle10
    --  (3) 民族音階の正確な近似 — 中立音程によるマカーム、スレンドロ等
    --  (4) 倍音列スケール — 7・11・13倍音を含む
    --  (5) 対称スケールの近似 — 31は素数なので全音音階・ディミニッシュは
    --      正確には閉じないが、準対称形が使える
    -- 各スケールは回転(モード)ごとに別の旋法になる(教会旋法など)。
    scales31 :: [(String, [Note])]
    scales31 =
      -- (1) ミーントーン系
      [ ("penta5",      [0,5,10,18,23])                 -- Meantone[5] ペンタトニック(5 5 8 5 8)
      , ("major",       [0,5,10,13,18,23,28])           -- Meantone[7] 長音階。回転で教会旋法7種
      , ("minor",       [0,5,8,13,18,21,26])            -- 自然的短音階(major の回転)
      , ("harmminor",   [0,5,8,13,18,21,28])            -- 和声的短音階。増2度(7歩)が ≈7:6 で美しい
      , ("melminor",    [0,5,8,13,18,23,28])            -- 旋律的短音階(上行形)
      , ("chrom12",     [0,2,5,7,10,13,15,18,20,23,25,28]) -- Meantone[12] クロマチック。C#≠Db
      , ("enh19",       [0,2,4,5,7,9,10,12,14,15,17,18,20,22,23,25,27,28,30]) -- Meantone[19] エンハーモニック19音。19EDO的な世界
      -- (2) 31EDO固有のMOS
      , ("mohajira",    [0,5,9,14,18,23,27])            -- Mohajira[7]。中立3度(9歩)生成。マカーム的
      , ("orwell9",     [0,4,7,11,14,18,21,25,28])      -- Orwell[9]。7:6(7歩)生成。独特の対称感
      , ("miracle10",   [0,3,6,9,12,15,18,21,24,27])    -- Miracle[10]。セコール(3歩≈116¢)生成
      , ("blackjack",   [0,2,3,5,6,8,9,11,12,14,15,17,18,20,21,23,24,26,27,29,30]) -- Miracle[21]。7-limit和声の宝庫
      , ("myna4",       [0,8,16,24])                    -- Myna[4]。6:5(8歩)生成(8 8 8 7)
      , ("myna11",      [0,1,2,8,9,10,16,17,18,24,25])  -- Myna[11](1 1 6 …)
      , ("wurschmidt7", [0,9,10,19,20,29,30])           -- Würschmidt[7]。長3度(10歩)を積む(9 1 …)
      , ("squares8",    [0,2,4,11,13,15,22,24])         -- Squares[8]。9:7(11歩)生成(2 2 7 …)
      , ("valentine15", [0,2,4,6,8,10,12,14,16,18,20,22,24,26,28]) -- Valentine[15]。2歩(≈77¢)を積む微分音階
      -- (3) 民族音階の近似
      , ("rast",        [0,5,9,13,18,23,27])            -- ラースト。中立3度・中立7度を正確に表現
      , ("bayati",      [0,4,8,13,18,21,26])            -- バヤーティ。アラブ音楽の代表的マカーム
      , ("slendro",     [0,6,12,18,24])                 -- 擬スレンドロ。ほぼ5等分(6 6 6 6 7)
      , ("eq7",         [0,4,8,13,17,22,26])            -- 擬7平均律(ペロッグ的)。ほぼ7等分
      -- (4) 倍音列スケール
      , ("harmonics",   [0,5,10,14,18,22,25,28])        -- 倍音8〜16。第11・13倍音(14, 22)を含む
      , ("otonal",      [0,5,10,13,18,23,25,28])        -- 長音階+自然7度(25)。4:5:6:7 を含むオトナリティ音階
      -- (5) 対称スケールの近似(31は素数なので正確には閉じない)
      , ("wholetone",   [0,5,10,15,20,25])              -- 準全音音階(5 5 5 5 5 6)
      , ("dim8",        [0,5,8,13,16,21,24,29])         -- 準ディミニッシュ(5 3 5 3 5 3 5 2)
      ]
    -- scale31 は Tidal 標準の scale と同じ使い方。度数がスケールの音数を
    -- 超えると 31ステップ(=1オクターブ)上に折り返す(負の度数は下へ)。
    step31 sc x = sc !! (x `mod` length sc) + fromIntegral (31 * (x `div` length sc))
    scale31 :: Pattern String -> Pattern Int -> Pattern Note
    scale31 sp p = innerJoin (fmap (\name -> fmap (step31 (maybe [0] id (lookup name scales31))) p) sp)
    -- scale31on はルート音名を指定して、スケールをそのルート上に移調する。
    -- 例: scale31on "d" "orwell9" "0 1 2" — D をルートにした orwell9 の 0〜2度
    -- (度数 0 = ルート音。和音のルートに合わせたチャーチモード的な使い方)
    scale31on :: Pattern String -> Pattern String -> Pattern Int -> Pattern Note
    scale31on rp sp p = scale31 sp p |+ inhabit noteTable31 rp

hush

do
  setcps (70/240)
  resetCycles
  let base = e31 (note "<0 5 0 -5 0 3 0 -3>/11")
  let scl = "<penta5 major minor melminor harmminor>/12"
  d1
    $ jux (("[3, 5]"/7) <~)
    $ s "superhammond(3, 7)"
    # e31 (note (scale31 (scl) "{0..19}%[3, 7]"))
    |+ note "[c1, c2, c3]"
    |+ base
    # voice 5
    # gain 0.8
  d2
    $ jux (("[5, 7]"/14) <~)
    $ s "superhammond(7, 14, 1)"
    # e31 (note (scale31 (scl) "{0..24}%[2, 8]"))
    |+ note "[c3, c4]"
    |+ base
    # voice 5
    # gain 0.8
  d3
    $ jux ((1/3) <~)
    $ s "supersin"
    # e31 (note (scale31 (slow 14 scl) "<0 4 7 2 9 5 11 7>*2"))
    |+ note "[c6, c7]"
    |+ base
    # lpf (range 1000 6000 $ slow 32 $ sine) # resonance 0.15
    # legato 2
    # gain 0.5
  d4
    $ jux (("[9, 13]"/14) <~)  
    $ s "superhammond(11, 14)"
    # e31 (note (scale31 (scl) "{0..15}%3"))
    |+ note "[c6, c7]"
    |+ base
    # voice 7
    # legato 1
    # gain 0.8
  d5
    $ s "superhammond"
    # voice 8
    # legato 1.5
    |+ note 0
    |+ note "c2"
    |+ base
    # gain 1.2
