let -- ── pitch core ─────────────────────────────────────────
    edo = 31
    e31 p = p |* note (12/edo)
    st31 :: Pattern Note -> Pattern Note
    st31 p = p |* (12/edo)
    up31 :: Pattern Note -> ControlPattern -> ControlPattern
    up31 sp = (|+ note (st31 sp))
    -- ── note-name parser ────────────────────────────────────
    roots31, accs31 :: [(String, Note)]
    roots31 = [("c",0),("d",5),("e",10),("f",13),("g",18),("a",23),("b",28)]
    accs31  = [("",0),("s",2),("f",-2),("hs",1),("hf",-1),("ss",4),("ff",-4)]
    isDig31 c = c >= '0' && c <= '9'
    allDig31 :: String -> Bool
    allDig31 = and . map isDig31  -- avoid Prelude's `all`: BootTidal shadows it with streamAll
    int31 :: String -> Int
    int31 = foldl (\n c -> n * 10 + fromEnum c - 48) 0
    toks31 s = case break (== ':') s of
      (a, [])     -> [a]
      (a, _:rest) -> a : toks31 rest
    octv31 :: String -> Maybe Note
    octv31 ds
      | null ds     = Just 0
      | allDig31 ds = Just (fromIntegral (31 * (int31 ds - 5)))
      | otherwise   = Nothing
    pnote31 :: String -> Maybe Note
    pnote31 []       = Nothing
    pnote31 (r:rest) = do
      rv <- lookup [r] roots31
      let (acc, oct) = span (not . isDig31) rest
      av <- lookup acc accs31
      ov <- octv31 oct
      Just (rv + av + ov)
    nt31 :: Pattern String -> Pattern Note
    nt31 = squeezeJoin . fmap (maybe silence pure . pnote31)
    n31 :: Pattern String -> ControlPattern
    n31 = note . st31 . nt31
    -- ── chord qualities ─────────────────────────────────────
    quals31 :: [(String, [Note])]
    quals31 =
      -- ── very consonant (close to integer harmonic ratios) ──
      [ ("maj",     [0,10,18])           -- just major triad 4:5:6
      , ("harm7",   [0,10,18,25])        -- harmonic seventh 4:5:6:7
      , ("min",     [0,8,18])            -- just minor triad 10:12:15
      , ("submin",  [0,7,18])            -- subminor 6:7:9
      , ("harmdim", [0,8,15])            -- harmonic diminished 5:6:7
      , ("submin7", [0,7,18,25])         -- 12:14:18:21
      , ("5",       [0,18])              -- power chord 2:3
      -- ── moderately consonant ──
      , ("supmaj",  [0,11,18])           -- supermajor 14:18:21
      , ("neut",    [0,9,18])            -- neutral triad (11/9 third)
      , ("neut7",   [0,9,18,27])         -- neutral 3rd + neutral 7th (mohajira-ish)
      , ("aug",     [0,10,20])           -- stacked just major thirds
      , ("maj7",    [0,10,18,28])        -- 8:10:12:15
      , ("harm9",   [0,10,18,25,36])     -- 4:5:6:7:9
      , ("harm11",  [0,10,18,25,36,45])  -- 4:5:6:7:9:11 (the full otonality)
      -- ── everyday functional harmony (meantone) ──
      , ("dim",     [0,8,16])
      , ("dim7",    [0,8,16,24])         -- 8+8+8, near-equal diminished 7th
      , ("halfdim", [0,8,16,26])         -- m7♭5
      , ("sus2",    [0,5,18])
      , ("sus4",    [0,13,18])
      , ("maj6",    [0,10,18,23])
      , ("min6",    [0,8,18,23])
      , ("min7",    [0,8,18,26])
      , ("dom7",    [0,10,18,26])
      , ("dom9",    [0,10,18,26,36])
      , ("min9",    [0,8,18,26,36])
      -- ── dissonant ──
      , ("neut2",   [0,4,18])            -- neutral second
      , ("wolf5f",  [0,10,17])           -- wolf fifth (1 step narrow)
      , ("wolf5s",  [0,10,19])           -- wolf fifth (1 step wide)
      , ("clu3",    [0,3,6])             -- semitone (3-step) cluster
      , ("clu2",    [0,2,4])             -- 2-step cluster
      -- ── extremely dissonant (31EDO specialty) ──
      , ("clu1",    [0,1,2])             -- minimal 1-step (≈39¢) cluster
      ]
    -- ── voicing operations (modifier implementation) ────────
    ins31 x [] = [x]
    ins31 x (y:ys) = if x <= y then x : y : ys else y : ins31 x ys
    inv31 [] = []
    inv31 (x:xs) = xs ++ [x + 31]
    open31 (x:y:zs@(_:_)) = x : zs ++ [y + 31]
    open31 xs = xs
    drop31 k xs
      | i < 0 || i >= length xs = xs
      | otherwise = foldr ins31 [] (take i xs ++ (xs !! i - 31) : drop (i + 1) xs)
      where i = length xs - k
    ext31 k xs = map (\j -> xs !! (j `mod` len) + fromIntegral (31 * (j `div` len))) [0 .. k - 1]
      where len = length xs
    mod31 xs ('i':ds)
      | null ds     = Just (inv31 xs)
      | allDig31 ds = Just (iterate inv31 xs !! int31 ds)
    mod31 xs "o" = Just (open31 xs)
    mod31 xs ('d':ds)
      | null ds     = Just (drop31 2 xs)
      | allDig31 ds = Just (drop31 (int31 ds) xs)
    mod31 xs ds
      | not (null ds) && allDig31 ds = Just (ext31 (int31 ds) xs)
    mod31 _ _ = Nothing
    -- ── chord parser ────────────────────────────────────────
    pchord31 :: String -> Maybe [Note]
    pchord31 s = case toks31 s of
      [t]            -> (: []) <$> pnote31 t
      (t : q : mods) -> do
        rv <- pnote31 t
        steps <- lookup q quals31
        foldl (\acc m -> acc >>= (`mod31` m)) (Just (map (rv +) steps)) mods
      _              -> Nothing
    chd31 :: Pattern String -> Pattern Note
    chd31 = squeezeJoin . fmap (maybe silence (stack . map pure) . pchord31)
    ch31 :: Pattern String -> ControlPattern
    ch31 = note . st31 . chd31
    -- ── arpeggio (spread a chord over a steady grid) ────────
    arpSteady :: Int -> Pattern a -> Pattern a
    arpSteady n = arpWith (\es -> map (\i -> es !! (i `mod` length es)) [0 .. n-1])
    -- ── scales (tunings) ────────────────────────────────────
    scales31 :: [(String, [Note])]
    scales31 =
      -- ── meantone family ──
      [ ("penta5",      [0,5,10,18,23])
      , ("major",       [0,5,10,13,18,23,28])
      , ("minor",       [0,5,8,13,18,21,26])
      , ("harmminor",   [0,5,8,13,18,21,28])
      , ("melminor",    [0,5,8,13,18,23,28])
      , ("dorian",      [0,5,8,13,18,23,26])
      , ("phrygian",    [0,3,8,13,18,21,26])
      , ("lydian",      [0,5,10,15,18,23,28])
      , ("mixolydian",  [0,5,10,13,18,23,26])
      , ("chrom12",     [0,2,5,7,10,13,15,18,20,23,25,28])
      , ("enh19",       [0,2,4,5,7,9,10,12,14,15,17,18,20,22,23,25,27,28,30])
      -- ── MOS scales native to 31EDO ──
      , ("mohajira",    [0,5,9,14,18,23,27])
      , ("orwell9",     [0,4,7,11,14,18,21,25,28])
      , ("miracle10",   [0,3,6,9,12,15,18,21,24,27])
      , ("blackjack",   [0,2,3,5,6,8,9,11,12,14,15,17,18,20,21,23,24,26,27,29,30])
      , ("myna4",       [0,8,16,24])
      , ("myna11",      [0,1,2,8,9,10,16,17,18,24,25])
      , ("wurschmidt7", [0,9,10,19,20,29,30])
      , ("squares8",    [0,2,4,11,13,15,22,24])
      , ("valentine15", [0,2,4,6,8,10,12,14,16,18,20,22,24,26,28])
      -- ── approximations of world scales ──
      , ("rast",        [0,5,9,13,18,23,27])
      , ("bayati",      [0,4,8,13,18,21,26])
      , ("hijaz",       [0,3,10,13,18,21,26])  -- maqam with an augmented 2nd (7 steps)
      , ("slendro",     [0,6,12,18,24])
      , ("eq7",         [0,4,8,13,17,22,26])
      -- ── harmonic-series scales ──
      , ("harmonics",   [0,5,10,14,18,22,25,28])
      , ("otonal",      [0,5,10,13,18,23,25,28])
      -- ── approximations of symmetric scales ──
      , ("wholetone",   [0,5,10,15,20,25])
      , ("dim8",        [0,5,8,13,16,21,24,29])
      ]
    step31 sc x = sc !! (x `mod` length sc) + fromIntegral (31 * (x `div` length sc))
    scale31 :: Pattern String -> Pattern Int -> Pattern Note
    scale31 sp p = innerJoin (fmap (\name -> fmap (step31 (maybe [0] id (lookup name scales31))) p) sp)
    scale31on :: Pattern String -> Pattern String -> Pattern Int -> Pattern Note
    scale31on rp sp p = scale31 sp p |+ nt31 rp
    sc31 :: Pattern String -> Pattern Int -> ControlPattern
    sc31 sp dp = note (st31 (scale31 sp dp))
    sc31on :: Pattern String -> Pattern String -> Pattern Int -> ControlPattern
    sc31on rp sp dp = note (st31 (scale31on rp sp dp))
    -- ── name listings (evaluate these to see what's available) ──
    chordList31 = unwords (map fst quals31)
    scaleList31 = unwords (map fst scales31)

hush

do
  -- resetCycles
  let shift = "<0 8 10 18 23>/5" * (12/31)
  let num = 2
  let le = 1.5
  hush
  d1
    $ jux (("[9, 5]"/14)<~)
    $ s "supervibe(5, 7)"
    # n num
    # e31 (note (scale31 (slow 2 "<harmminor>") "{0..12}%[11, 19]"))
    |+ note "<c6 c4 c3>*5"
    |+ note shift
    # room 0.9
    # legato le  
  d2
    $ jux (("[7, 3]"/14)<~)
    $ arpSteady 14
    $ ch31 "<c:submin7>"
    # s "supervibe"
    # n num
    # legato le
    # room 0.9
    |+ note "<c4 c3>*8"     
  d3
    $ jux ((3/7)~>)  
    $ s "supervibe(2, 7)"
    # n num
    # ch31 "<c:submin7>"
    |+ note "[c4, c3, c6]"
    |+ note shift
    # room 0.9
    # legato le  
  d4
    $ sometimesBy 0.2 (fast 2)
    $ stack
    [
      s "uni(3, 7)"
      , s "uni:1(3, 7, 1)"
      , s "ifdrums(5, 7, 2)" # n (irand 3)  # gain 0.9
    ]
    |* gain 1.2  
  d5
    $ s "supervibe"
    # n31 "c"
    |+ note "<c2 c3>"
    |+ note shift
    # legato 4
    # room 0.9

  
hush
