hush

d1 $sound "supersaw*8" #n (irand 12)

d1
$every 2 (jux (iter 4))
$sometimes (rev)
$sound "supersaw(5, 8, {0, 3, 5, 2, 1})"
#n "{[0, 4, 7, 9] [0, 5, 9, 11] [0, 4, 12]}%8"
|+| n "<0 12 -7 5>/16"
#cutoff "{400 2000 8000 200 100}%8"
#resonance "{0.1 0.5 0.3}%8"
#sustain "0.02 0.15"

d2
$jux (iter 8)
$sound "ifdrums(5, 8, {0, 3, 9})"
#delay "0.8" #delaytime "{0.01 0.1 0.02}%8" #delayfeedback "0.8"
#n (irand 12)
#shape "0.8"



