cps(0.65)

d1
$ jux (iter 3)
$ jux (iter 6)
$ jux (iter 4)
$ brak
$ stack [
  -- sound (samples "tabla:1" (irand 5)),
  -- sound (samples "tabla2*2" (irand 5)) |=| pan (rand),
  -- sound (samples "tabla2*3" (irand 10)) #pan (rand),
  sound (samples "tabla2*24" (irand 10)) #pan (rand)
]

hush









