--02
d4
  $sometimesBy 0.6 (jux ((2/7) ~>))
  $sound "uni(6, 14)"
  #n "1 2"
  #gain "1.0"

  #delay "0.5" #delaytime "{0.005 0.02 0.01 0.025}%9"
  #delayfeedback "0.7"

d2
  -- $sometimesBy 0.2 (jux ((3/7)~>))
  $stack
  [
    -- s "uni(5, 14)" #gain "1.3" #shape "0.5",
    sometimes (jux ((5/14) ~>))
    $jux (rev)
    $s "uni(5, 14, [0, 6, 9, 12])"
    #n "{1 2 3}%6"
    #gain "1.0"
    #up "{0 -7 7 12}%7"
  ]
  |*| gain "1.0"
  -- #hpf 1000
  -- |*| gain "<1 1 1 1 1 1 1 0>"

