-- 00

cps(130/120)

d1
  $slow 2
  $s "numbers"
  #n "<1 2 3 4 5 6 7 8>"

d2
  $slow 2
  $s "spiano:2/2"

  -- #n "<2 1 0>/2"
  -- # speed "{0.5, 1.0, 1.5, 2.0}"
  -- |*| speed "{1.0 -1.0 0.5 -0.5}%9"

