-- 03

d2
  -- $every 4 (jux (0.125 <~))
  $stack
  [
    -- s "uni(5, 8)" #n "{0 1 2}%8",
    -- s "distd(3, 8)" |*|gain "1.3",
    s "[~ uni:1]*2"
  ]
  #delay "0.7" #delaytime "{0.01 0.03 0.02}%8" #delayfeedback "0.8"
  #shape "0.5"
  
d4
  $iter 4
  $stack
  [
    s "super808(5, 8, {0, 3})" #n (irand 7)
  ]
  #pan (rand)
