-- 00

cps(130/120)

d1
  $slow 2
  $s "numbers"
  #n "<1 2 3 4 5 6 7 8>"

d2
  $slow 2
  $s "spiano:2/2"
  #n "<2 1 0>/2"
  #speed "{1.0, -1.0, -1.5, 0.5}"
  |*|speed (choose [1.0, -1.0, 0.5, -0.5])

  -- # speed "{0.5, 1.0, -1.5, -1.0}"
  -- #n "<2 1 0>/2"
  -- |*| speed (choose [1.0, -1.0, 0.5, -0.5])

-- 01

do
  let
    click1 = "{1 0 0 1 1 0 0 0}%8"
  d3
    $jux (0.125 ~>)
    $s "click:2*8"
    #gain click1
    #lpf (scale 800 9000 $slow 16 $sine1)
    #resonance "0.4"

    -- $every 2 (jux (0.125 ~>))    

do
  let
    click2 = "{1 0 0 0 1 1 0 1}%8"
  d4
    $jux (0.125 ~>)  
    $s "cr:8*8"
    #gain click2
    #n (irand 20)
    #speed (choose [1.0, 0.5, 1.5, 2.0])
    |*|gain "0.75"
    
-- 02

do 
  let
    pat1 = "{1 1 0 0}%9"
    pat2 = "{1 0 0 1}%9"
    pat3 = "{1 0 1 0}%9"
  d1
    $sometimesBy 0.3 (0.125 <~)
    $stack
    [
      s "tabla2*4" #gain pat3 #n (irand 32) |*|gain "1.2", 
      s "kon*8" #gain pat2 #n "1 3", 
      s "kon*4" #gain pat1 #n "0 2"
    ]

-- 03

d2
  $every 4 (jux (0.125 <~))
  $stack
  [
    s "uni(5, 8)" #n "{0 1 2}%8",
    s "distd*2" |*|gain "1.3",
    s "[~ uni:1]*2"
  ]
  #delay "0.7" #delaytime "{0.01 0.03 0.02}%8" #delayfeedback "0.8"
  #shape "0.5"
  
d4
  $iter 4
  $stack
  [
    s "super808(5, 8, {0, 3})" #n (irand 7)
  ]
  #pan (rand)

-- 04

do 
  let chord1 = "{c5, g5, f5, c6}" 
  d5
    $slow 2
    $stack
    [
      sound "supersaw(3,16,{0,8})" # n chord1 |+|n "12", 
      sound "supersaw(3,16,{2,5})" # n chord1 |+|n "7",
      sound "supersaw(3,16,{0,3})" # n chord1 |+|n "0"
    ]
    #sustain "0.08"
    #gain "0.9"
    #lpf (scale 800 8000 $slow 16 $sine1)
    #resonance "0.2"

-- 05

d4
  $every 2 (#gain "0")
  $sound "ifdrums*2 ~"
  #n "[0 2] 0"
  #gain "1.5"
  
d4
  $sometimesBy 0.3 (0.125 ~>)
  $stack
  [
    -- s "glitch(2, 8, 1)" #n (irand 16),
    -- s "dr55(2, 8, 3)" #n (irand 16),
    -- s "bass(2, 8, 2)",
    s "ifdrums(3, 8, 0)" #n "{1 2 1 2 3}%9", 
    s "bd:0*2" |*|gain "1.5"
  ]
  #gain "1.5"
  




