-- 11

cps(130/120)

do
  d1 silence
  d2 silence
  d3 silence
  d4 silence

do
  let
    pat1 = "{0 ~ ~ 0 ~ ~ 0 ~ 0 0 ~ 0 ~ ~}%8"
  d2
    $sometimesBy 0.1 (rev)
    $sometimesBy 0.4 (0.25 <~)
    $stack
    [
      s "uni(5, 8)" #n "{0 1 2}%8", 
      s "distd(2, 8)" |*|gain "1.8" #voice "4" #sustain "0.2",
      s "[~ uni:1]*2"
    ]
    #shape "0.85"
    |*|gain "1.5"
  d6
    $every 3 (jux (0.125 ~>))
    $stack
    [
      up pat1
      |=| s "bfm"
      |+|n (choose [12, 0, -12, -24, -36])
      |+|n "{0, 5, 7, 9}"
    ]
    #sustain (choose [0.05, 0.12, 0.15])
    #pitch1 (choose [0.33, 3.33, 19.33])
    #voice (choose [30, 1000, 4000, 12000])
    #delay "0.8"
    #delaytime (choose [0.01, 0.03, 0.02, 0.008])
    #delayfeedback "0.8"
    |*|gain "1.4"
    #room "0.4"
    #size "0.2"

do
  d7 silence
  d5 silence

do
  let
    pat2 = "{0 ~ 0 ~ ~ 0 ~ 0 ~ ~}%8"
  d1
    $every 4 (jux (0.125 ~>))
    $up pat2
    |=| s "superzow"
    |+|n (choose [19, 12, 0])
    |+|n "{0, 7, 11}"
    #sustain (choose [0.08, 0.12, 0.3])
    #shape "0.8"
    #lpf (scale 1000 20000 $rand)
    #resonance "0.4"
    #detune "10"
    #accelerate (choose [0, 0, 1, 4]) #slide "1"
    #gain "1.5"

do
  let
    pat3 = "{0 ~ 0 ~ ~ 0 0 ~ 0}%8"
  d3
    $sometimesBy 0.4 (jux (0.125 ~>))
    $up pat3
    |=| s "supersiren"
    #sustain "0.15"
    #n "{0,5,7,9,11}"
    |+|n (choose [0, 5, 7, 9, 11])
    |+|n (choose [-12, -24, 0, 12, 24])
    #pan (rand)
    #gain "1.9"

d4
  $s "{superzow*8, uni:1*8}"
  #n "{0,5,7,9,11}"
  |+|n "{-12,0,12,24,48}"
  #sustain "0.08"
  #gain (scale 0.0 2.5 $slow 24 $saw1)
  -- #vowel "{a i u e o}%12"
  #room "0.2"
  #size "0.2"

do
  d1 silence
  d3 silence
  d4 silence


-- 12

solo $
d7
  $slow 2
  $s "spiano"
  #n "<0 1 2>"
  |*| speed "{0.5, 1.0, 1.5, 2.0}"
  |*| speed "{1.0 -1.0 0.5 -0.5}%9"
  |*| gain "1.3"
  #room "0.5"
  #size "0.2"

hush


hush

-- 01

do
  let
    click1 = "{1 0 0 0 1 1 0 0}%8"
  d3
    $every 2 (jux (0.125 ~>))    
    $s "click:2*8"
    #gain click1
    #lpf (scale 800 9000 $slow 16 $sine1)
    #resonance "0.2"

    -- $every 2 (jux (0.125 ~>))    

do
  let
    click2 = "{1 0 1 0 1 1 0 0}%8"
  d4
    $every 2 (jux (0.125 <~))    
    $s "cr:8*8"
    #gain click2
    |*|gain "0.75"
    #n (irand 100)
    
    -- $sometimesBy 0.3 (jux (0.125 ~>))
    -- $sometimesBy 0.4 (0.125 <~)
    -- $sometimesBy 0.3 (stut 16 0.125 4)
    -- #n (irand 100)
    -- #up "{0 5 -5 7 -7}%8"

-- 02

do 
  let
    pat1 = "{1 1 0 0}%9"
    pat2 = "{1 0 0 1}%9"
    pat3 = "{1 0 1 0}%9"
  d1
    $sometimesBy 0.3 (0.125 <~)
    $stack
    [
      s "tabla2*4" #gain pat3 #n (irand 32) |*|gain "1.2",
      -- s "kon*8" #gain pat2 #n "1", 
      s "kon*4" #gain pat1 #n "0 1"
    ]


hush
