-- 00

hush

cps(125/120)

d8 $sound "sync"

let pat1 = "{0*2 ~ [12 ~] ~ 0*4 [~ 0] 0}%4"
    pat2 = "{[~ 0] 0 ~ 0 [~ 0] ~ 0}%4"
    pat3 = "{0 0*4 [~ 0] [~ 0] 0*2 0 ~ 0*4 ~ 0 -12 0 ~ [~ 0] [~ 0] ~ 0*2 -12}%4"
    pat4 = "{0 0*2 [~ 0] [~ 0] 0 0 -12 0*4 ~ 0 ~ 0 ~ [~ 0] [~ 0] ~ 0*2 -12}%4"
    pat5 = "{[~ 0] 0  0*2 ~ [~ 0] [~ 0] ~ 0 -12 0*4 ~ [~ 0] [~ 0] ~ 0*2 -12}%4"
    pat6 = "{~ 0 ~ 0 -12 0*4 0 0*2 0*4 ~ 0 -12 0*2 ~ [~ 0] [~ 0] ~ 0*2 -12}%4"

-- 01
d1
$jux (iter 8)
$s "ikeda1(3, 8, {0,5})"
#gain "1.0"
#cutoff (scale 800 8000 $rand) #resonance "0.3"
#delay "0.8" #delaytime "0.01 0.02 0.03 0.005" #delayfeedback "0.8"

-- $jux (iter 8)
-- #cutoff (scale 800 8000 $rand) #resonance "0.3"
-- #delay "0.8" #delaytime "0.01 0.02 0.03 0.005" #delayfeedback "0.8"

d2
$s "ikeda2(5,8,6)"
#gain "1.0"
 
d3
$s "ikeda3(3,8,2)"
#gain "1.0"

-- 02
d4
$slow 2
$sometimesBy 0.6 (jux (iter 4))
$stack[
  sound "supersaw(3,16,{2,4})" # n "{c5, e5, f5, g5, a5}" |+|n "-5",
  sound "supersaw(3,16,{3,5})" # n "{c5, e5, f5, g5, a5}" |+|n "7",
  sound "supersaw(3,16,{0,8})" # n "{c5, e5, f5, g5, a5}" |+|n "0"
]
-- |+|n "<-7 7 0 5 -5>/4"
#cutoff (scale 800 8000 $slow 12 $sine1) #resonance "0.2"
#sustain "0.1"
#gain "0.7"

-- sound "supersaw(3,16,{2,4})" # n "{c5, e5, f5, g5, a5}" |+|n "12",
-- sound "supersaw(3,16,{3,5})" # n "{c5, e5, f5, g5, a5}" |+|n "7",
-- $sometimesBy 0.6 (jux (iter 4))
-- |+|n "<-7 7 0 5 -5>/4"
-- #cutoff (scale 800 20000 $slow 4 $sine1) #resonance "0.3"

-- 03
d5
$every 2 (#gain "0")
$sound "ifdrums*2 ~"
#n "[0 2] 0"
#gain "1.5"

d6
-- $sometimesBy 0.4 jux (iter 4)
$stack [
  -- s "ifdrums(2, 8, 5)" #n (irand 3),
  s "bass(2, 8, 2)",
  s "dr55(2, 8, 3)" #n (irand 16),
  s "glitch(2, 8, 1)" #n (irand 16),
  s "bd:0*2" #shape "0.2"
]
#gain "1.5"

-- 04
d6
$jux (iter 8)
$sound "[bd [~ ifdrums] [~ bd] cp]"
#cutoff (scale 1500 18000 $slow 4 $rand)
#resonance "0.2"
# n (irand 64) # pan (rand)
# gain "1.3"

d7
$sometimesBy 0.6 (jux (iter 4))
$stack[
  s "supersquare(5,8,{2,4})" #n "[c e f g]*2" |+|n "0",
  s "supersquare(5,8,{0,6})" #n "[c e f g]*2" |+|n "-5",
  s "supersquare(5,8,{3,5})" #n "[c e f g]*2" |+|n "-12"
]
#cutoff (scale 800 8000 $slow 12 $rand) #resonance "0.3"
|+|n "<0 -7 -5 -12>/8"
#voice (scale 0.2 1 $rand)
#slide "0.8 2.0"
#sustain "0.08 0.1 0.02 0.1"
#gain "0.9"

-- #voice (scale 0.2 1 $rand)
-- #cutoff (scale 200 8000 $slow 12 $rand) #resonance "0.2"
-- |+|n "<0 -7 -5 -12>/8"
-- #slide "0.2"
-- #resonance (scale 0.1 0.4 $slow 8 $sine1)
-- #vowel "a e i u e o a o"

d6
$sometimes (rev)
-- $jux (iter 2)
$jux (iter 4)
$sound "{ifdrums(3, 8, 3), bd(3, 8, 2), glitch(3, 8)}"
#pan (rand)
#gain "1.3"
#n (irand 64)
#pan (rand)

d6
$jux (iter 8)
$sound "{ifdrums(3, 8, 3), bd(3, 8, 2), glitch(7, 8, 2)}"
#gain "1.3"
#n (irand 64)
-- #vowel "a e i u e o a o"
#cutoff (scale 500 18000 $slow 4 $rand) #resonance "0.2"
#pan (rand)

-- 05
d4
-- $jux (rev)
$jux (iter 4)
$slow 4
$stack[
  sound "808ch(11,32,{7,10})" #delay "1.0" #delaytime "0.02 0.01 0.006 0.03" #delayfeedback "0.9" #n (irand 12),
  sound "bd(5,32,{0,5})" #n "2" |+|gain "1.5" |+|n "-12 0 -7"
]
#shape "0.8"
|*|gain "1.2"

d7
$slow 4
$jux (iter 2)
$jux (iter 8)
$stack[
  sound "jvbass(5,32,{10,12})" #n (irand 32) |+|up "12",
  sound "jvbass(5,32,{0,4})" #n (irand 32) |+|up "7",
  sound "jvbass(5,32,{1,14})" #n (irand 32)
]
#speed "<1 1.5 2 0.5 1 0.25>/4"
#shape "0.2"
#cutoff (scale 20 2000 $rand) #resonance "0.6"
#gain "1.2"

-- 06
d6
$ slow 2
-- $ every 2 (#coarse "24 16 32") 
$ stack[
  up pat3 |=| sound "ifdrums" #n (irand 64),
  up pat2 |=| sound "bass:2 bass:1 bass bass:3",       
  sound "atom:1" #speed "1.0 0.5",
  up pat1 |=| sound "atom",
  up pat5 |=| sound "atom:2"
]
-- #cutoff (scale 400 16000 $slow 8 $sine1) #resonance "0.3"
#gain "1.5"

d6
$ jux (iter 2)
$ jux (iter 4)
$ slow 2
$ stack[
 up pat2 |=| sound "bass:3 bass:1 bass:0 bass:2",
 sound (samples "fell*16?" (irand 6)) |+| speed "2.0 1.0 1.5",
 up pat5 |=| sound (samples "fell?" (irand 2)) |+| speed "2.0 1.0 1.5",
 up pat4 |=| sound "fell1" |+| speed "2.0 1.0 1.5 0.5",
 up pat2 |=| sound "909",
 up pat1 |=| sound "fell1"
]
-- #vowel "a i u e o"
#cutoff (scale 800 18000 $slow 3 $sine1) #resonance "0.4"
#shape "0.6"
#gain "1.5"

d6
$ slow 2
$ jux (iter 4)
$ every 8 (chop 16)
$ every 4 (|+| coarse "24 16 32")
$ stack[
  up pat2 |=| sound "909",
  sound "panda:0*16?" |+| speed "1.0 3.0 2.0 1.5",
  up pat4 |=| sound "panda:1 panda:2 panda" |+| speed "2.0 0.5",
  up pat5 |=| sound "atom:2",
  up pat3 |=| sound "panda:1 panda:2 panda" |+| speed "0.5 1.5 2.0"   
]
#pan (rand)
#shape "0.5"
#gain "1.4"
#delay "0.75" #delaytime "0.02 0.03" |+|delayfeedback "0.25"

-- 07
d5
$stack [
  sound "cp(3, 8, {1, 3, 5, 7})" |+|up "{7 14 21 0 12 24}%8" #pan (rand),
  sound "dr55(3,8,10)" #n (irand 8),
  sound "bd(5, 8)",
  sound "gabba:4*2"
]
#shape "0.8"
#gain "1.4"

d6
$ sound "hc(2,8,{0,1,2,3,4})" |+| speed "1.0 2.0 1.5 0.5"
#n (irand 12)
#gain "1.2"

d6
$every 3 (|=| coarse "{8 24 16}%8")
$slowcat [
  sound "gabbaloud",
  sound (samples "flick*8?" (irand 6)) |+| speed "2.0 1.0 1.5 3.0",
  sound "bd:4*2",
  sound "[bd bd ~ bd ~ ~ ~ bd]" |+| speed "0.75 1.0 0.5"
]
#cutoff (scale 400 20000 $slow 8 $sine1) #resonance "0.4"
#gain "1.3"
#shape "0.7"

-- 08
solo $
d1
$slow 2
$jux (iter 2)
$every 3 (|=| coarse "{8 24 16}%8")
$every 2 (stut' 1 0.125 (|*| speed "1.5"))
$stack[
  s "superpwm(5,16,3)" #n "-12" #voice (scale 12 36 $rand),
  s "superpwm(11,16,1)" #n "12" #voice (scale 12 48 $rand),
  s "superpwm(9,16)" #n "0" #voice (scale 8 12 $rand)
]
|+|n "<-12 -7 0 12>"
#up "{0 0 12 7 5 36 7 12 24}%11"
#pitch1 (scale 1.0 2.0 $slow 2.5 $sine1)
#sustain "0.1"
#resonance (scale 0.1 0.4 $slow 5.5 $sine1)
#cutoff (scale 800 10000 $slow 3 $rand) #resonance "0.2"
#delay "0.6" #delaytime "0.05 0.01 0.02 0.005" #delayfeedback "0.5"
#gain "1.5"
#shape "0.2"

d8 $s "sync"

-- 09
d2
$slow 2
$sound "ifdrums:0 ifdrums:2 ~ ~ ~ ~ ~ ~"
#gain "1.5"
#n "0 2 0 0 0 0 0 0 0"
#pan (rand)

d2
$stack[
  sound "bass*2" #n (irand 64),
  sound "gabba" #gain "1.7",
  sound "glitch(3,8,3)" #n (irand 64),
  sound "gabba(3,8,0)" #n (irand 64),
  sound "ifdrums(5,8)" #n (irand 64)
]
-- #delay "0.5" #delaytime "0.005 0.1 0.03 0.01 0.02" #delayfeedback "0.75"
-- #cutoff "800" #resonance "0.2"
-- #cutoff (scale 400 8000 $slow 16 $sine1) #resonance "0.2"
#gain "1.5"
#shape "0.5"

d3
$ stack [
  sound "gabba(3, 8, 5)" #n "5",
  sound "ifdrums(3, 8, 0)" #n "0"
]
#gain "1.5"
#shape "0.8"

d2
-- $ whenmod 8 6 (jux (iter 8))
-- $ whenmod 4 2 (jux (iter 4))
$slow 2
$ sound "{bd(3, 8, 0), ifdrums(3, 8, 5), glitch(3, 8, 5), bass(3, 8, 2), cp(3, 8, 3), dr55(3,8,4)}"
#gain "1.5"
# n (irand 64)
# pan (rand)

d2
$ every 8 (|+| accelerate "[1 -1]*3")
$ whenmod 4 3 (jux (iter 4))
$ stack [
  up pat3 |=| sound "bd ~ bd*2 sn" |+| gain "1.0",
  up pat4 |=| sound "[bass:2]" |+| gain "1.0",
  up pat6 |=| sound (samples "rave2?" (irand 8)) |+| gain "1.0"
]
#gain "1.5"

d2
$whenmod 8 4 (jux (iter 8))
$whenmod 4 3 (jux (iter 2))
$sometimes (rev)
$sound "{ifdrums(3, 8, 0), bd(3, 8, 0), glitch(3, 8, 4)}"
#gain "1.5"
#n (irand 64)
#pan (rand)

-- 10
-- solo $
d1
$jux (iter 2)
$slow 2
$stack[
  s "supersaw(7,16,13)" #n "{0, 7, 10, 17, 19}" |+|n "12" #pan (rand),
  s "supersaw(7,16,7)" #n "{0, 7, 10, 17, 19}" |+|n "7" #pan (rand),
  s "supersaw(3,16,3)" #n "{0, 7, 10, 17, 19}" |+|n "-7" #pan (rand),
  s "supersaw(7,16,5)" #n "{0, 7, 10, 17, 19}" |+|n "-5" #pan (rand),
  s "supersaw(7,16,11)" #n "{0, 7, 10, 17, 19}" #pan (rand)
] 
|+|n "<0 7 -7 -5 5 -12>"
#cutoff (scale 2000 18000 $slow 16 $sine1) #resonance "0.4"
#sustain "0.12 0.08 0.1"
#gain "1.0"

d5
$slow 2
-- $jux (iter 8)
$jux (iter 2)
$s "supersaw(7, 16, {3, 4})" # n "{c7, e7, f7, g7, a7, d8}"
|+|n "<0 7 -7 -5 5 -12>"
#sustain "0.1"
#cutoff (scale 2000 15000 $slow 5 $sine1) #resonance "0.3"
#gain "1.0"
#shape "0.5"

d4
$slow 4
$jux (iter 2)
$jux (iter 4)
$stack[
  sound "808ch(11,32,{7,10})" #delay "1.0" #delaytime "0.02 0.01 0.006 0.03" #delayfeedback "0.9" #n (irand 12),
  sound "bd(5,32,{0 2 4})" #n "0" #gain "1.2"
]
#room "0.8" #size "0.9"
#shape "0.8"
|*|gain "1.0"

d3
$jux (iter 8)
$s "ikeda1(3, 8, {0, 5})"
#gain "1.0"
#cutoff (scale 800 8000 $rand) #resonance "0.3"
#delay "1.0" #delaytime "0.01 0.02 0.03 0.005" #delayfeedback "0.8"

d2
$jux (iter 4)
$sometimes (rev)
$s "ikeda2(3,8,{5, 7})"
#gain "1.0"
 
d5
$s "ikeda3(3,8,9)"
#gain "1.0"

hush







