d1 $ whenmod 10 7 (|+| n "-12") $ whenmod 6 3 (|+| n "-12") $
every 3 (rev) $ density 2 $ every 2 (|+| n "12") $ (|+| n "-8") $
  n "0 4 7 11 12 16 19 23" # s "mike"
  # sustain (scale 0.07 0.2 $ slow 9 tri1)
  # cutoff (scale 200 10000 $ slow 7 tri1)
  # resonance (scale 0.001 0.1 $ slow 6.33 tri1)

    # dur "0.6"


  hush

  keys $ (|+| note "[0 -2]/8") $ whenmod 10 7 (|+| note "-12") $ whenmod 6 3 (|+| note "-12") $
  every 3 (rev) $ density 2 $ every 2 (|+| note "12") $ (|+| note "-8") $
    note "0 4 7 11 12 16 19 23" |=| dur "0.1"


c1 $ sound "ch:1*2" |=| nudge "0.07" |=| shape "0.3"
