d4
  $sometimesBy 0.6 (jux ((3/8) ~>))
  $sound "uni(3, 8)"
  #n "1 2"
  #gain "1.0"


  #delay "0.25" #delaytime "{0.005 0.02 0.01}%4" #delayfeedback "0.9"

d2
  -- $sometimesBy 0.2 (jux ((3/8)~>))
  $slow 2
  $stack
  [
    s "uni(5, 16)" #gain "1.3" #shape "0.5",
    sometimes (jux ((5/8) ~>))
    $jux (rev)
    $s "uni(5, 16, [0, 6, 9, 12])"
    #n "{1 2 3}%6"
    #gain "1.2"
    -- #up "{0 -7 7 12}%7"
  ]
  |*| gain "1.0"
  -- #hpf 1000
  -- |*| gain "<1 1 1 1 1 1 1 0>"


