--00 init

hush

d1
  $ s "uni:1"
  # gain "0.6"
  # cps(132/120)

-- 01 first noise

d1
  $jux ((5/8) ~>)
  $slow 4
  $s "sfh(3, 8)"
  #gain "0.7"
  #n (irand 200)
  #pan (range 0.4 0.6 $rand)
  #up "[7, 0, 12]"
  #speed "[1.01, 1.0]"
  #lpf "18000"

d2
  $slow 8
  $sound "empty"
  #speed "[1.0, 1.01]"
  #gain "0.9"
  #lpf "200"

d3
  $slow 2
  $jux ((3/8) ~>)
  $sound "autech2(3, 8, [0, 5])"
  #speed "[1.005, 1.0]"
  #gain "0.8"
  #n "{0 1 2 3}%7"
  #lpf (range 400 18000 $slow 4 $sine) #resonance "0.1"
  |*|speed "[-1.0, 1.5]"
  


  #n "{0}%7"
  #lpf (range 400 18000 $slow 4 $sine) #resonance "0.1"
  |*|speed "[-1.0, 1.5]"

--02 first beat

d4
  $sometimesBy 0.6 (jux ((3/8) ~>))
  $sound "uni(3, 8)"
  #n "1 2"
  #gain "1.0"
  #delay "0.25" #delaytime "{0.005 0.02 0.01}%4" #delayfeedback "0.8"


d2
  -- $sometimesBy 0.2 (jux ((3/8)~>))
  $slow 2
  $stack
  [
    s "uni(4, 16)" #gain "1.3" #shape "0.5",
    sometimes (jux ((5/8) ~>))
    $jux (rev)
    $s "uni(5, 16, [0, 6, 9, 12])"
    #n "{1 2 3}%6"
    #gain "1.2"
    #up "{0 -7 7 12}%7"
  ]
  |*| gain "1.0"
  -- #hpf 1000
  -- |*| gain "<1 1 1 1 1 1 1 0>"

--03 fist riff

d1
  $ sound "tet(5, 8, {0, 2})"
  #gain "1.0"
  #lpf (range 1200 15000 $slow 16 $sine)  #resonance "0.3"
  #up "{[0, 7] [7, 14]}%5"
  #n "{0 1 2 3}%7"


  #up "{[0,7] [7,14]}%5"
  #n "{0 1 2 3}%9"

d3
  $jux ((3/8) <~)  
  $sound "jimsyn(5, 8)"
  #n "<20 1>"
  |*| up "-0.2"
  |*| gain "1.0"
  #lpf (range 2000 8000 $slow 12 $sine)
  #resonance "0.2"

do 
  let chord1 = "{c5, g5, f5}" 
  d4
    $slow 2
    $stack
    [
      sound "supersaw(3,16,{0,8})" # note chord1 |+|note "12", 
      sound "supersaw(3,16,{2,5})" # note chord1 |+|note "7",
      sound "supersaw(3,16,{0,3})" # note chord1 |+|note "0"
    ]
    #sustain "0.08"
    #gain "0.9"
    #lpf (range 800 8000 $slow 16 $sine)
    #resonance "0.2"

--05 change beat

d4
  -- $every 8 (jux (rev))
  -- $sometimesBy 0.2 ((5/8) <~)
  $stack
  [
    s "distd*2", 
    s "bd cp bd hc" #n (irand 12),
    s "uni(3, 8, {0, 3})"
    #n "0 0 0 1 0 3 1 2"
  ]
  #gain "<1 1 1 1 1 1 0 0>"
  |*|gain "1.2"

d1
  $stack
  [
    s "super808(5, 8, 3)" #n "{-12 -7 -5 0 5 7}%3",
    s "ifdrums(3, 8, 0)"  #n "{1 2 3}%4",
    slow 2 $s "ifdrums(2, 8)" #gain "1.5"
  ]
  #shape "0.5"
  #gain "1.0"

