-- 00

cps(130/120)

d1
  $slow 2
  $s "numbers"
  #n "<1 2 3 4 5 6 7 8>"

d2
  $slow 2
  $s "spiano:2/2"
  #n "<2 1 0>/2"
  # speed "{0.5, 1.0, -1.5, -1.0}"

  -- # speed "{0.5, 1.0, -1.5, -1.0}"
  -- #n "<2 1 0>/2"
  -- |*| speed (choose [1.0, -1.0, 0.5, -0.5])

hush  

-- 03

d2
  -- $every 4 (jux (0.125 <~))
  $stack
  [
    s "uni(5, 8)" #n "{0 1 2}%8",
    s "distd(3, 8)" |*|gain "1.3",
    s "[~ uni:1]*2"
  ]
  #delay "0.7" #delaytime "{0.01 0.03 0.02}%8" #delayfeedback "0.8"
  #shape "0.5"
  
d4
  $iter 4
  $stack
  [
    s "super808(5, 8, {0, 3})" #n (irand 7)
  ]
  #pan (rand)
  


