--00
cps(140/120)

hush

do
  d1
    -- Whirlpool
    $ slow "4"
    $ note "0"
    |+| note "{0, 7}"
    -- |+| note "{-12, 0, 9, 24}"
    -- |+| note (choose [-5, 0, 5, 7, 9])
    |+| note "0"
    #gain 1.0
    #legato "2"
    #s "midi"
  d2
    $note "0*7"
    # midicmd "control"
    # ctlNum "[0, 25, 26]"
    # control (scale 0 0 $slow 8 $sine1)
    #s "midi"

d4
  $slow 4
  $sound "autech1 uni:1"
  #n "0 1"
  #up "-3 5"
  #delay "0.8" #delaytime "0.03" #delayfeedback "0.8"
  #gain "0.0"


