hush

cps(140/120)

-- solo $
d8
  $slow 8
  -- $jux ((4/7) ~>)
  $note "0(5, 7, {0, 3})"
  |+|note "{0 7 12 -7 9 -5}%8"
  -- |+|note "{0, -9}"
  |+|note "2"
  #legato "2"
  #gain (scale 1.2 1.4 $slow 8 $sine1)
  #s "midi"

-- solo $
d8
  $sometimesBy 0.1 ((4/7) ~>)
  $note "0(5, 7, [0, 3])"
  |+|note "{0 7 12 -7 0 5 12 -5}%7"
  |+| note "[-12, -5, 9]"
  |+| note "0"
  #gain (scale 1.2 1.25 $slow 16 $sine1)
  #legato "1"
  #s "midi"

hush  

-- 01

d1
$slow 2
$stack[
  s "tabla2(8, 14, {0, 3})" #gain "1.1" #n (irand 100),
  s "kon(8, 14, {0, 3, 6})" #n (irand 100) #gain "1.0",
  s "uni(2, 7)" #gain "1.3" #shape "0.3",
  s "~ uni ~ uni ~ uni ~" #n 1 #gain "1.3"
]

d3
  -- $jux ((3/7) ~>)
  $ sound "tet(4, 7, {0, 2})"
  # up "[0, 7]"
  #n "{0 1 2 3}%9"
  -- |*| up "<0 -5 5>/4"
  #lpf (scale 1200 15000 $slow 16 $sine1)
  #resonance "0.1"
  #gain "1.0"

-- 02
d2
$stack[
  s "super808(4, 7, 3)" #n "{-12 -7 -5 0 5 7}%3",
  s "ifdrums(4, 7, 0)"  #n "{1 2 3}%4",
  slow 2 $s "ifdrums(2, 7)" #gain "1.5"
]
#delay "0.7" #delaytime "{0.04 0.08 0.015 0.02}%14" #delayfeedback "0.5"
#shape "0.5"

-- 03

d4
$slow 2
$stack[
  s "supersaw(6, 14, 10)" #n "[0, 4, 7, 9, 11]" |+| n "12",  
  s "supersaw(6, 14, 5)" #n "[0, 4, 7, 9, 11]" |+| n "7",
  s "supersaw(6, 14, 0)" #n "[0, 4, 7, 9, 11]" |+| n "0"
]
#cutoff (scale 800 10000 $slow 8 $sine1) #resonance "0.3"
#sustain "0.1"
#gain "0.9"
-- |*| up "<0 5 7>/4"
-- |+|n "<-7 0 7 0 5 0 -5 0>/2"

-- 04

d5
$sometimesBy 0.5 (jux ((5/7) <~))
$slow 2
$stack[
  sound "808ch(7,14,{7,10})" #n (irand 12),
  sound "bd(5,14,{0 2 4})" #n "0" |*|gain "1.5"
]
#shape "0.8"
#gain "1.2"

d5
$slow 4
$jux (iter 7)
$stack[
  s "fell:1(12, 28, {3, 6})",
  s "fell:0(12, 28, {0, 4})" #speed "{1.0, 1.5}"
]
-- #cutoff "8000" #resonance "0.3"
#shape "0.8"
#gain "1.3"
#speed "{1.0 1.5 2.0}%28"
#cutoff (scale 800 2000 $rand)
#resonance "0.2"

d5
$slow 2
-- $jux (iter 7)
$stack[
  s "ifdrums(8, 14)" #n (irand 64),
  s "808ch(12,14,{0,8})" #n (irand 12),
  s "glitch(5,14,5)" #n (irand 64),
  s "gabba"
]
#shape "0.5"
#gain "1.5"

-- 05
d5
$slow 2
$stack[
  -- s "bd(3, 7, 0)",
  s "ifdrums(3, 7, 5)",
  -- s "glitch(3, 7, 5)",
  -- s "bass(3, 7, 2)",
  s "cp(3, 7, 3)",
  s "dr55(3, 7, 4)",
  s "gabba*2"
]
-- #cutoff (scale 800 4000 $slow 12 $sine1) #resonance "0.4"
#gain "1.5"
# n (irand 64)
# pan (rand)

d5
$slow 2
$sometimesBy 0.4 (jux (rev))
$stack [
  s "ifdrums(3, 14, {0, 3})" #n (irand 3),
  s "bass(2, 14, 2)",
  s "dr55(2, 14, 3)" #n (irand 16),
  s "glitch2(2, 14, 1)" #n (irand 16),
  s "bd*2"
]
#gain "1.7"
#shape "0.7"

-- 06

-- solo $
d6
  $stack [
    s "superzow*7" #n "{0 5 7 12}%18" |+| n "7",
    s "superzow*7" #n "{0 5 7 12}%13" |+| n "5",
    s "superzow*7" #n "{0 5 7 12}%7"
  ]
  |+|n "{-24, -12, <-5 -7>}"
  #pan (rand)
  #sustain "{0.12}%7"
  #gain "0.9"
  #cutoff (scale 1000 12000 $slow 32 $sine1) #resonance "0.2"
  #pitch1 (scale 1.0 4.0 $slow 64 $sine1)
  #semitone "{12 19 17 24 -7}%8"
  #orbit "1"

d1
  $s "super808*7" #n "-24"
  #delay "0.9" #delaytime "{0.04 0.08 0.015 0.02}%14" #delayfeedback "0.7"
  #cutoff (scale 4000 8000 $slow 24 $sine1) #resonance "0.3"
  #sustain "0.2"
  #shape "0.5"
  #gain "1.6"

d2
  $stack [
    s "808ch(5, 7, {3, 5})" #n (irand 12)  #gain "1.3",
    s "uni(3, 7)" #n (irand 2) #gain "1.7"
  ]
  #shape "0.9"

-- 07

d3
  $slow 2
  $sometimesBy 0.8 (jux (rev))
  $s "kon(8, 14, {0, 4, 8})"
  #cutoff "8000" #resonance "0.5"
  #n "{0 1 3}%4"
  #gain "1.4"

d4
$jux (rev)
$slow 2
$stack [
  s "supersaw(9, 14, 8)" #n "[0, 5, 7, 12]" |+| n "7",
  s "supersaw(9, 14, 4)" #n "[0, 5, 7, 12]" |+| n "5",
  s "supersaw(9, 14)" #n "[0, 5, 7, 12]" |+| n "0"
]
|+| n "12"
#cutoff (scale 4000 8000 $slow 8 $sine1) #resonance "0.4"
#sustain "0.04"
#gain "1.5"

d1
  $slow 1
  $note "-12*7"
  |+|note "{0 7 5 0}%9"
  -- |+|note "{0 5 7 12 11 13}%12"
  |+|note "{-12 7 -5 12}%8"
  #legato "{1 2 1 1 3}%9"
  -- |*| legato (scale 0.5 1.0 $slow 18 $sine1)
  -- #gain (scale 0.8 1.2 $slow 32 $sine1)
  #legato 1.2
  #gain 1.5
  #s "midi"

d2
  $ note "0*7"
  # midichan 0 # midicmd "control" # ctlNum 0 # control (scale 10 20 $slow 24 $sine1)
  #s "midi"

-- solo $
d3
  -- $sometimesBy 0.2 (jux ((5/7) ~>))
  $ sound "bye1(3, 7, {0, 3})"
  #n "{1 2 3}%9"
  #shape "0.3"
  #gain "1.3"

-- solo $
d1
  $sometimesBy 0.6 (jux (iter 8))
  -- $jux (iter 8)
  $ sound "bye2(2, 7})"
  #n "0 ~"
  #up "0"
  -- #shape "0.7"
  #gain "1.4"  

-- solo $  


d4
  -- $slow 2
  -- $sometimesBy 0.4 ((5/7) <~)
  $sound "uni(1, 7)"
  #n "{0 1 1}%3"
  #shape "0.5"
  #gain "1.5"

d5
  $sometimesBy 0.2 ((3/7) ~>)
  $sound "ifdrums(3, 7, 3)"
  #n "2 1 0"
  #gain "1.5"

-- solo $
d4
  $slow 8
  $sound "bmoog"
  # legato "2"
  # decay "0.5"
  |*| n "{-12, -19}"
  |+| n "0"
  |+| n "{0, <5 7 9>}"
  # lpf (scale 2000 8000 $slow 12 $sine1)
  # resonance "0.1"  
  # speed "0.2"
  # pitch1 "0.7"
  # gain "1.2"
  
d4
  $sound "jimsyn(4, 7)"
  #n "<20 1>"
  |*| up "-0.2"
  |*| up "[0, 7]"
  -- |*| up "<0 5 7>/4"
  |*| gain "1.2"
  #lpf (scale 2000 8000 $slow 12 $sine1)
  #resonance "0.1"  

d5
  -- $jux (iter 8)
  -- $sometimesBy 0.1 (0.125 ~>)
  $sound "autech3(5, 7, {0, 3})"
  #gain "1.5"
  #pan "{0.5 0.2 0.5 0.8}%3"
  #n "{0 3 0 0 2 3}%5"

 d3
  $sometimesBy 0.4 ((1/7) ~>)
  $sound "autech1(2, 7)"
  -- #n (irand 20)
  #n "0 1 0 2 3"
  #speed (scale 1.0 1.01 $rand)
  #pan (rand)
  #gain "1.5"
  -- #room "0.4" #size "0.4"
  -- #shape "0.9"
  -- #room "0.5" #size "0.4"
  -- #orbit "1"

d4
  $sometimesBy 0.3 ((2/7) ~>)
  $sound "autech2(3, 7)"
  #n (irand 10)
  -- #speed (scale 1.0 1.01 $rand)
  -- #up "{0, 7}"
  #up 3
  #pan (rand)
  #gain "1.3"

d1
  $slow 8
  $sound "bmoog(3, 8, {0, 3})"
  #legato "3"
  #n "-17 -5"
  |+| n "{-12, -5}"
  #pitch1 0.4
  #speed 0.5
  -- #lpf 1000
  #gain "1.0"


  #n "{0 4 5 9}%9"
  |+| n "{-7, 0}"
  |+| n "-19 -12 -17"
  #gain "1.0"
  -- #room "0.8" #size "0.8"
  #pitch1 0.85
  #speed 0.4
  #lpf 1000
  -- #orbit "1"

d4
  $sometimesBy 0.6 ((1/7) <~)
  $sound "aphex(3, 7)"
  #gain "1.7"
  #pan (scale 0.3 0.7 $rand)
  #n "{0 1 0 2 3 0}%5"  



  -- #room "0.4" #size "0.9"  

hush

solo $
d1
  $ jux (iter 4)
  $ slow "[4, 8, 16, 32, 64]"
  $ striate' "64" (1/200)
  $ sound "minyo"
  #n "0"
  -- |*| up "{-5, 0}"
  |/| speed "[1, 1.3333]"
  #room "0.6" #size "0.6"
  -- #orbit "1"
  #gain "1.4"

hush







hush

cps(120/120)

d1
  -- $slow 8
  $note "0*8"
  |+|note "{0 7 5 4 9 11}%10"
  -- |+|note "{-24, -12, -5, 0, 4, 7, 12}"
  -- |+|note (irand 12)
  |+|note "-12 5"
  |+|note "{12, 0}"
  #legato "0.9"
  #gain (scale 1.0 1.5 $slow 16 $sine1)
  -- #gain 1.0
  #s "midi"

d2
  $ note "0*32"
  # midichan 0 # midicmd "control" # ctlNum 3 # control (scale 0 100 $slow 12 $sine1)
  #s "midi"

d3
  $ note "0*32"
  # midichan 0 # midicmd "control" # ctlNum 2 # control (scale 0 100 $slow 18 $sine1)
  #s "midi"

d3
  $ note "0*32"
  # midichan 0 # midicmd "control" # ctlNum 1 # control (scale 0 100 $slow 16 $sine1)
  #s "midi"    

d3 silence

  $stack[
    sound "[uni uni:1]*2",
    sound "[~ hc]*2"
  ]
  #gain "1.0"
















-- solo $
d3
  -- $sometimesBy 0.2 (jux ((5/7) ~>))
  $ sound "bye1(3, 7, {0, 3})"
  #n "{1 2 3}%9"
  #shape "0.3"
  #gain "1.3"

-- solo $
d1
  $sometimesBy 0.6 (jux (iter 8))
  -- $jux (iter 8)
  $ sound "bye2(2, 7})"
  #n "0 ~"
  #up "0"
  -- #shape "0.7"
  #gain "1.4"  

-- solo $  
d3
  $jux (iter 7)
  $ sound "tet(4, 7, {0, 2, 4})"
  # up "[0, 7]"
  #n "{0 1 2 3}%9"
  -- |*| up "<0 5 7>/4"
  #lpf (scale 1200 15000 $slow 16 $sine1)
  #resonance "0.3"

d4
  -- $slow 2
  -- $sometimesBy 0.4 ((5/7) <~)
  $sound "uni(1, 7)"
  #n "{0 1 1}%3"
  #shape "0.5"
  #gain "1.5"

d5
  $sometimesBy 0.2 ((3/7) ~>)
  $sound "ifdrums(3, 7, 3)"
  #n "2 1 0"
  #gain "1.5"

-- 10

do
  let chord2 = "{c5, g5, a5, f6, g6}"
  d7
    $slow 2
    $jux (0.25 ~>)
    $stack
    [
      s "supersaw(7,14,0)" #n chord2 |+|n "0" #pan (rand)
    ] 
    #cutoff (scale 2000 18000 $slow 16 $sine1)
    #resonance "0.2"
    #sustain "0.08"
    #gain "1.0"
    -- |+|n "<0 7 -7 -5 5 -12>"

do
  let chord3 = "{c5, g5, a5, f6, g6}"
  d6
    $slow 2
    $jux (0.125 <~)
    $s "supersaw(7, 16, {3, 4})"
    # n chord3
    |+|n "19"
    #sustain "0.05"
    #lpf (scale 2000 15000 $slow 5 $sine1)
    #resonance "0.1"
    #gain "1.1"
    -- #room "0.3" #size "0.8"

-- 11

do
  d1 silence
  d2 silence
  d3 silence
  d4 silence

do
  let
    pat1 = "{0 ~ ~ 0 ~ ~ 0 ~ 0 0 ~ 0 ~ ~}%7"
  d2
    $sometimesBy 0.1 (rev)
    $sometimesBy 0.4 ((4/7) <~)
    $stack
    [
      s "uni(5, 7)" #n "{0 1 2}%8", 
      s "distd(2, 7)" |*|gain "1.8" #voice "4" #sustain "0.2",
      s "[~ uni:1](2, 7)"
    ]
    #shape "0.85"
    |*|gain "1.5"
  d6
    $every 3 (jux ((1/7) ~>))
    $stack
    [
      up pat1
      |=| s "bfm"
      |+|n (choose [12, 0, -12, -24, -36])
      |+|n "{0, 5, 7, 9}"
    ]
    #sustain (choose [0.05, 0.12, 0.15])
    #pitch1 (choose [0.33, 3.33, 19.33])
    #voice (choose [30, 1000, 4000, 12000])
    #delay "0.8"
    #delaytime (choose [0.01, 0.03, 0.02, 0.008])
    #delayfeedback "0.8"
    |*|gain "1.8"
    #room "0.4"
    #size "0.2"

do
  d7 silence
  d5 silence

do
  let
    pat2 = "{0 ~ 0 ~ ~ 0 ~ 0 ~ ~}%7"
  d1
    $every 4 (jux ((1/7) ~>))
    $up pat2
    |=| s "superzow"
    |+|n (choose [19, 12, 0])
    |+|n "{0, 7, 11}"
    #sustain (choose [0.08, 0.12, 0.3])
    #shape "0.8"
    #lpf (scale 1000 20000 $rand)
    #resonance "0.4"
    #detune "10"
    #accelerate (choose [0, 0, 1, 4]) #slide "1"
    #gain "1.5"

do
  let
    pat3 = "{0 ~ 0 ~ ~ 0 0 ~ 0}%7"
  d3
    $sometimesBy 0.4 (jux ((4/7) ~>))
    $up pat3
    |=| s "supersiren"
    #sustain "0.15"
    #n "{0,5,7,9,11}"
    |+|n (choose [0, 5, 7, 9, 11])
    |+|n (choose [-12, -24, 0, 12, 24])
    #pan (rand)
    #gain "1.9"

d4
  $s "{superzow*7, uni:1*7}"
  #n "{0,5,7,9,11}"
  |+|n "{-12,0,12,24,48}"
  #sustain "0.1"
  #gain (scale 0.0 2.5 $slow 24 $saw1)
  -- #vowel "{a i u e o}%12"
  #room "0.2"
  #size "0.2"
  #orbit "1"

do
  d1 silence
  d3 silence
  d4 silence


hush

  

-- solo $
d4
  $slow 8
  $sound "bmoog"
  # legato "2"
  # decay "0.5"
  |*| n "{-12, -19}"
  |+| n "0"
  |+| n "{0, <5 7 9>}"
  # lpf (scale 2000 8000 $slow 12 $sine1)
  # resonance "0.1"  
  # speed "0.2"
  # pitch1 "0.7"
  # gain "1.2"
  
d4
  $sound "jimsyn(4, 7)"
  #n "<20 1>"
  |*| up "-0.2"
  |*| up "[0, 7]"
  -- |*| up "<0 5 7>/4"
  |*| gain "1.4"
  #lpf (scale 2000 8000 $slow 12 $sine1)
  #resonance "0.1"  

d5
  -- $jux (iter 8)
  -- $sometimesBy 0.1 (0.125 ~>)
  $sound "autech3(5, 7, {0, 3})"
  #gain "1.2"
  #pan "{0.5 0.2 0.5 0.8}%3"
  #n "{0 3 0 0 2 3}%3"

 d3
  $sometimesBy 0.4 ((1/7) ~>)
  $sound "autech1(2, 7)"
  #n (irand 20)
  #speed (scale 1.0 1.01 $rand)
  #pan (rand)
  #gain "1.4"
  #room "0.4" #size "0.4"
  -- #shape "0.9"
  -- #room "0.5" #size "0.4"
  #orbit "1"

d4
  $sometimesBy 0.3 ((2/7) ~>)
  $sound "autech2(3, 7)"
  #n (irand 10)
  #speed (scale 1.0 1.01 $rand)
  #up "{0, 12}"
  #pan (rand)
  #gain "1.2"
  #orbit "0"

d4
  $slow 8
  $sound "bmoog(3, 8, {0, 3})"
  #legato "3"
  #n "-17 -5"
  |+| n "{-12, -5}"
  #pitch1 0.4
  #speed 0.2
  #lpf 1000


  #n "{0 4 5 9}%9"
  |+| n "{-7, 0}"
  |+| n "-19 -12 -17"
  #gain "1.0"
  -- #room "0.8" #size "0.8"
  #pitch1 0.85
  #speed 0.4
  #lpf 1000
  -- #orbit "1"

d4
  $sometimesBy 0.6 ((1/7) <~)
  $sound "aphex(3, 7)"
  #gain "1.5"
  #pan (scale 0.3 0.7 $rand)
  #n "{0 1 0 2 3 0}%3"  


  -- #room "0.4" #size "0.9"  

hush

-- solo $
d1
  $ jux (iter 4)
  $ slow "[4, 8, 16, 32, 64]"
  $ striate' "64" (1/200)
  $ sound "minyo"
  #n "0"
  -- |*| up "{-5, 0}"
  |/| speed "[1, 1.3333]"
  #room "0.6" #size "0.6"
  -- #orbit "1"
  #gain "1.4"

hush
