-- 01
do
  d1 silence
  d2 silence
  d4 silence

d3
  -- $jux ((3/7) ~>)
  $ sound "tet(4, 7, {0, 2})"
  -- #n "{0 1 2 3}%9"
  -- # up "[0, 7]"
  -- #lpf (scale 1200 15000 $slow 16 $sine1)
  -- #resonance "0.1"
  #gain "1.0"

d1
  $slow 2
  $stack
  [
    --s "tabla2(8, 14, {0, 3})" #gain "1.0" #n (irand 30),
    --s "kon(3, 7, {0})" #gain "0.9",
    s "uni" #gain "1.2" #shape "0.4",
    s "uni uni ~ uni ~ uni ~" #n 1 #gain "1.0"
  ]


