-- 07

d4
  $slow 2
  $sometimesBy 0.8 (jux (rev))
  $s "kon(8, 14, {0, 4, 8})"
  #cutoff "8000" #resonance "0.5"
  #n "{0}%4"
  #gain "1.4"

d5
  -- Full Bass
  $ note "-12*7"
  |+|note "{c d f g}%7"
  |+|note "{0 -5 7}%7"
  #gain (scale 1.1 1.5 $slow 12 $sine1)
  |*| gain 0.0
  #legato "2"
  #s "midi"

d7
  $note "0*7"
  # midicmd "control"
  # ctlNum "1"
  # control (scale 0 50 $slow 8 $sine1)
  #s "midi"
