-- 07

d3
$slow 2
$sometimesBy 0.8 (jux (rev))
$s "kon(8, 14, {0, 4, 8})"
#cutoff "8000" #resonance "0.5"
#n "{0}%4"
#gain "1.6"

d5
  -- Full Bass
  $ slow 2
  -- $sometimesBy 0.1 ((4/7) ~>)
  $note "0(9, 14, {0})"
  #note "{0 -12 0 -12 -2}%7"
  #gain (scale 1.3 1.5 $slow 16 $sine1)
  #legato "1"
  #s "midi"

