-- 07

d4
  $slow 2
  $sometimesBy 0.8 (jux (rev))
  $s "kon(8, 14, {0, 4, 8})"
  #cutoff "8000" #resonance "0.5"
  #n "{0}%4"
  #gain "1.3"

d5
  -- Masha
  $ note "-12*7"
  |+|note "{c d f g}%7"
  -- |+|note "{0 -5 7 -12}%5"
  |*| gain 0.0
  #legato "0.6"
  #s "midi"

d7
  $note "0*7"
  # midicmd "control"
  # ctlNum "[0, 1, 23, 24]"
  # control (scale 10 60 $slow 8 $sine1)
  #s "midi"
