--00

hush

cps(140/120)

-- 01

d1
$sometimesBy 0.4 (jux (rev))
$slow 2
$stack[
  s "tabla2(8, 14, {0, 3})" #gain "1.0" #n (irand 30),
  s "kon(6, 14, {0, 4, 8})" #n (irand 100) #gain "1.2",
  s "bd" #gain "1.2" #shape "0.4",
  s "cp cp ~ cp ~ cp ~" #gain "1.0"
]

-- 02

d2
$sometimesBy 0.4 (jux (rev))
$stack[
  s "super808(4, 7, 3)" #n "{-12 -7 -5 0 5 7}%3",
  s "ifdrums(4, 7, 0)"  #n "{1 2 3}%4",
  slow 2 $s "ifdrums(2, 7)" #gain "1.4"
]
#delay "0.7" #delaytime "{0.04 0.08 0.015 0.02}%14" #delayfeedback "0.7"
#shape "0.5"

-- 03

d3
$slow 2
$stack[
  s "supersaw(6, 14, 6)" #n "[0, 4, 7, 9, 11]" |+| n "7",
  s "supersaw(6, 14, 0)" #n "[0, 4, 7, 9, 11]" |+| n "0"
]
#cutoff (scale 800 10000 $slow 8 $sine1) #resonance "0.3"
-- #sustain "{0.12 0.05}%7"
#sustain "0.12"
#gain "1.0"
-- |+|n "<-7 0 7 0 5 0 -5 0>/2"

-- 04

d4
-- $sometimes (jux (rev))
$slow 2
$stack[
  sound "808ch(7,14,{7,10})" #n (irand 12),
  sound "bd(5,14,{0 2 4})" #n "0" |*|gain "1.5"
]
#shape "0.8"
#gain "1.0"

d3
$slow 4
$sometimesBy 0.7 (jux (iter 14))
$stack[
  s "bass*2" #n "{0 1 2 3}%7",
  s "fell:1(20, 28, 3)",
  s "fell:0(10, 28)"
]
#cutoff "{3000 8000 1200}%14" #resonance "0.3"
#speed "{1.0 2.0 1.5 3.0}%28"
#shape "0.8"
#gain "1.5"

d5
$sometimes (jux (rev))
$slow 2
$stack[
  s "808ch(7,14,{7,10})" #n (irand 12),
  s "glitch(5,14,5)" #n (irand 64),
  s "ifdrums(8, 14)" #n (irand 64),
  s "gabba*2"
]
#shape "0.5"
#gain "1.5"

-- 05

d5
$slow 2
$stack[
  s "bd(3, 7, 0)",
  s "ifdrums(3, 7, 5)",
  s "glitch(3, 7, 5)",
  s "bass(3, 7, 2)",
  s "cp(3, 7, 3)",
  s "dr55(3, 7, 4)",
  s "gabba*2"
]
-- #cutoff (scale 800 4000 $slow 12 $sine1) #resonance "0.4"
#gain "1.5"
#shape "0.5"
# n (irand 64)
# pan (rand)

d5
$slow 2
$sometimesBy 0.4 (jux (rev))
$stack [
  s "ifdrums(3, 14, {0, 3})" #n (irand 3),
  s "bass(2, 14, 2)",
  s "dr55(2, 14, 3)" #n (irand 16),
  s "glitch2(2, 14, 1)" #n (irand 16),
  s "bd*2"
]
#gain "1.7"
#shape "0.7"


-- 06

-- solo $
d6
$stack [
  s "supersaw*7" #n "{0 5 7 12}%9" |+| n "7",
  s "supersaw*7" #n "{0 5 7 12}%7"
]
|+|n "{-24, -12}"
#pan (rand)
#sustain "{0.15}%7"
#gain "1.5"
#cutoff (scale 1000 12000 $slow 32 $sine1) #resonance "0.4"
#pitch1 (scale 1.0 4.0 $slow 64 $sine1)
#semitone "{12 19 17 24 -7}%14"

d1
$s "super808*7" #n "-24"
#delay "0.9" #delaytime "{0.04 0.08 0.015 0.02}%14" #delayfeedback "0.7"
#cutoff (scale 4000 8000 $slow 24 $sine1) #resonance "0.3"
#sustain "0.2"
#shape "0.5"
#gain "1.5"

d2
$stack [
  s "808ch(5, 7, {3, 5})" #n (irand 12)  #gain "1.3",
  s "gabba(3, 7)" #n (irand 10) #gain "1.7"
]
#shape "0.9"

-- 07
d3
$slow 2
$sometimesBy 0.8 (jux (rev))
$s "kon(8, 14, {0, 4, 8})"
#cutoff "8000" #resonance "0.5"
#n "{0 1 3}%4"
#gain "1.6"

d4
$jux (rev)
$slow 2
$stack [
  s "supersaw(9, 14, 8)" #n "[0, 5, 7, 12]" |+| n "7",
  s "supersaw(9, 14, 4)" #n "[0, 5, 7, 12]" |+| n "5",
  s "supersaw(9, 14)" #n "[0, 5, 7, 12]" |+| n "0"
]
|+| n "12"
#cutoff (scale 4000 8000 $slow 8 $sine1) #resonance "0.4"
#sustain "0.04"
#gain "1.5"






