--00

cps(140/120)

d3
  $jux ((3/7) ~>)
  $ sound "tet(4, 7, {0, 2})"
  # up "[0, 7]"
  #n "{0 1 2 3}%9"
  #lpf (scale 1200 15000 $slow 16 $sine1)
  #resonance "0.1"
  #gain "1.0"
  
  -- |*| up "<0 -5 5>/4"
  -- #lpf (scale 1200 15000 $slow 16 $sine1)
  -- #resonance "0.1"
  
