hush

cps(140/120)

--solo $
d8 silence
  $slow 8
  $jux ((4/7) ~>)
  $note "0(5, 7, {0})"
  |+|note "{0 7 12 -7 5 -5}%8"
  |+|note "{0, -7}"
  |+|note "-5"
  #legato "12"
  #gain "1.1"
  #s "midi"

-- 01

d1
$slow 2
$stack[
  s "tabla2(8, 14, {0, 3})" #gain "1.0" #n (irand 30),
  s "kon(1, 7)" #n "2" #gain "1.3",
  s "kon(5, 14, {0, 3, 6})" #n (irand 100) #gain "1.0",
  s "uni" #gain "1.3" #shape "0.5",
  s "~ uni ~ uni ~ uni ~" #n 1 #gain "1.2"
]

d3
  -- $jux (iter 7)
  $jux ((3/7) ~>)
  $ sound "tet(4, 7, {0, 2, 4})"
  # up "[0, 7]"
  #n "{0 1 2 3}%9"
  -- |*| up "<0 -5 5>/4"
  #lpf (scale 1200 15000 $slow 16 $sine1)
  #resonance "0.3"

-- 02
d2
$stack[
  s "super808(4, 7, 3)" #n "{-12 -7 -5 0 5 7}%3",
  s "ifdrums(4, 7, 0)"  #n "{1 2 3}%4",
  slow 2 $s "ifdrums(2, 7)" #gain "1.5"
]
#delay "0.7" #delaytime "{0.04 0.08 0.015 0.02}%14" #delayfeedback "0.5"
#shape "0.5"

-- 03

d4
$slow 2
$stack[
  s "supersaw(6, 14, 10)" #n "[0, 4, 7, 9, 11]" |+| n "12",  
  s "supersaw(6, 14, 5)" #n "[0, 4, 7, 9, 11]" |+| n "7",
  s "supersaw(6, 14, 0)" #n "[0, 4, 7, 9, 11]" |+| n "0"
]
#cutoff (scale 800 10000 $slow 8 $sine1) #resonance "0.3"
#sustain "0.1"
#gain "0.9"
-- |*| up "<0 5 7>/4"
-- |+|n "<-7 0 7 0 5 0 -5 0>/2"

-- 04

d5
$sometimesBy 0.5 (jux ((5/7) <~))
$slow 2
$stack[
  sound "808ch(7,14,{7,10})" #n (irand 12),
  sound "bd(5,14,{0 2 4})" #n "0" |*|gain "1.5"
]
#shape "0.8"
#gain "1.0"

d5
$slow 4
$jux (iter 7)
$stack[
  s "fell:1(12, 28, {3, 6})",
  s "fell:0(12, 28, {0, 4})" #speed "{1.0, 1.5}"
]
-- #cutoff "8000" #resonance "0.3"
#shape "0.8"
#gain "1.3"
#speed "{1.0 1.5 2.0}%28"
#cutoff (scale 800 2000 $rand)
#resonance "0.2"

d5
$slow 2
-- $jux (iter 7)
$stack[
  s "ifdrums(8, 14)" #n (irand 64),
  s "808ch(12,14,{0,8})" #n (irand 12),
  s "glitch(5,14,5)" #n (irand 64),
  s "gabba"
]
#shape "0.5"
#gain "1.5"

-- 05
d5
$slow 2
$stack[
  s "bd(3, 7, 0)",
  s "ifdrums(3, 7, 5)",
  s "glitch(3, 7, 5)",
  s "bass(3, 7, 2)",
  s "cp(3, 7, 3)",
  s "dr55(3, 7, 4)",
  s "gabba*2"
]
-- #cutoff (scale 800 4000 $slow 12 $sine1) #resonance "0.4"
#gain "1.5"
# n (irand 64)
# pan (rand)

d5
$slow 2
$sometimesBy 0.4 (jux (rev))
$stack [
  s "ifdrums(3, 14, {0, 3})" #n (irand 3),
  s "bass(2, 14, 2)",
  s "dr55(2, 14, 3)" #n (irand 16),
  s "glitch2(2, 14, 1)" #n (irand 16),
  s "bd*2"
]
#gain "1.7"
#shape "0.7"

-- 06

-- solo $
d6
$stack [
  s "superzow*7" #n "{0 5 7 12}%18" |+| n "7",
  s "superzow*7" #n "{0 5 7 12}%13" |+| n "5",
  s "superzow*7" #n "{0 5 7 12}%7"
]
|+|n "{-24, -12, <-5 -7>}"
#pan (rand)
#sustain "{0.12}%7"
#gain "1.0"
#cutoff (scale 1000 12000 $slow 32 $sine1) #resonance "0.2"
#pitch1 (scale 1.0 4.0 $slow 64 $sine1)
#semitone "{12 19 17 24 -7}%8"
-- #room "0.6" #size "0.6"
#orbit "1"

d1
$s "super808*7" #n "-24"
#delay "0.9" #delaytime "{0.04 0.08 0.015 0.02}%14" #delayfeedback "0.7"
#cutoff (scale 4000 8000 $slow 24 $sine1) #resonance "0.3"
#sustain "0.2"
#shape "0.5"
#gain "1.5"

d2
$stack [
  s "808ch(5, 7, {3, 5})" #n (irand 12)  #gain "1.3",
  s "gabba(3, 7)" #n (irand 10) #gain "1.7"
]
#shape "0.9"

-- 07

d3
$slow 2
$sometimesBy 0.8 (jux (rev))
$s "kon(8, 14, {0, 4, 8})"
#cutoff "8000" #resonance "0.5"
#n "{0 1 3}%4"
#gain "1.6"

d4
$jux (rev)
$slow 2
$stack [
  s "supersaw(9, 14, 8)" #n "[0, 5, 7, 12]" |+| n "7",
  s "supersaw(9, 14, 4)" #n "[0, 5, 7, 12]" |+| n "5",
  s "supersaw(9, 14)" #n "[0, 5, 7, 12]" |+| n "0"
]
|+| n "12"
#cutoff (scale 4000 8000 $slow 8 $sine1) #resonance "0.4"
#sustain "0.04"
#gain "1.5"

d1
  $slow 1
  $note "-12*7"
  |+|note "{0 7 5 0}%9"
  -- |+|note "{0 5 7 12 11 13}%12"
  |+|note "{-12 7 -5 12}%8"
  #legato "{1 2 1 1 3}%9"
  -- |*| legato (scale 0.5 1.0 $slow 18 $sine1)
  -- #gain (scale 0.8 1.2 $slow 32 $sine1)
  #legato 1.2
  #gain 1.5
  #s "midi"

d2
  $ note "0*7"
  # midichan 0 # midicmd "control" # ctlNum 0 # control (scale 10 20 $slow 24 $sine1)
  #s "midi"

-- solo $
d3
  -- $sometimesBy 0.2 (jux ((5/7) ~>))
  $ sound "bye1(3, 7, {0, 3})"
  #n "{1 2 3}%9"
  #shape "0.3"
  #gain "1.3"

-- solo $
d1
  $sometimesBy 0.6 (jux (iter 8))
  -- $jux (iter 8)
  $ sound "bye2(2, 7})"
  #n "0 ~"
  #up "0"
  -- #shape "0.7"
  #gain "1.4"  

-- solo $  


d4
  -- $slow 2
  -- $sometimesBy 0.4 ((5/7) <~)
  $sound "uni(1, 7)"
  #n "{0 1 1}%3"
  #shape "0.5"
  #gain "1.5"

d5
  $sometimesBy 0.2 ((3/7) ~>)
  $sound "ifdrums(3, 7, 3)"
  #n "2 1 0"
  #gain "1.5"

-- solo $
d4
  $slow 8
  $sound "bmoog"
  # legato "2"
  # decay "0.5"
  |*| n "{-12, -19}"
  |+| n "0"
  |+| n "{0, <5 7 9>}"
  # lpf (scale 2000 8000 $slow 12 $sine1)
  # resonance "0.1"  
  # speed "0.2"
  # pitch1 "0.7"
  # gain "1.2"
  
d4
  $sound "jimsyn(4, 7)"
  #n "<20 1>"
  |*| up "-0.2"
  |*| up "[0, 7]"
  -- |*| up "<0 5 7>/4"
  |*| gain "1.2"
  #lpf (scale 2000 8000 $slow 12 $sine1)
  #resonance "0.1"  

d5
  -- $jux (iter 8)
  -- $sometimesBy 0.1 (0.125 ~>)
  $sound "autech3(5, 7, {0, 3})"
  #gain "1.5"
  #pan "{0.5 0.2 0.5 0.8}%3"
  #n "{0 3 0 0 2 3}%5"

 d3
  $sometimesBy 0.4 ((1/7) ~>)
  $sound "autech1(2, 7)"
  -- #n (irand 20)
  #n "0 1 0 2 3"
  #speed (scale 1.0 1.01 $rand)
  #pan (rand)
  #gain "1.5"
  #room "0.4" #size "0.4"
  -- #shape "0.9"
  -- #room "0.5" #size "0.4"
  #orbit "1"

d4 silence
  $sometimesBy 0.3 ((2/7) ~>)
  $sound "autech2(3, 7)"
  #n (irand 10)
  -- #speed (scale 1.0 1.01 $rand)
  -- #up "{0, 7}"
  #up 3
  #pan (rand)
  #gain "1.3"

d1
  $slow 8
  $sound "bmoog(3, 8, {0, 3})"
  #legato "3"
  #n "-17 -5"
  |+| n "{-12, -5}"
  #pitch1 0.4
  #speed 0.5
  -- #lpf 1000
  #gain "1.0"


  #n "{0 4 5 9}%9"
  |+| n "{-7, 0}"
  |+| n "-19 -12 -17"
  #gain "1.0"
  -- #room "0.8" #size "0.8"
  #pitch1 0.85
  #speed 0.4
  #lpf 1000
  -- #orbit "1"

d4
  $sometimesBy 0.6 ((1/7) <~)
  $sound "aphex(3, 7)"
  #gain "1.7"
  #pan (scale 0.3 0.7 $rand)
  #n "{0 1 0 2 3 0}%5"  



  -- #room "0.4" #size "0.9"  

hush

solo $
d1
  $ jux (iter 4)
  $ slow "[4, 8, 16, 32, 64]"
  $ striate' "64" (1/200)
  $ sound "minyo"
  #n "0"
  -- |*| up "{-5, 0}"
  |/| speed "[1, 1.3333]"
  #room "0.6" #size "0.6"
  -- #orbit "1"
  #gain "1.4"

hush





