--00
cps(140/120)

hush

do
  d1
    -- Whirlpool
    $ slow "<1 2 4 8>"
    $ note "0"
    |+| note "{0, 7}"
    |+| note "{-12, 0, 9, 24}"
    |+| note (choose [-5, 0, 5, 7, 9])
    |+| note "0"
    #gain 1.5
    #legato "4"
    #s "midi"
  d2
    $note "0*14"
    # midicmd "control"
    # ctlNum "[0, 1, 24, 25, 26]"
    # control (scale 0 120 $slow 3.333 $saw)
    #s "midi"

d4
  $slow 4
  $sound "autech1 uni:1"
  #n "0 1"
  #delay "0.8" #delaytime "0.03" #delayfeedback "0.5"
  #gain "1.7"

do
  d1 silence
  d2 silence
  d4 silence
  
d3
  -- $jux ((3/7) ~>)
  $ sound "tet(4, 7, {0, 2})"
  -- #n "{0 1 2 3}%9"
  -- # up "[0, 7]"
  -- #lpf (scale 1200 15000 $slow 16 $sine1)
  -- #resonance "0.1"
  #gain "1.0"


-- 06

-- solo $
d6
  $jux (rev)
  $s "supersaw*7"
  #sustain "0.12"
  #n "{0 -5 -7 -12 -17 -19}%9"
  |+| n "{0, 7, 24}"
  #voice (scale 0.1 0.5 $slow 24 $sine1)
  #cutoff (scale 400 12000 $slow 32 $sine1)
  #resonance "0.3"
  #gain "1.2"
  |+|semitone "{7 0 12 5 19 24}%12"

d1
  $s "super808*7" #n "-24"
  #delay "0.95" #delaytime "{0.04 0.08 0.015 0.02}%14" #delayfeedback "0.9"
  #cutoff (scale 4000 8000 $slow 24 $sine1) #resonance "0.3"
  #sustain "0.2"
  #shape "0.5"
  #gain "1.3"

d2
  $stack
  [
    sound "bass" #n (irand 64),
    sound "gabba" #gain "1.7",
    sound "glitch(2,7,3)" #n (irand 64),
    sound "gabba(3,7,0)" #n (irand 64),
    sound "ifdrums(4,7)" #n (irand 64)
  ]
  -- #cutoff "800" #resonance "0.2"
  -- #cutoff (scale 400 8000 $slow 16 $sine1) #resonance "0.2"
  -- #hpf 1000
  #gain "1.3"
  #shape "0.7"

d3
  $slow 2
  $sometimesBy 0.4 (jux ((5/7) ~>))
  $sound "uni(8, 14, {0, 5})"
  #n (irand 100)
  #shape "0.5"
  #gain "1.3"

d3
  $slow 2
  $sometimesBy 0.4 (jux ((5/7) ~>))
  $sound "bye3(9, 14, {0, 4})"
  #n (irand 100)
  #shape "0.7"
  #gain "1.7"

-- 07

d4
  $slow 2
  $sometimesBy 0.8 (jux (rev))
  $s "kon(8, 14, {0, 4, 8})"
  #cutoff "8000" #resonance "0.5"
  #n "{0 1}%4"
  #gain "1.4"

d5
  -- Full Bass
  $ note "-12*7"
  |+|note "{c d f g}%7"
  |+|note "{0 -5 7}%7"
  #gain (scale 1.1 1.5 $slow 12 $sine1)
  |*| gain 1.0
  #legato "2"
  #s "midi"

d7
  $note "0*7"
  # midicmd "control"
  # ctlNum "1"
  # control (scale 20 80 $slow 8 $sine1)
  #s "midi"

-- 08

do
  d2 silence
  d3 silence
  d5 silence
  d7 silence

do
  let
    pat1 = "{0 ~ ~ 0 ~ ~ 0 ~ 0 0 ~ 0 ~ ~}%7"
  d1
    $sometimesBy 0.1 (rev)
    $sometimesBy 0.4 ((4/7) <~)
    $stack
    [
      s "uni(5, 7)" #n "{0 1 2}%8", 
      s "distd(2, 7)" |*|gain "1.8" #voice "4" #sustain "0.2",
      s "[~ uni:1](2, 7)"
    ]
    #shape "0.85"
    |*|gain "1.5"
  d2
    $every 3 (jux ((1/7) ~>))
    $stack
    [
      up pat1
      |=| s "bfm"
      |+|n (choose [12, 0, -12, -24, -36])
      |+|n "{0, 5, 7, 9}"
    ]
    #sustain (choose [0.05, 0.12, 0.15])
    #pitch1 (choose [0.33, 3.33, 19.33])
    #voice (choose [30, 1000, 4000, 12000])
    #delay "0.8"
    #delaytime (choose [0.01, 0.03, 0.02, 0.008])
    #delayfeedback "0.8"
    |*|gain "1.8"
    #room "0.4"
    #size "0.2"

do
  let
    pat2 = "{0 ~ 0 ~ ~ 0 ~ 0 ~ ~}%7"
  d3
    $every 4 (jux ((1/7) ~>))
    $up pat2
    |=| s "superzow"
    |+|n (choose [19, 12, 0])
    |+|n "{0, 7, 11}"
    #sustain (choose [0.08, 0.12, 0.3])
    #shape "0.8"
    #lpf (scale 1000 20000 $rand)
    #resonance "0.4"
    #detune "10"
    #accelerate (choose [0, 0, 1, 4]) #slide "1"
    #gain "1.5"

do
  let
    pat3 = "{0 ~ 0 ~ ~ 0 0 ~ 0}%7"
  d4
    $sometimesBy 0.4 (jux ((4/7) ~>))
    $up pat3
    |=| s "supersiren"
    #sustain "0.15"
    #n "{0,5,7,9,11}"
    |+|n (choose [0, 5, 7, 9, 11])
    |+|n (choose [-12, -24, 0, 12, 24])
    #pan (rand)
    #gain "1.9"

d5
  $s "{superzow*7, uni:1*7}"
  #n "{0,5,7,9,11}"
  |+|n "{-12,0,12,24,48}"
  #sustain "0.1"
  #gain (scale 0.0 2.5 $slow 24 $saw1)
  -- #vowel "{a i u e o}%12"
  #room "0.2"
  #size "0.2"
  #orbit "1"

do
  d1 silence
  d2 silence  
  d3 silence
  d4 silence

do
  d5
    -- Whirlpool
    $ slow "<2, 4, 8>"
    $ note "0"
    |+| note "{0, 7}"
    |+| note "{-12, 0, 9, 24}"
    |+| note (choose [-5, 0, 5, 7, 9])
    |+| note "0"
    #gain 1.7
    #legato "3"
    #s "midi"
  d7
    $note "0*7"
    # midicmd "control"
    # ctlNum "[0, 1, 23, 24, 25, 26]"
    # control (scale 0 120 $rand)
    #s "midi"

hush    

d7
  $ sound "tet(4, 7, {0, 2})"
  # up "[0, 7]"
  -- |*| up "0 12 24"
  #n "{0 1 2 3}%9"
  #lpf (scale 1200 15000 $slow 16 $sine1)
  #resonance "0.1"
  #gain "1.0"

  -- $jux ((3/7) ~>)
  -- |*| up "<0 -5 5>/4"
  -- #lpf (scale 1200 15000 $slow 16 $sine1)
  -- #resonance "0.1"

d8
  $jux ((3/7) <~)  
  $sound "jimsyn(5, 7)"
  #n "<20 1>"
  |*| up "-0.2"
  |*| up "[0, 7]"
  |*| gain "0.0"
  #lpf (scale 2000 8000 $slow 12 $sine1)
  #resonance "0.2"
  
  


