-- 02

d4
  -- $every 8 (jux (rev))
  -- $sometimesBy 0.2 ((5/8) <~)
  $stack
  [
    s "distd(3, 7)", 
    s "bd cp bd hc ~ ~ ~" #n (irand 12),
    s "uni(6, 14, {0, 3})"
    #n "0 0 0 1 0 3 1"
  ]
  |*|gain "1.2"

d3
  $stack
  [
    s "super808(5, 14, 3)" #n "{-12 -7 -5 0 5 7}%3",
    s "ifdrums(6, 14, 0)"  #n "{1 2 3}%4",
    slow 2 $s "ifdrums(4, 14)" #gain "1.5"
  ]
  #shape "0.5"
  #gain "1.0"
