-- 07
d5
  $jux (rev)
  $s "supersaw(14, 14)"
  #sustain "0.1"
  # n (scale "indian" "{0 .. 12}%9") |-| n "12"
  |*| n "[1.0, 1.005]"
  -- |+| n "[0, 12]"
  #voice (range 0.1 0.2 $slow 24 $sine)
  #cutoff (range 800 8000 $slow 14 $sine)
  #resonance "0.2"
  #gain "1.2"
  -- #semitone "{7 0 12 5 19 24}%13"
  
solo 5
