-- 00

hush

d1
  $ slow 2
  $s "aleksi"
  #cps(110/240)
  #n 1
  #gain "1.0"
  #speed "[0.5, 1.0]"
  |*|speed "[1.0, 1.01]"
  #lpf 400 #resonance "0.2"

d2
  $sometimes (rev)
  $jux ((3/16) ~>)
  $stack
  [
    s "gamdru(3, 16)",
    s "gamsar(3, 16, 3)",
    s "gambon(7, 16)"
  ]
  #sustain "0.75"
  #gain "1.0"
  #n "{0 .. 10}%13"

d3
  $jux ((5/16) ~>)
  $stack
  [
    s "uni:1(5, 16, 7)" #gain "0.9",
    s "uni(3, 16)"
  ]
  |*| gain "1.2"

d4
  $sometimes (rev)
  $jux ((5/16) <~)
  $s "kon(7, 16)"
  #gain "1.0"
  #n "{0 1 3 4}"

d1
  $jux ((5/16) ~>)
  $s "tet(5, 16)"
  #speed "[1.0, 1.005]"
  #gain "1.1"
  #n "{0 1 2 3}%3"

d5
  $slow 4
  $s "matsu"
  #gain "1.1"
  #speed "[1.0, 3.0]"

d1
  $sometimes (rev)
  $jux ((3/16) <~)
  $s "bar(10, 16)"
  #gain "0.8"

d4
  $jux ((3/16) <~)  
  $sound "jimsyn(11, 16)"
  #n "{20 1}"
  |*| gain "1.0"
  #lpf (range 2000 8000 $slow 12 $sine)
  #resonance "0.1"  

-- 02

d3
  -- $every 8 (jux (rev))
  -- $sometimesBy 0.2 ((5/8) <~)
  $stack
  [
    s "distd*2", 
    s "bd cp bd hc" #n (irand 12),
    s "uni(6, 16, {0, 3})"
    #n "0 0 0 1 0 3 1 2"
  ]
  #gain "<1 1 1 1 1 1 0 0>"
  |*|gain "1.2"

d1
  $stack
  [
    s "super808(11, 16, 3)" #n "{-12 -7 -5 0 5 7}%3",
    s "ifdrums(5, 16, 0)"  #n "{1 2 3}%4",
    s "ifdrums(4, 16)" #gain "1.5"
  ]
  #shape "0.5"
  #gain "1.2"

--03

do 
  let chord1 = "c'maj9" 
  d1
    $stack
    [
      sound "supersaw(6,16,10)" # note chord1 |+|note "12", 
      sound "supersaw(6,16,5)" # note chord1 |+|note "7",
      sound "supersaw(6,16,0)" # note chord1 |+|note "0"
    ]
    #sustain "0.12"
    #gain "0.7"
    #lpf (range 800 8000 $slow 16 $sine)
    #resonance "0.2"

d2
  $jux ((5/8) ~>)
  -- $slow 2
  $s "deepsyn(5, 16, [0, 5])"
  #gain "1.0"
  #n "<6 7 8 9>*4"
  #up "[19, 24]"
  #speed "[1.01, 1.0]"
  #lpf (range 300 8000 $slow 8 $rand) #resonance "0.3"

  

  

