--00
hush

d1
  $ s "uni:1(1, 7)"
  # gain "0.6"
  # cps(75/120)

-- 01
d1
  $jux ((10/14) ~>)
  $s "sfh(3, 14)"
  #gain "0.7"
  #n (irand 200)
  #pan (range 0.4 0.6 $rand)
  #up "[7, 0, 12]"
  #speed "[1.01, 1.0]"
  #lpf "12000"

d2
  $slow 2
  $sound "empty"
  #speed "[1.0, 1.01]"
  #gain "0.9"
  #lpf "12000"

d3
  $jux ((3/7) ~>)
  $sound "autech2(3, 7, [0])"
  #gain "0.8"
  #speed "[1.005, 1.0]"
  #n "{0 1 2 3}%5"
  #lpf (range 400 18000 $slow 4 $sine) #resonance "0.1"
  |*|speed "[-1.0, 1.5]"
  
--02
d4
  $sometimesBy 0.6 (jux ((3/7) ~>))
  $sound "uni(5, 14)"
  #n "1 2"
  #gain "1.0"
  #delay "0.25"
  #delaytime "{0.005 0.02 0.01}"
  #delayfeedback "0.9"

d2
  $sometimesBy 0.2 (jux ((3/7)~>))
  $stack
  [
    s "uni(5, 14)" #gain "1.3" #shape "0.5",
    sometimes (jux ((5/14) ~>))
    $jux (rev)
    $s "uni(5, 14, [0, 6, 9, 12])"
    #n "{1 2 3}%6"
    #gain "1.0"
    #up "{0 -7 7 12}%7"
  ]
  |*| gain "1.0"
  -- #hpf 1000
  -- |*| gain "<1 1 1 1 1 1 1 0>"

--03
d1
  $sound "tet(8, 14, [0, 2])"
  #gain "1.0"
  #lpf (range 1200 15000 $slow 16 $sine)  #resonance "0.3"
  #up "{[0]}%5"
  #up "{[0,7] [7,14]}%5"
  #n "{0 1 2 3}%9"

d3
  $jux ((3/7) <~)  
  $sound "jimsyn(3, 7)"
  #n "<20 1>"
  |*| up "-0.2"
  |*| gain "1.0"
  #lpf (range 2000 8000 $slow 12 $sine)
  #resonance "0.2"

do 
  let chord1 = "c'sus2" 
  d4
    $stack
    [
      sound "supersaw(4,14,10)" # note chord1 |+|note "12", 
      sound "supersaw(4,14,5)" # note chord1 |+|note "7",
      sound "supersaw(4,14,0)" # note chord1 |+|note "0"
    ]
    #sustain "0.08"
    #gain "0.9"
    #lpf (range 800 8000 $slow 16 $sine)
    #resonance "0.2"

--04
d3
  $jux ((5/14) ~>)
  $slow 2
  $s "deepsyn(5, 14, [0, 5])"
  #gain "0.8"
  #n "<6 7 8 9>*4"
  #up "[19, 24]"
  #speed "[1.01, 1.0]"
  #lpf (range 300 8000 $slow 8 $rand) #resonance "0.3"

d2
  $sometimesBy 0.5 ((3/14) <~)
  $stack
  [
    -- s "tabla2(5, 14, {0})" #gain "1.3" #n (irand 30),
    s "kon(5, 7, [0, 2])" #n "{0 1 3 5}%6" #gain "1.2",
    s "uni(9, 14, 2)" #n 1 #gain "1.3",
    s "uni(5, 14)" #gain "1.6"
  ]
  |*|gain "1.0"
  -- #hpf 4000

--05
d4
  $sometimesBy 0.2 ((3/14) <~)
  $stack
  [
    s "distd(3, 7)", 
    s "{bd cp bd hc}%14" #n (irand 12),
    s "uni(2, 7)" #n "{0 0 0 1 0 3 1 2}%11"
  ]
  -- #gain "<1 1 1 1 1 1 0 0>"
  |*|gain "1.5"

d1
  $stack
  [
    s "super808(5, 14, 3)" #n "{-12 -7 -5 0 5 7}%7",
    s "ifdrums(3, 14, 0)"  #n "{1 2 3}%4",
    slow 2 $s "ifdrums(2, 14)" #gain "1.5"
  ]
  #shape "0.5"
  #gain "1.0"

-- 06
do
  let chord2 = "c4'sus2"
  d3
    -- $jux ((3/14) ~>)
    $s "superhammond(6, 14, [0, 3])" #note chord2 |+|note "[0, 12]"
    #lpf (range 500 18000 $slow 16 $sine)
    #resonance "0.3"
    #voice 3
    #gain "1.0"
    |+|note "{0 -12 12 -7 7}%7"

d4
  $ sometimesBy 0.2 ((2/7) ~>)
  $ s "superbass*14"
  # sustain "0.12"
  # n (scale "indian" "{0 .. 17}%11")
  |*| n "[1.0, 1.005]"
  # lpf (range 100 8000 $rand)
  # resonance "0.3"
  # gain "1.0"

-- minPent majPent ritusen egyptian kumai hirajoshi iwato chinese indian pelog prometheus scriabin gong shang jiao zhi yu whole augmented augmented2 hexMajor7 hexDorian hexPhrygian hexSus hexMajor6 hexAeolian major ionian dorian phrygian lydian mixolydian aeolian minor locrian harmonicMinor harmonicMajor melodicMinor melodicMinorDesc melodicMajor bartok hindu todi purvi marva bhairav ahirbhairav superLocrian romanianMinor hungarianMinor neapolitanMinor enigmatic spanish leadingWhole lydianMinor neapolitanMajor locrianMajor diminished diminished2 chromatic      

d4
  $chop 20
  $jux (rev)
  $s "eh(5, 14, {4, 8})"
  #n "{4}%9"
  #gain "0.9"
    
-- 07
d5
  $jux (rev)
  $s "supersaw(11, 14)"
  #sustain "0.1"
  # n (scale "indian" "{0 .. 19}%9")
  |-| n "12"
  |+| n "[0, 7, 12]"
  #voice (range 0.1 0.4 $slow 24 $rand)
  #cutoff (range 400 8000 $slow 14 $sine)
  #resonance "0.3"
  #gain "1.2"
  #semitone "{7 0 12 5 19 24}%13"
  
--08
d2
  $stack
  [
    s "gabba" #gain "1.2",
    s "glitch(6,14,3)" #n (irand 64),
    s "gabba(6,14,0)" #n (irand 64),
    s "ifdrums(10,14)" #n (irand 64)
  ]
  -- #hpf 1000
  |*|gain "1.3"
  #shape "0.5"

d3
  $jux ((5/14) ~>)
  $s "uni(5, 14, [0, 6, 9, 12])"
  #n "{0 1 2 3 4}%5"
  -- #delay "0.5"
  -- #delaytime "{0.005 0.02 0.01}%4"
  -- #delayfeedback "0.9"
  #gain "1.3"
  #shape "0.5"

d2
  $every 8 (jux (rev))
  $sometimesBy 0.2 ((3/7) <~)
  $stack
  [
    s "distd(2, 7)", 
    s "{bd cp bd hc}%7" #n (irand 12),
    s "uni(5, 14, {0, 3})"
    #n "0 0 0 1 0 3 1 2"
  ]
  #gain "<1 1 1 0>"
  |*|gain "1.3"
  #shape "0.5"  

d2
  -- $sometimes (jux (iter 14))
  -- $sometimes (jux (iter 7))
  $sometimes (rev)
  $sound "{ifdrums(9, 14, 0), bd(3, 14, 0), gabba(3, 14, 4)}"
  #gain "1.3"
  #shape "0.9"
  #n (irand 64)
  #pan (rand)

--09
do
  let chord2 = "c'sus2"
  d7
    $jux ((3/7) <~)
    $stack
    [
      s "supersaw(7,14,2)" #note chord2 |+|note "9" #pan (rand),
      s "supersaw(7,14,0)" #note chord2 |+|note "0" #pan (rand)
    ] 
    #cutoff (range 2000 18000 $slow 16 $sine)
    #resonance "0.2"
    #sustain "0.1"
    #gain "1.0"
    -- |+|n "<0 7 -7 -5 5 -12>"

do
  let chord3 = "c'maj7"
  d6
    $jux ((3/7) ~>)
    $s "supersaw(7, 14, {3, 4})"
    # note chord3
    |+|note "19"
    #sustain "0.05"
    #lpf (range 2000 15000 $slow 5 $sine)
    #resonance "0.3"
    #gain "1.0"
    -- #room "0.3" #size "0.8"

--10
do
  d5 silence
  d6 silence
  let
    pat1 = "{0 ~ ~ 0 ~ ~ 0 ~ 0 0 ~ 0 ~ ~}%14"
  d1
    $sometimesBy 0.1 (rev)
    $sometimesBy 0.4 ((1/7) <~)
    $stack
    [
      s "uni(5, 14)" #n "{0 1 2}%7", 
      s "distd(2, 14)" |*|gain "1.8" #voice "4" #sustain "0.2",
      s "uni:1(2, 14, 5)"
    ]
    #shape "0.9"
    |*|gain "1.5"
  d2
    $every 3 (jux ((3/7) ~>))
    $stack
    [
      up pat1
      # s "bfm"
      # note (choose [12, 0, -12, -24, -36])
      |+| note "{0, 5, 7, 9}"
    ]
    #sustain (choose [0.05, 0.12, 0.15])
    #pitch1 (choose [0.33, 3.33, 19.33])
    #voice (choose [30, 1000, 4000, 12000])
    #delay "0.8"
    #delaytime (choose [0.01, 0.03, 0.02, 0.008])
    #delayfeedback "0.8"
    |*|gain "1.5"
    #room "0.4"
    #size "0.2"

do
  let
    pat2 = "{0 ~ 0 ~ ~ 0 ~ 0 ~ ~}%14"
  d3
    $every 4 (jux ((1/7) ~>))
    $up pat2
    # s "superzow"
    # note (choose [19, 12, 0])
    |+| note "{0, 7, 11}"
    #sustain (choose [0.08, 0.12, 0.3])
    #shape "0.8"
    #lpf (range 1000 20000 $rand)
    #resonance "0.4"
    #detune "10"
    #accelerate (choose [0, 0, 1, 4]) #slide "1"
    #gain "1.5"

do
  let
    pat3 = "{0 ~ 0 ~ ~ 0 0 ~ 0}%14"
  d4
    $sometimesBy 0.4 (jux ((1/7) ~>))
    $up pat3
    # s "supersiren"
    # sustain "0.15"
    # note "[0,5,7,9,11]"
    |+| note (choose [0, 5, 7, 9, 11])
    |+| note (choose [-12, -24, 0, 12, 24])
    #pan (rand)
    #gain "1.9"

d5
  $s "{superzow*14, uni:1*14}"
  #n "{0,5,7,9,11}"
  |+|n "{-12,0,12,24,48}"
  #sustain "0.08"
  #gain (range 0.0 2.5 $slow 24 $saw)
  -- #vowel "{a i u e o}%12"
  -- #room "0.2" #size "0.2"

--11
d5 silence

d4
  $slow 2
  $jux ((3/7) ~>)
  $sound "autech2(5, 14, [0, 5, 10])"
  #gain "1.5"
  #speed "[1.005, 1.0]"
  #n "{0 1 2 3}%5"
  #lpf (range 400 18000 $slow 4 $sine) #resonance "0.1"
  |*|speed "[-1.0, 3]"
  #shape "0.5"

d3
  $jux (rev)
  -- $sometimesBy 0.2 (jux ((3/8)~>))
  -- $sometimesBy 0.1 ((3/8) <~)
  $stack
  [
    s "uni(6, 14)" #gain "1.7" #shape "0.9",
    sometimes (jux ((5/7) ~>))
    $s "uni(5, 14, [0, 6, 9, 12])"
    #note "{1 2 3}%6"
    #gain "1.2"
    #up "{0 -7 7 12}%7"
  ]
  -- |*| gain "<1 1 1 1 1 1 1 0>"
  |*| gain "1.0"
  #shape "0.8"
  -- #hpf 1000

d1
  $jux ((5/7) ~>)
  $s "sfh(1, 14)"
  #gain "1.5"
  #n (irand 200)
  #pan (range 0.4 0.6 $rand)
  #up "[7, 0, 12]"
  #speed "[1.01, 1.0]"

d2
  $slow 8
  $sound "empty"
  #speed "[1.0, 1.01]"
  #gain "1.5"
  #lpf "12800"

do
  d3 silence
  d4 silence

hush




    


