-- 05
d2
  $jux (rev)
  $s "supersaw*16"
  #sustain "0.01"
  #note "{0 -5 -7 -12 -17 -19}%11"
  -- |+| note "{0, 7}"
  #voice (range 0.1 0.8 $slow 24 $sine)
  #cutoff (range 400 18000 $slow 32 $sine)
  #resonance "0.3"
  #gain "1.0"
  -- #semitone "{7 0 12 5 19 24}%12"
  

