hush

d1
  $ slow 2
  $s "aleksi"
  #n 1
  #gain "1.0"
  #cps(110/240)
  #speed "[1.0, -0.5]"
  |*|speed "[1.0, 1.01]"

  #room "0.9"
  #orbit 1


d2
  $sometimes (rev)
  $jux (iter 8)
  $stack
  [
    s "gamsar(7, 16)",
    s "gamdru(3, 16)",
    s "gambon(5, 16)"
  ]
  #sustain "0.75"
  #gain "1.1"
  #n "{0 1 2 3 4 5 6}%7"

d3
  $stack
  [
    s "uni:1(5, 16, 7)" #gain "0.9" ,
    s "uni(6, 16)"
  ]
  |*| gain "1.2"

d4
  $sometimes (rev)
  $jux ((5/16) <~)
  $s "kon(7, 16)"
  #gain "1.0"
  #n "{0 1 3 4}"

d2
  $sometimes (rev)
  $jux ((7/16) <~)
  -- $sometimes (jux (rev))
  $stack
  [
    s "gamdru(9, 16)",
    s "gamsar(11, 16, 5)"    
  ]
  #gain "0.9"
  #sustain "0.5"
  #n "{0 .. 100}%3"
  -- #n (irand 200)
  -- |+| n "[0, 5]"
  -- |+| n 20
  -- #up "{0 4 5 7 11 -5 -7 12}%11"
  |+|up "[0, 0.1]"
  -- #speed "{1.0 1.5 0.5 2.0}%7"
  -- #pan (rand)

d5
  $sometimes (rev)
  $jux ((11/16) <~)
  $s "bar(10, 16)"
  #gain "1.0"

d5
  $slow 4
  $s "matsu"
  #gain "1.0"
  #speed "[1.0, 0.25, 0.5]"
  #lpf 80

d1
  $jux ((3/16) <~)  
  $sound "jimsyn(7, 16)"
  #n "{20 1}"
  |*| gain "1.0"
  #lpf (range 2000 8000 $slow 12 $sine)
  #resonance "0.2"  

d1
  $jux ((5/16) ~>)
  $s "tet(5, 16)"
  #gain "1.2"
  #n "{0 1 2 3}%5"

d1
  $s "supersaw"

d3
  $jux ((3/8) <~)  
  $sound "jimsyn(5, 8)"
  #n "<20 1 7>"
  |*| up "-0.2"
  |*| gain "1.0"
  #lpf (range 2000 8000 $slow 12 $sine)
  #resonance "0.2"

do 
  let chord1 = "c4'sus4" 
  d4
    -- $slow 2
    $stack
    [
      sound "supersaw(6,16,{0,8})" # note chord1 |+|note "12", 
      sound "supersaw(6,16,{2,5})" # note chord1 |+|note "7",
      sound "supersaw(6,16,{0,3})" # note chord1 |+|note "0"
    ]
    #sustain "0.15"
    #gain "0.7"
    #lpf (range 800 8000 $slow 16 $sine)
    #resonance "0.2"

--04
d3
  $jux ((5/8) ~>)
  -- $slow 2
  $s "deepsyn(5, 16, [0, 5])"
  #gain "1.0"
  #n "<6 7 8 9>*4"
  #up "[19, 24]"
  #speed "[1.01, 1.0]"
  #lpf (range 300 8000 $slow 8 $rand) #resonance "0.3"

--05
d4
  -- $every 8 (jux (rev))
  -- $sometimesBy 0.2 ((5/8) <~)
  $stack
  [
    s "distd*2", 
    s "bd cp bd hc" #n (irand 12),
    s "uni(6, 16, {0, 3})"
    #n "0 0 0 1 0 3 1 2"
  ]
  #gain "<1 1 1 1 1 1 0 0>"
  |*|gain "1.2"

d1
  $stack
  [
    s "super808(5, 16, 3)" #n "{-12 -7 -5 0 5 7}%3",
    s "ifdrums(6, 16, 0)"  #n "{1 2 3}%4",
    slow 2 $s "ifdrums(4, 16)" #gain "1.5"
  ]
  #shape "0.5"
  #gain "1.0"

-- 06
do
  let chord2 = "c'sus2"
  d3
    -- $slow 2
    $jux ((5/8) ~>)
    $s "superhammond(5, 16, [0, 3])" #note chord2 |+|note "[0, 7]"
    #lpf (range 500 18000 $slow 16 $sine)
    #resonance "0.3"
    #voice 3
    #gain "0.8"
    |+|note "{0 -12 12 -7 7}%16"

d4
  $ sometimesBy 0.4 (rev)
  $ s "superbass*16"
  # sustain "0.15"
  # n (scale "indian" "{0 .. 7}%9")
  #lpf (range 100 500 $rand)
  #resonance "0.3"
  #gain "0.9"

-- minPent majPent ritusen egyptian kumai hirajoshi iwato chinese indian pelog prometheus scriabin gong shang jiao zhi yu whole augmented augmented2 hexMajor7 hexDorian hexPhrygian hexSus hexMajor6 hexAeolian major ionian dorian phrygian lydian mixolydian aeolian minor locrian harmonicMinor harmonicMajor melodicMinor melodicMinorDesc melodicMajor bartok hindu todi purvi marva bhairav ahirbhairav superLocrian romanianMinor hungarianMinor neapolitanMinor enigmatic spanish leadingWhole lydianMinor neapolitanMajor locrianMajor diminished diminished2 chromatic      

    

d4
  $chop 12
  $jux (rev)
  $s "eh(5, 8, {4, 8})"
  #n "{4}%9"
  #gain "0.9"
    
  
-- 07
d5
  $jux (rev)
  $s "supersaw*16"
  #sustain "0.15"
  -- # note (scale "ritusen" "{0 .. 12}%9") |-| n "{24 12}"
  #note "{0 -5 -7 -12 -17 -19}%12"
  |+| note "{0, 7}"
  #voice (range 0.1 0.8 $slow 24 $sine)
  #cutoff (range 400 18000 $slow 32 $sine)
  #resonance "0.1"
  #gain "1.2"
  #semitone "{7 0 12 5 19 24}%12"
  
solo 5

  
