cps(110/120)

hush

d8 $sound "sync"

solo $

d1
-- $sometimes (rev)
-- $jux (iter 9)
$slowcat [
  s "supersaw(3, 9, {1, 2})" # n "{c5, e5, f5, g5, a5}",
  s "supersaw(3, 9, {1, 2})" # n "{c5, e5, f5, g5, a5}",
  s "supersaw(3, 9, {3, 4})" # n "{c5, e5, f5, g5, b5}"
]    
#pan (rand)
#voice (scale 0.0 0.2 $rand)
#sustain "0.15 0.1 0.05 0.3"
#cutoff (scale 1000 10000 $slow 24 $sine1)
#room "0.1"
#resonance "0.4"

d2
$sometimes (rev)
$s "superpwm(3, 9, {3, 4})" # n "{c5, e5, f5, g5, a5}"
#pan (rand)
#voice (rand)
#sustain "0.25 0.1 0.05"
#cutoff (scale 1000 10000 $slow 24 $sine1)
#resonance "0.3"

d3
$jux (iter 9)
$s "myMoog(3, 9, {5, 6})"
#n "{c5, e5, f5, g5, a5}"
#speed "3.0"
#slowcat[
  voice "1.23 2.34 1.45 0.56",
  voice "7.23 3.34 2.45 5.56",
  voice (scale 0.1 2 $rand)
]  
#pan (rand)
#sustain "0.3 0.1"
#cutoff (scale 800 10000 $slow 32 $sine1)
#resonance "0.3"
#gain "1.2"

d4
$s "ifdrums(3, 9, {7, 8})" #n (irand 64)
#pan (rand)
#delay "0.9" #delaytime "0.03 0.01 0.02 0.06" #delayfeedback "0.5"
#gain "1.5"
#shape "0.5"

d5
$ stack [
  sound "gabba(1, 9, {3, 4})" #n "5"
]
#gain "1.2"
#shape "0.5"

d6
$s "bass(3, 9, {7, 8})" #n (irand 64)
#pan (rand)
#gain "1.3"


hush




