-- 03
d5
$every 2 (#gain "0")
$sound "ifdrums*2 ~"
#n "[0 2] 0"
#gain "1.5"

d6
-- $sometimesBy 0.4 jux (iter 4)
$stack [
  -- s "ifdrums(2, 8, 5)" #n (irand 3),
  -- s "bass(2, 8, 2)",
  -- s "dr55(2, 8, 3)" #n (irand 16),
  -- s "glitch(2, 8, 1)" #n (irand 16),
  s "bd:0*2" #shape "0.2"
]
#gain "1.5"
